app/public/assets/luts/apple-log-conversion.cube
TITLE "Generated by Resolve"
LUT_3D_SIZE 9
0 0.0229648 0.0355535
0 0.0229496 0.0355535
0.0512398 0.0155642 0.0288701
0.246525 0.00550851 0.0223545
0.497642 0 0.0163577
0.851499 0 0
1 0 0
1 0 0.297383
1 0.154299 0.481117
0 0.0229953 0.0355993
0 0.0229801 0.035584
0.0600443 0.0146792 0.0285191
0.251087 0.00538643 0.0222934
0.499596 0 0.0162509
0.849119 0 0
1 0 0
1 0 0.266377
1 0.206088 0.457557
0 0.032578 0.0302739
0 0.0412299 0.0267185
0.0481575 0.0348821 0.0271458
0.24152 0.0111086 0.021561
0.494163 0 0.0166323
0.846922 0 0
1 0 0
1 0 0.250614
1 0.225696 0.449271
0 0.162753 0.0238041
0 0.166339 0.0234684
0 0.16463 0.0236362
0.179644 0.166476 0.0167086
0.485634 0.126299 0.0208286
0.851392 0.0305791 0
1 0.0496681 0
1 0.0774701 0.22623
1 0.261097 0.433173
0 0.271977 0
0 0.272801 0
0 0.275502 0
0 0.275242 0
0.377188 0.350057 0.00192264
0.792462 0.297337 0
1 0.312505 0
1 0.339284 0.202243
1 0.349676 0.408545
0 0.452323 0
0 0.45861 0
0 0.469871 0
0 0.472267 0
0 0.457023 0
0.554192 0.647044 0
0.96759 0.628595 0
1 0.571206 0.160372
1 0.536919 0.416678
0 0.653788 0
0 0.656138 0
0 0.654093 0
0 0.647257 0
0 0.631235 0
0.0165408 0.708568 0
0.828641 0.872694 0
1 0.816983 0.197848
1 0.773098 0.420508
0 0.937652 0.627008
0 0.926421 0.591104
0 0.921843 0.576577
0 0.914244 0.552865
0 0.898573 0.50663
0 0.874449 0.44181
0.130205 0.721492 0.024506
1 0.994446 0.332448
1 1 0.604623
0.0444648 0.960983 1
0.0543984 0.958099 1
0.0582284 0.956985 1
0.0644694 0.955184 1
0.0791638 0.950957 1
0.378805 1 1
0.522164 0.900984 0.734722
0.965454 1 0.699794
1 1 0.652155
0 0.0229801 0.035584
0 0.0229648 0.0355688
0.0798657 0.0138552 0.027985
0.260807 0.0052491 0.0222934
0.513085 0 0.0156252
0.861997 0 0
1 0 0.117327
1 0 0.348486
1 0.161379 0.496178
0 0.0229801 0.035584
0 0.0229801 0.035584
0.0874189 0.013489 0.0277409
0.265034 0.00518807 0.0222934
0.513802 0 0.0155489
0.870024 0 0
1 0 0.0891585
1 0 0.319493
1 0.210742 0.47393
0 0.0778973 0.0265965
0 0.0851453 0.0272068
0.0425574 0.0773632 0.0235294
0.244694 0.0498665 0.0221103
0.495781 0 0.016556
0.862104 0 0
1 0 0.0671397
1 0 0.305425
1 0.22948 0.464668
0 0.180774 0.0215152
0 0.182696 0.0212253
0 0.180346 0.021561
0.177539 0.188052 0.0153964
0.490776 0.145846 0.0188296
0.8663 0.04477 0
1 0.0748608 0.0575418
1 0.0738689 0.281575
1 0.263874 0.449958
0 0.2766 0
0 0.277317 0
0 0.280995 0
0 0.280797 0
0.379644 0.360632 0.000701915
0.799542 0.304631 0
1 0.317418 0
1 0.344778 0.253758
1 0.345312 0.422354
0 0.455558 0
0 0.464622 0
0 0.472297 0
0 0.473396 0
0 0.456352 0
0.551141 0.642176 0
0.964523 0.62118 0
1 0.569482 0.22536
1 0.538262 0.430259
0 0.674708 0.0137179
0 0.680568 0.0323491
0 0.674937 0.0197299
0 0.662974 0
0 0.637934 0
0 0.670451 0
0.829816 0.87155 0.0933852
1 0.813489 0.243824
1 0.773907 0.434791
0 0.955428 0.692485
0 0.947112 0.660517
0 0.94345 0.647272
0 0.937911 0.627863
0 0.92578 0.589075
0 0.907423 0.533715
0.102586 0.701335 0.0411231
1 0.993133 0.350988
1 0.999832 0.617716
0.0552834 0.95787 1
0.0648966 0.955062 1
0.0686046 0.953979 1
0.0742199 0.952361 1
0.0884565 0.948302 1
0.391196 1 1
0.547951 0.925032 0.772183
0.964614 0.999649 0.707927
1 1 0.659007
0 0.0174868 0.0623178
0 0.0171664 0.0796521
0.0874495 0.0132296 0.0737926
0.26743 0.00514229 0.0601663
0.511025 0 0.0408026
0.859876 0 0.0222171
1 0 0.169512
1 0 0.36965
1 0.1635 0.504189
0 0.0172274 0.0883803
0 0.0172274 0.105699
0.0918135 0.0127565 0.100557
0.267231 0.00511177 0.0818952
0.510948 0 0.0502022
0.870069 0 0.00993362
1 0 0.152667
1 0 0.340337
1 0.212863 0.481224
0 0.0786145 0.0916762
0 0.0800031 0.110491
0.0362554 0.0756847 0.0862287
0.252064 0.0494698 0.0634012
0.517555 0 0.0265049
0.883299 0 0
1 0 0.135714
1 0 0.327245
1 0.231128 0.471733
0 0.183459 0.0635386
0 0.187137 0.084535
0 0.185122 0.0798352
0.176654 0.189944 0.0456397
0.492744 0.149096 0.0235142
0.86714 0.0542611 0
1 0.0466926 0.115267
1 0.0782635 0.304326
1 0.264881 0.456779
0 0.277394 0
0 0.278569 0
0 0.282185 0
0 0.282094 0
0.376501 0.363455 0.000228885
0.798383 0.306737 0
1 0.321584 0.0514229
1 0.337713 0.270329
1 0.343603 0.427848
0 0.455375 0
0 0.465522 0
0 0.472068 0
0 0.472572 0
0 0.455528 0
0.549462 0.639536 0
0.965148 0.61976 0
1 0.568597 0.24712
1 0.539208 0.437034
0 0.706142 0.14049
0 0.712566 0.157504
0 0.705715 0.144198
0 0.689891 0.112123
0 0.65861 0.0541238
0 0.642954 0
0.828489 0.8692 0.135866
1 0.811841 0.261158
1 0.77438 0.440177
0 0.961318 0.717861
0 0.954391 0.688457
0 0.9514 0.6766
0 0.946059 0.656825
0 0.935836 0.621134
0 0.917937 0.567926
0.0925002 0.693874 0.0486915
1 0.992508 0.358953
1 0.999496 0.623316
0.06009 0.956466 1
0.0695201 0.953719 1
0.0732128 0.952651 1
0.0783551 0.951202 1
0.0925002 0.947127 1
0.396689 1 1
0.558465 0.934859 0.787808
0.964248 0.99939 0.711299
1 1 0.661799
0 0.0156252 0.209003
0 0.0155337 0.218433
0.0862135 0.011368 0.216373
0.262211 0.0039826 0.204837
0.506035 0 0.181674
0.854963 0 0.157748
1 0 0.253956
1 0 0.408865
1 0.1691 0.516976
0 0.0155337 0.217487
0 0.0154726 0.224964
0.0652018 0.0124208 0.224369
0.249058 0.00422675 0.211505
0.50251 0 0.181338
0.869078 0 0.145205
1 0 0.245335
1 0 0.380163
1 0.216602 0.494194
0 0.078233 0.207568
0 0.0807965 0.215076
0.0107118 0.0695659 0.220295
0.232456 0.0398413 0.212146
0.504295 0 0.169589
0.878187 0 0.131197
1 0 0.234928
1 0 0.368017
1 0.234546 0.486717
0 0.178439 0.255482
0 0.179126 0.265339
0.000900282 0.176806 0.267475
0.166781 0.186862 0.193484
0.498146 0.147707 0.160403
0.892638 0.0361181 0.102251
1 0.0179294 0.208728
1 0.0873274 0.34641
1 0.267689 0.472084
0 0.33402 0.198138
0 0.343771 0.220417
0 0.349508 0.224689
0 0.348394 0.219211
0.366903 0.366278 0.109865
0.796735 0.31252 0.0482795
1 0.327199 0.156191
1 0.317021 0.297658
1 0.341848 0.440711
0 0.461936 0
0 0.478691 0
0 0.484276 0
0 0.482383 0
0 0.455451 0
0.548409 0.636179 0.00695811
0.971756 0.621653 0.098085
1 0.567666 0.287297
1 0.541375 0.4495
0 0.77998 0.358724
0 0.783368 0.36643
0 0.775662 0.353063
0 0.758862 0.325917
0 0.722622 0.269459
0 0.601968 0
0.826032 0.864652 0.204959
1 0.808713 0.292363
1 0.775174 0.452399
0 0.970596 0.765728
0 0.965545 0.738109
0 0.963592 0.728557
0 0.959518 0.709834
0 0.951461 0.67686
0 0.935027 0.628229
0.0755932 0.681193 0.0639658
1 0.991394 0.37496
1 0.997925 0.634409
0.0693675 0.953765 1
0.0783398 0.951202 1
0.082002 0.950134 1
0.0867933 0.948775 1
0.0997787 0.945068 1
0.406149 1 1
0.580484 0.954177 0.819593
0.963561 0.998367 0.717586
1 1 0.668132
0 0.0128481 0.405051
0 0.0128176 0.4094
0.0950027 0.00901808 0.408133
0.260426 0.00311284 0.399695
0.499992 0 0.381979
0.845685 0 0.344594
1 0 0.413779
1 0 0.50457
1 0.185061 0.552285
0 0.0130007 0.394766
0 0.0128939 0.400549
0.010544 0.0122835 0.404776
0.217899 0.0041352 0.400916
0.48719 0 0.387152
0.858595 0 0.345953
1 0 0.403784
1 0 0.474327
1 0.228382 0.532586
0 0.0640879 0.390158
0 0.0601663 0.397452
0 0.0502937 0.402304
0.19559 0.0218814 0.402762
0.47892 0 0.388052
0.858045 0 0.341894
1 0 0.395163
1 0 0.463996
1 0.244419 0.524742
0 0.192294 0.373068
0 0.194064 0.382437
0 0.191546 0.388983
0.125353 0.180545 0.401572
0.469764 0.133684 0.396628
0.865568 0.0471809 0.337026
1 0.0513161 0.38146
1 0.112276 0.439597
1 0.275898 0.510246
0.0379797 0.330068 0.492607
0.0417334 0.337957 0.511101
0.0430457 0.340658 0.517464
0.0456245 0.338491 0.519921
0.343633 0.359106 0.364996
0.78558 0.307408 0.299916
1 0.313008 0.326986
1 0.277562 0.368353
1 0.347066 0.482017
0 0.599619 0.478599
0 0.617411 0.499611
0 0.619852 0.502663
0 0.616663 0.499306
0 0.600595 0.475822
0.536553 0.620066 0.257816
0.973754 0.611734 0.294331
1 0.567498 0.370825
1 0.533318 0.480186
0 0.858885 0.681208
0 0.853925 0.673793
0 0.84831 0.662715
0 0.836011 0.640299
0 0.808499 0.594522
0 0.566415 0.0906386
0.821012 0.852522 0.326116
1 0.801694 0.362066
1 0.778592 0.484215
0 0.979873 0.860304
0 0.978698 0.837064
0 0.978164 0.828885
0 0.976776 0.813581
0 0.973526 0.785061
0 0.958206 0.739742
0.0442054 0.657359 0.107805
1 0.988785 0.414267
1 0.996414 0.662943
0.0939193 0.946761 1
0.101045 0.944732 1
0.103105 0.944183 1
0.108843 0.94255 1
0.118151 0.939971 1
0.429419 1 1
0.63064 0.988937 0.884184
0.9617 0.996948 0.734691
1 1 0.684291
0 0.00337224 0.701274
0 0.00274662 0.718135
0.0241855 0.00181582 0.722576
0.214572 0 0.722362
0.476677 0 0.715724
0.833982 0 0.685481
0.993225 0 0.701305
0.994812 0 0.675074
1 0.225666 0.628534
0 0.0415656 0.68629
0 0.0317082 0.710994
0 0.0242771 0.712718
0.155993 0.000549325 0.714443
0.447776 0 0.711269
0.813214 0 0.679438
0.994415 0 0.682536
1 0.0623484 0.658747
1 0.260624 0.614252
0 0.118547 0.684703
0 0.116258 0.713787
0 0.110384 0.716197
0.133165 0.0948348 0.72546
0.442374 0.0392615 0.718502
0.801617 0 0.674693
1 0.0157473 0.681086
1 0.11133 0.644129
1 0.274693 0.609155
0 0.226001 0.67219
0 0.231907 0.70489
0 0.229175 0.706676
0.0328679 0.221195 0.713787
0.407431 0.18555 0.712718
0.790829 0.107073 0.674998
1 0.150301 0.657496
1 0.183276 0.61622
1 0.301442 0.597757
0 0.383322 0.640452
0 0.395514 0.669429
0 0.394171 0.671107
0 0.388769 0.671489
0.279545 0.370748 0.676417
0.715129 0.316182 0.644343
0.999344 0.327504 0.617761
1 0.307652 0.559075
1 0.363241 0.57734
0.0373541 0.557626 0.862501
0.0393683 0.562234 0.875303
0.0404212 0.55938 0.873152
0.0419928 0.552148 0.865293
0.061265 0.537545 0.842008
0.544854 0.603738 0.61886
0.967559 0.585092 0.555962
1 0.523491 0.52166
1 0.513619 0.557534
0 0.809201 0.99588
0 0.800275 0.971893
0 0.79588 0.960143
0 0.787808 0.93959
0 0.770077 0.898329
0.286534 0.80827 0.677211
0.809262 0.831296 0.518166
1 0.787396 0.506172
1 0.787366 0.56379
0.0216068 0.968444 1
0.0127565 0.971038 0.995285
0.00956741 0.971969 0.98883
0.00344854 0.973693 0.976028
0 0.970871 0.950301
0 0.960372 0.909377
0.0390173 0.648203 0.245426
1 0.982818 0.503471
1 0.993057 0.728939
0.144442 0.932448 1
0.148867 0.931151 1
0.150469 0.930663 1
0.152712 0.929992 1
0.15758 0.928557 1
0.479469 1 1
0.699107 1 0.976455
0.957321 0.993408 0.775677
1 1 0.724346
0 0.294286 0.91696
0 0.286336 0.915114
0 0.284062 0.916762
0.159731 0.274357 0.91986
0.420706 0.251789 0.917998
0.750408 0.195209 0.88954
0.971252 0.20473 0.885634
1 0.237583 0.830823
1 0.310765 0.775723
0 0.34934 0.910369
0 0.34258 0.909163
0 0.339696 0.908492
0.0899825 0.3337 0.913298
0.386145 0.313954 0.913741
0.722393 0.264485 0.888395
0.968948 0.265003 0.882856
1 0.279042 0.823072
1 0.333883 0.771878
0 0.37084 0.907317
0 0.363851 0.906035
0 0.36054 0.904921
0.0554513 0.355871 0.910109
0.369894 0.336751 0.911284
0.710719 0.289586 0.888151
0.967559 0.287236 0.880842
1 0.295903 0.819516
1 0.343542 0.770794
0 0.411307 0.899626
0 0.403952 0.898238
0 0.401114 0.897444
0 0.397024 0.900496
0.334829 0.380529 0.906065
0.686198 0.336797 0.887922
0.965682 0.328588 0.877943
1 0.327062 0.813993
1 0.363943 0.768414
0 0.504616 0.874205
0 0.495995 0.873671
0 0.492393 0.873243
0 0.484596 0.872267
0.243137 0.47538 0.887343
0.62417 0.442023 0.884611
0.961151 0.420493 0.872648
1 0.398047 0.807202
1 0.414923 0.764599
0 0.653193 0.886717
0 0.651621 0.847364
0 0.650233 0.836027
0 0.64477 0.818372
0.00927749 0.642969 0.823972
0.512901 0.632822 0.85716
0.925444 0.59263 0.852308
1 0.541238 0.794232
1 0.537713 0.756893
0.118074 0.738964 1
0.112215 0.729335 1
0.110063 0.72517 1
0.106294 0.717662 1
0.0991379 0.701137 1
0.495277 0.783413 1
0.79295 0.808255 0.808377
1 0.764553 0.747845
1 0.800061 0.737346
0.125826 0.931533 1
0.119524 0.928252 1
0.117128 0.927291 1
0.112688 0.92546 1
0.102159 0.919661 1
0.134936 0.925048 1
0.533471 0.992874 0.904738
1 0.971649 0.689815
1 0.988968 0.831464
0.21532 0.915663 1
0.215198 0.915648 1
0.215137 0.915663 1
0.215106 0.915663 1
0.325338 0.944884 1
0.556893 0.993896 1
0.75639 1 1
0.946761 0.984543 0.849775
1 0.997513 0.815259
0 0.557458 0.963882
0.079118 0.55845 0.979492
0.134752 0.556756 0.983536
0.224689 0.553872 0.992645
0.397559 0.54725 1
0.617868 0.523766 1
0.93373 0.490623 1
1 0.413687 1
1 0.450584 1
0 0.57113 0.956542
0.0529335 0.574029 0.975387
0.112718 0.572915 0.979995
0.207462 0.571069 0.989487
0.38407 0.564752 1
0.607324 0.54313 1
0.929519 0.508431 1
1 0.430289 1
1 0.467842 1
0 0.576211 0.952911
0.0406958 0.581125 0.973266
0.101915 0.580026 0.977813
0.199496 0.578378 0.98793
0.377417 0.572259 1
0.60116 0.55111 1
0.928206 0.51632 1
1 0.438148 1
1 0.474769 1
0 0.589731 0.949264
0.0171359 0.594873 0.96907
0.0804456 0.593729 0.974258
0.183246 0.591913 0.984253
0.36556 0.587274 1
0.592721 0.567681 1
0.922789 0.531884 1
1 0.453101 1
1 0.489769 1
0 0.622797 0.939971
0 0.626078 0.956588
0.0208133 0.627466 0.963943
0.1393 0.627131 0.974487
0.331395 0.624811 0.994232
0.569482 0.609949 1
0.910475 0.571847 1
1 0.49131 1
1 0.531472 1
0 0.693568 0.922576
0 0.686671 0.922286
0 0.691417 0.93193
0.0306554 0.700145 0.951095
0.255207 0.702647 0.97438
0.519997 0.695613 1
0.871077 0.658045 1
1 0.583276 1
1 0.639933 1
0.151095 0.696056 1
0.138506 0.694194 1
0.131701 0.693629 1
0.117998 0.692912 1
0.149218 0.810742 1
0.419623 0.8374 0.980774
0.762707 0.808423 0.990021
1 0.748394 1
1 0.845579 0.980865
0.230426 0.87895 1
0.229175 0.877043 1
0.22855 0.876265 1
0.227619 0.874159 1
0.225147 0.870146 1
0.222827 0.865049 1
0.625696 0.956786 1
0.979248 0.961059 0.947845
1 0.980667 0.950744
0.430488 0.949248 1
0.478569 0.959075 1
0.494469 0.962493 1
0.520943 0.968566 1
0.567575 0.978271 1
0.658244 0.989334 1
0.812665 0.990463 1
0.966415 0.991318 0.984085
1 0.992157 0.950988
0.393957 0.774563 0.996811
0.419516 0.775525 0.999603
0.429389 0.77496 1
0.450431 0.775586 1
0.501381 0.775464 1
0.618585 0.76936 1
0.879545 0.750393 1
1 0.695796 1
1 0.8878 1
0.389075 0.781064 0.99617
0.414328 0.781247 0.998581
0.425452 0.781521 0.999863
0.446387 0.782254 1
0.497734 0.78204 1
0.613977 0.776745 1
0.876417 0.757122 1
1 0.705394 1
1 0.893065 1
0.386892 0.783856 0.996078
0.41265 0.784024 0.998428
0.423514 0.78439 0.999649
0.44445 0.785016 1
0.495521 0.784451 1
0.61146 0.779629 1
0.87512 0.760128 1
1 0.709392 1
1 0.895247 1
0.382834 0.788632 0.9953
0.410086 0.7897 0.998352
0.421042 0.790051 0.999619
0.441291 0.790112 1
0.492668 0.790158 1
0.608209 0.785626 1
0.871916 0.766552 1
1 0.71841 1
1 0.899779 1
0.36878 0.803769 0.994079
0.396597 0.804105 0.996551
0.408377 0.804547 0.997894
0.43006 0.805371 1
0.482307 0.80618 1
0.596002 0.80209 1
0.861021 0.782712 1
1 0.739528 1
1 0.910887 0.998993
0.333257 0.841367 0.991608
0.363516 0.842832 0.994614
0.37702 0.843503 0.995987
0.402182 0.844495 0.998138
0.456931 0.846174 1
0.568643 0.844068 1
0.835157 0.82414 1
1 0.792218 1
1 0.93254 0.992081
0.470008 0.830594 1
0.484581 0.839277 1
0.489235 0.843122 1
0.498085 0.851041 1
0.512474 0.872969 1
0.530098 0.923156 1
0.767987 0.920256 1
1 0.903044 1
1 0.9617 0.984833
0.271153 0.909453 1
0.271153 0.909453 1
0.271138 0.909438 1
0.271122 0.909438 1
0.324193 0.923339 1
0.541436 0.972839 1
0.755596 0.990082 1
0.982422 0.984649 0.980774
1 0.982956 0.980011
0.700557 0.990509 1
0.709148 0.990662 1
0.713008 0.990723 1
0.720165 0.990738 1
0.740841 0.9906 1
0.789288 0.989944 1
0.879744 0.987732 1
0.98677 0.98938 0.994278
1 0.991562 0.976837
