app/public/assets/luts/apple-log-conversion.cube
TITLE "Generated by Resolve"
LUT_3D_SIZE 5
0 0.0229648 0.0355535
0.0512398 0.0155642 0.0288701
0.497642 0 0.0163577
1 0 0
1 0.154299 0.481117
0 0.032578 0.0302739
0.0481575 0.0348821 0.0271458
0.494163 0 0.0166323
1 0 0
1 0.225696 0.449271
0 0.271977 0
0 0.275502 0
0.377188 0.350057 0.00192264
1 0.312505 0
1 0.349676 0.408545
0 0.653788 0
0 0.654093 0
0 0.631235 0
0.828641 0.872694 0
1 0.773098 0.420508
0.0444648 0.960983 1
0.0582284 0.956985 1
0.0791638 0.950957 1
0.522164 0.900984 0.734722
1 1 0.652155
0 0.0174868 0.0623178
0.0874495 0.0132296 0.0737926
0.511025 0 0.0408026
1 0 0.169512
1 0.1635 0.504189
0 0.0786145 0.0916762
0.0362554 0.0756847 0.0862287
0.517555 0 0.0265049
1 0 0.135714
1 0.231128 0.471733
0 0.277394 0
0 0.282185 0
0.376501 0.363455 0.000228885
1 0.321584 0.0514229
1 0.343603 0.427848
0 0.706142 0.14049
0 0.705715 0.144198
0 0.65861 0.0541238
0.828489 0.8692 0.135866
1 0.77438 0.440177
0.06009 0.956466 1
0.0732128 0.952651 1
0.0925002 0.947127 1
0.558465 0.934859 0.787808
1 1 0.661799
0 0.0128481 0.405051
0.0950027 0.00901808 0.408133
0.499992 0 0.381979
1 0 0.413779
1 0.185061 0.552285
0 0.0640879 0.390158
0 0.0502937 0.402304
0.47892 0 0.388052
1 0 0.395163
1 0.244419 0.524742
0.0379797 0.330068 0.492607
0.0430457 0.340658 0.517464
0.343633 0.359106 0.364996
1 0.313008 0.326986
1 0.347066 0.482017
0 0.858885 0.681208
0 0.84831 0.662715
0 0.808499 0.594522
0.821012 0.852522 0.326116
1 0.778592 0.484215
0.0939193 0.946761 1
0.103105 0.944183 1
0.118151 0.939971 1
0.63064 0.988937 0.884184
1 1 0.684291
0 0.294286 0.91696
0 0.284062 0.916762
0.420706 0.251789 0.917998
0.971252 0.20473 0.885634
1 0.310765 0.775723
0 0.37084 0.907317
0 0.36054 0.904921
0.369894 0.336751 0.911284
0.967559 0.287236 0.880842
1 0.343542 0.770794
0 0.504616 0.874205
0 0.492393 0.873243
0.243137 0.47538 0.887343
0.961151 0.420493 0.872648
1 0.414923 0.764599
0.118074 0.738964 1
0.110063 0.72517 1
0.0991379 0.701137 1
0.79295 0.808255 0.808377
1 0.800061 0.737346
0.21532 0.915663 1
0.215137 0.915663 1
0.325338 0.944884 1
0.75639 1 1
1 0.997513 0.815259
0.393957 0.774563 0.996811
0.429389 0.77496 1
0.501381 0.775464 1
0.879545 0.750393 1
1 0.8878 1
0.386892 0.783856 0.996078
0.423514 0.78439 0.999649
0.495521 0.784451 1
0.87512 0.760128 1
1 0.895247 1
0.36878 0.803769 0.994079
0.408377 0.804547 0.997894
0.482307 0.80618 1
0.861021 0.782712 1
1 0.910887 0.998993
0.470008 0.830594 1
0.489235 0.843122 1
0.512474 0.872969 1
0.767987 0.920256 1
1 0.9617 0.984833
0.700557 0.990509 1
0.713008 0.990723 1
0.740841 0.9906 1
0.879744 0.987732 1
1 0.991562 0.976837
