app/public/assets/luts/apple-log-conversion.cube
TITLE "Generated by Resolve"
LUT_3D_SIZE 33
0 0.0229648 0.0355535
0 0.0229648 0.0355688
0 0.0229648 0.0355688
0 0.0229648 0.0355688
0 0.0229496 0.0355535
0 0.0229343 0.0355383
0 0.0229038 0.0355077
0.00885023 0.019913 0.0319829
0.0512398 0.0155642 0.0288701
0.0959945 0.012665 0.0270848
0.14403 0.0100862 0.0252842
0.191775 0.00758373 0.0235752
0.246525 0.00550851 0.0223545
0.309468 0.00384527 0.0216068
0.373419 0.0018616 0.0205844
0.435187 0 0.0191806
0.497642 0 0.0163577
0.566995 0 0.0109102
0.661387 0 0.00358587
0.7626 0 0
0.851499 0 0
0.916609 0 0
0.966735 0 0
1 0 0
1 0 0
1 0 0.0456245
1 0 0.15346
1 0 0.242405
1 0 0.297383
1 0 0.329931
1 0 0.374853
1 0 0.430961
1 0.154299 0.481117
0 0.0229801 0.0355993
0 0.0229801 0.035584
0 0.0229801 0.0355688
0 0.0229648 0.0355688
0 0.0229496 0.0355535
0 0.0229343 0.0355383
0 0.0226444 0.0349737
0.0136416 0.0194858 0.0316014
0.0558328 0.0150912 0.0287327
0.0999619 0.0124514 0.0269322
0.146578 0.00987259 0.0251316
0.193973 0.00753796 0.0235447
0.249027 0.00543221 0.0223087
0.311666 0.00376898 0.0215763
0.374899 0.00175479 0.0205081
0.436301 0 0.0191501
0.498634 0 0.0162814
0.567697 0 0.0108797
0.662104 0 0.00355535
0.763256 0 0
0.851911 0 0
0.916884 0 0
0.96643 0 0
1 0 0
1 0 0
1 0 0.0281224
1 0 0.141695
1 0 0.230793
1 0 0.283452
1 0 0.315999
1 0 0.362737
1 0.0484169 0.4224
1 0.181994 0.469108
0 0.0229801 0.035584
0 0.0229801 0.035584
0 0.0229801 0.0355688
0 0.0229648 0.035584
0 0.0229648 0.0355688
0 0.0229343 0.0355535
0 0.022385 0.0345769
0.0157473 0.0192416 0.0313878
0.0576486 0.0148928 0.0286717
0.101579 0.0123751 0.0268711
0.147875 0.00979629 0.0250553
0.194903 0.0075227 0.0235447
0.249775 0.00543221 0.0223239
0.312566 0.00375372 0.021561
0.375494 0.00170901 0.0204776
0.43679 0 0.0191348
0.499046 0 0.0162814
0.568002 0 0.0108644
0.662394 0 0.00355535
0.76347 0 0
0.852079 0 0
0.917845 0 0
0.967788 0 0
1 0 0
1 0 0
1 0 0.0205539
1 0 0.133883
1 0 0.223972
1 0 0.276616
1 0 0.310216
1 0 0.356802
1 0.0696574 0.41767
1 0.191959 0.463844
0 0.0229953 0.0355993
0 0.0229801 0.035584
0 0.0229801 0.035584
0 0.0229648 0.035584
0 0.0229648 0.035584
0 0.0229496 0.0355535
0 0.0222477 0.0343481
0.0172274 0.0191348 0.0312963
0.0590677 0.014725 0.0285496
0.102602 0.0123293 0.0268559
0.148745 0.00975052 0.0250401
0.195682 0.00749218 0.0235447
0.25037 0.00543221 0.0223087
0.313146 0.00373846 0.0215457
0.376028 0.00166323 0.0204471
0.43714 0 0.0191196
0.499336 0 0.0162661
0.568322 0 0.0108339
0.662654 0 0.00352483
0.763684 0 0
0.852277 0 0
0.91606 0 0
0.966934 0 0
1 0 0
1 0 0
1 0 0.0136416
1 0 0.128161
1 0 0.218051
1 0 0.271748
1 0 0.305898
1 0 0.352865
1 0.084535 0.412589
1 0.199908 0.460349
0 0.0229953 0.0355993
0 0.0229953 0.035584
0 0.0229801 0.035584
0 0.0229648 0.035584
0 0.0229801 0.035584
0 0.0229648 0.035584
0 0.0221256 0.034165
0.0184024 0.0191043 0.031281
0.0600443 0.0146792 0.0285191
0.103456 0.0123293 0.0268711
0.149523 0.00972 0.0250095
0.196262 0.0074464 0.0234989
0.251087 0.00538643 0.0222934
0.314397 0.00370794 0.0215305
0.377096 0.00163272 0.0204166
0.437446 0 0.0191196
0.499596 0 0.0162509
0.568551 0 0.0108186
0.662943 0 0.00350958
0.763775 0 0
0.849119 0 0
0.915694 0 0
0.962722 0 0
1 0 0
1 0 0
1 0 0.00813306
1 0 0.121553
1 0 0.213809
1 0 0.266377
1 0 0.301869
1 0 0.349767
1 0.0964981 0.408377
1 0.206088 0.457557
0 0.0229953 0.0355993
0 0.0229953 0.035584
0 0.0229801 0.035584
0 0.0229801 0.035584
0 0.0229801 0.035584
0 0.0229648 0.035584
0 0.0220798 0.0340429
0.0195926 0.0190585 0.0312657
0.0610971 0.0146487 0.0285039
0.104417 0.0123293 0.0268711
0.150256 0.00968948 0.0249943
0.196826 0.00741588 0.0234684
0.251637 0.00535592 0.0222782
0.31519 0.00367742 0.0215305
0.377676 0.0016022 0.0204166
0.437736 0 0.0191196
0.499855 0 0.0162356
0.568765 0 0.0107881
0.661448 0 0.00358587
0.760449 0 0
0.848295 0 0
0.916548 0 0
0.96379 0 0
1 0 0
1 0 0
1 0 0.00205997
1 0 0.116335
1 0 0.208698
1 0 0.262577
1 0 0.29839
1 0 0.348913
1 0.106142 0.404883
1 0.211109 0.455528
0 0.0230106 0.0355993
0 0.0229953 0.0355993
0 0.0229648 0.0355688
0 0.0229801 0.0355688
0 0.0229648 0.0355688
0 0.0229648 0.035584
0 0.0220188 0.0339208
0.0207523 0.018967 0.0312047
0.062089 0.0146181 0.0284886
0.105364 0.0123903 0.0269474
0.151064 0.00976577 0.0250858
0.197589 0.00746166 0.0235294
0.251957 0.00534066 0.0222629
0.317052 0.00360113 0.0214847
0.38291 0.00149538 0.0203861
0.443534 0 0.019089
0.501045 0 0.0163272
0.565728 0 0.0110323
0.657252 0 0.00396735
0.7579 0 0
0.847776 0 0
0.917098 0 0
0.964309 0 0
1 0 0
1 0 0
1 0 0
1 0 0.110216
1 0 0.20473
1 0 0.258808
1 0 0.295201
1 0 0.34696
1 0.113817 0.401282
1 0.216068 0.453208
0 0.0230106 0.0356298
0 0.0229953 0.0355993
0 0.0229801 0.0355993
0 0.0229801 0.035584
0 0.0229648 0.035584
0 0.0229648 0.035584
0 0.0219272 0.0337835
0.0218357 0.0188602 0.0311437
0.0628519 0.0145571 0.0284428
0.106142 0.0123598 0.0269322
0.151385 0.00978103 0.0251011
0.197421 0.00750744 0.0235752
0.250034 0.00541695 0.0223087
0.314611 0.00367742 0.0215152
0.37995 0.00172427 0.0205539
0.43946 0 0.0191958
0.4972 0 0.0165408
0.562203 0 0.0115206
0.655161 0 0.00421149
0.757733 0 0
0.848005 0 0
0.917296 0 0
0.964935 0 0
1 0 0
1 0 0
1 0 0
1 0 0.104479
1 0 0.200809
1 0 0.254261
1 0 0.292287
1 0.00378424 0.346334
1 0.120455 0.398611
1 0.220401 0.451392
0 0.032578 0.0302739
0 0.0368963 0.0282597
0 0.0384833 0.0276493
0 0.0399786 0.0271305
0 0.0412299 0.0267185
0 0.0422522 0.0264744
0 0.0419623 0.0261234
0.00588998 0.0383612 0.0271763
0.0481575 0.0348821 0.0271458
0.093843 0.0303197 0.0261692
0.14052 0.0246586 0.024445
0.188708 0.0182956 0.0229038
0.24152 0.0111086 0.021561
0.305867 0.00384527 0.021561
0.373373 0.00202945 0.0207523
0.43505 0 0.0193027
0.494163 0 0.0166323
0.559686 0 0.0118105
0.653071 0 0.00444038
0.7561 0 0
0.846922 0 0
0.918196 0 0
0.965225 0 0
1 0 0
1 0 0
1 0 0
1 0 0.0970474
1 0 0.195804
1 0 0.250614
1 0 0.289418
1 0.0199893 0.344686
1 0.129152 0.395148
1 0.225696 0.449271
0 0.0633707 0.0260319
0 0.0672465 0.0262455
0 0.0687877 0.0262913
0 0.0700847 0.0262608
0 0.0710765 0.0262608
0 0.0719921 0.0262913
0 0.071809 0.0262913
0 0.0693065 0.0239872
0.023209 0.0653086 0.0246433
0.0743267 0.0606699 0.0247501
0.125917 0.0546883 0.0240024
0.178531 0.0478981 0.0229496
0.233799 0.0401923 0.0222171
0.298939 0.0304723 0.021149
0.3673 0.0191501 0.0202182
0.429664 0.00488289 0.0171206
0.490349 0 0.0169985
0.556939 0 0.0119783
0.649653 0 0.00479133
0.754482 0 0
0.84651 0 0
0.91812 0 0
0.965591 0 0
1 0 0
1 0 0
1 0 0.000274662
1 0 0.0902724
1 0 0.188846
1 0 0.244862
1 0 0.284138
1 0.0409857 0.341314
1 0.139635 0.390448
1 0.231815 0.445899
0 0.0978866 0.0274968
0 0.101167 0.0275425
0 0.10222 0.0276493
0 0.10309 0.0276341
0 0.103792 0.0276188
0 0.104417 0.0274968
0 0.104189 0.0275425
0 0.102586 0.0276493
0 0.101747 0.0212711
0.0464179 0.0983597 0.0218814
0.103914 0.0932326 0.0219883
0.163409 0.0867323 0.0219272
0.222675 0.0791485 0.0220493
0.292439 0.0692149 0.0222171
0.365713 0.0567788 0.0222934
0.431052 0.0417182 0.0210727
0.490318 0.0228733 0.0175479
0.554406 0.000213626 0.0105898
0.645716 0 0.00508125
0.751171 0 0
0.844831 0 0
0.918212 0 0
0.965347 0 0
1 0 0
1 0 0
1 0 0.00515755
1 0 0.0948043
1 0 0.179248
1 0 0.237613
1 0 0.281331
1 0.0640269 0.336233
1 0.151919 0.384817
1 0.239643 0.442451
0 0.130938 0.0267338
0 0.133288 0.0267796
0 0.134279 0.0267033
0 0.134981 0.0266575
0 0.135592 0.0266117
0 0.136065 0.026566
0 0.135622 0.0266117
0 0.134264 0.026688
0 0.13341 0.0243229
0 0.135058 0.0171054
0.0719921 0.133776 0.018555
0.139376 0.128237 0.0191043
0.204532 0.121645 0.0200809
0.278752 0.113619 0.0214084
0.357397 0.103593 0.0225681
0.429023 0.090547 0.0232395
0.490471 0.0726787 0.0214389
0.556863 0.048249 0.0161898
0.648951 0.0193179 0.00663767
0.751659 0 0
0.843717 0 0
0.917144 0 0
0.964797 0 0
1 0 0
1 0 0
1 0.0205997 0.004654
1 0.0334478 0.103456
1 0.0287327 0.183124
1 0.0115358 0.23328
1 0.0225071 0.276707
1 0.0881819 0.328344
1 0.166461 0.378882
1 0.249241 0.438544
0 0.162753 0.0238041
0 0.164569 0.0236973
0 0.165316 0.0235904
0 0.165896 0.0235142
0 0.166339 0.0234684
0 0.166766 0.0234989
0 0.166369 0.0234684
0 0.165545 0.0235294
0 0.16463 0.0236362
0 0.16556 0.0182345
0.00993362 0.170962 0.0118868
0.101747 0.172305 0.0154879
0.179644 0.166476 0.0167086
0.255955 0.159823 0.0182956
0.339818 0.151507 0.0201114
0.418982 0.140719 0.021149
0.485634 0.126299 0.0208286
0.553964 0.106813 0.0176547
0.6477 0.0813458 0.00993362
0.756909 0.0534829 0.000808728
0.851392 0.0305791 0
0.925048 0.0114748 0
0.97171 0.0102235 0
1 0.024155 0
1 0.0496681 0
1 0.0842756 0
1 0.120195 0.093019
1 0.11191 0.179583
1 0.0774701 0.22623
1 0.0669718 0.266743
1 0.116075 0.317647
1 0.18381 0.370413
1 0.261097 0.433173
0 0.193591 0.0193637
0 0.194888 0.019089
0 0.195407 0.0189822
0 0.195789 0.0188907
0 0.196094 0.0188296
0 0.196353 0.0187686
0 0.196292 0.0187686
0 0.195956 0.0188296
0 0.195483 0.0189364
0 0.194598 0.0191043
0 0.197513 0.0103761
0.0273899 0.208377 0.00640879
0.138582 0.213367 0.0130007
0.223667 0.207233 0.0142214
0.311772 0.200519 0.0152895
0.400259 0.191318 0.0161746
0.471931 0.17911 0.0159152
0.542046 0.16321 0.0131533
0.634241 0.141497 0.00636301
0.747555 0.117388 0
0.847959 0.097734 0
0.925765 0.0856489 0
0.972808 0.0874342 0
1 0.0995346 0
1 0.118105 0
1 0.144228 0
1 0.174441 0.0777447
1 0.187213 0.166964
1 0.155154 0.219516
1 0.11693 0.252613
1 0.146777 0.303517
1 0.204196 0.362112
1 0.274739 0.427146
0 0.222126 0.0110475
0 0.223011 0.0107118
0 0.223316 0.0104829
0 0.223621 0.0103609
0 0.223865 0.0102541
0 0.224079 0.0101472
0 0.224231 0.0100862
0 0.224247 0.0100557
0 0.22446 0.00996414
0 0.224216 0.0100557
0 0.223713 0.0102388
0 0.228168 0
0.0451057 0.246265 0
0.17612 0.256626 0.00982681
0.273136 0.250889 0.0114595
0.369192 0.243992 0.0118868
0.450538 0.234134 0.0111849
0.524575 0.22089 0.0087129
0.611093 0.202274 0.00131228
0.72726 0.180774 0
0.835004 0.162814 0
0.915328 0.153399 0
0.964446 0.15642 0
1 0.167803 0
1 0.183062 0
1 0.202274 0
1 0.225483 0.0624247
1 0.247456 0.160327
1 0.228153 0.213214
1 0.181537 0.244816
1 0.183978 0.290608
1 0.227741 0.351507
1 0.292653 0.419715
0 0.248081 0
0 0.248753 0
0 0.248981 0
0 0.249134 0
0 0.249271 0
0 0.249424 0
0 0.250019 0
0 0.250385 0
0 0.250599 0
0 0.250675 0
0 0.250751 0
0 0.250233 0
0 0.256367 0
0.065156 0.28513 0
0.213245 0.302312 0.0041352
0.324804 0.298192 0.00796521
0.419715 0.290761 0.00723278
0.500481 0.280552 0.00482185
0.584192 0.26537 0
0.701152 0.246311 0
0.817884 0.229007 0
0.903639 0.220401 0
0.956039 0.223651 0
0.995727 0.233799 0
1 0.247303 0
1 0.261875 0
1 0.279408 0.0466316
1 0.294759 0.147982
1 0.296132 0.212024
1 0.247196 0.234989
1 0.233463 0.282368
1 0.260639 0.342626
1 0.314916 0.411734
0 0.271977 0
0 0.272404 0
0 0.272572 0
0 0.272694 0
0 0.272801 0
0 0.273136 0
0 0.274128 0
0 0.2748 0
0 0.275502 0
0 0.275853 0
0 0.27599 0
0 0.275975 0
0 0.275242 0
0 0.283085 0
0.0786297 0.324331 0
0.249653 0.35172 0
0.377188 0.350057 0.00192264
0.468727 0.342016 0.000427253
0.554147 0.330388 0
0.670085 0.313695 0
0.792462 0.297337 0
0.886519 0.28954 0
0.946136 0.291127 0
0.989044 0.300465 0
1 0.312505 0
1 0.322988 0
1 0.33576 0.027451
1 0.345998 0.133288
1 0.339284 0.202243
1 0.312154 0.23473
1 0.2851 0.27158
1 0.302113 0.336172
1 0.349676 0.408545
0 0.297337 0
0 0.297734 0
0 0.297932 0
0 0.29807 0
0 0.298177 0
0 0.299092 0
0 0.300587 0
0 0.301823 0
0 0.302541 0
0 0.303563 0
0 0.304082 0
0 0.304189 0
0 0.303807 0
0 0.302831 0
0 0.310597 0
0.0822766 0.365072 0
0.284916 0.406332 0
0.423468 0.409308 0
0.519265 0.400885 0
0.626337 0.386847 0
0.757366 0.371099 0
0.860502 0.361273 0
0.931701 0.361944 0
0.979324 0.369528 0
1 0.380758 0
1 0.390341 0
1 0.397528 0.00862135
1 0.40351 0.1205
1 0.38761 0.190967
1 0.354162 0.225132
1 0.338918 0.267262
1 0.347677 0.328679
1 0.387961 0.408774
0 0.334585 0
0 0.335195 0
0 0.335454 0
0 0.335622 0
0 0.335805 0
0 0.338979 0
0 0.341527 0
0 0.343145 0
0 0.345281 0
0 0.346639 0
0 0.347539 0
0 0.348379 0
0 0.348104 0
0 0.347036 0
0 0.345388 0
0 0.347768 0
0.0835126 0.41294 0
0.315297 0.469474 0
0.467216 0.48043 0
0.572381 0.469245 0
0.705806 0.453223 0
0.823331 0.442161 0
0.907378 0.439933 0
0.965759 0.446723 0
1 0.456474 0
1 0.465797 0
1 0.468177 0
1 0.467124 0.104143
1 0.442725 0.178653
1 0.398825 0.214527
1 0.381109 0.261234
1 0.397131 0.328542
1 0.434623 0.40705
0 0.388327 0
0 0.388815 0
0 0.389029 0
0 0.389212 0
0 0.390707 0
0 0.395972 0
0 0.39884 0
0 0.401282 0
0 0.402991 0
0 0.404669 0
0 0.4065 0
0 0.407492 0
0 0.40763 0
0 0.407279 0
0 0.405295 0
0 0.402213 0
0 0.408515 0
0.081117 0.476081 0
0.338521 0.543893 0
0.506706 0.562539 0
0.637446 0.549401 0
0.769482 0.537255 0
0.868849 0.532616 0
0.94255 0.53489 0
0.993637 0.542367 0
1 0.550439 0
1 0.545373 0
1 0.538628 0.0922866
1 0.504677 0.168292
1 0.449393 0.207568
1 0.423224 0.257694
1 0.439857 0.328573
1 0.488655 0.412985
0 0.452323 0
0 0.452689 0
0 0.453025 0
0 0.453208 0
0 0.45861 0
0 0.463188 0
0 0.466011 0
0 0.467887 0
0 0.469871 0
0 0.471138 0
0 0.471931 0
0 0.472801 0
0 0.472267 0
0 0.470726 0
0 0.468437 0
0 0.464836 0
0 0.457023 0
0 0.477714 0
0.102678 0.552636 0
0.373907 0.623133 0
0.554192 0.647044 0
0.699321 0.636439 0
0.816327 0.629541 0
0.90486 0.627329 0
0.96759 0.628595 0
1 0.630198 0
1 0.625788 0
1 0.612665 0.0814069
1 0.571206 0.160372
1 0.505379 0.20415
1 0.472389 0.25687
1 0.484291 0.330251
1 0.536919 0.416678
0 0.515953 0
0 0.516274 0
0 0.516365 0
0 0.519356 0
0 0.524514 0
0 0.527581 0
0 0.529168 0
0 0.530602 0
0 0.531319 0
0 0.532326 0
0 0.532479 0
0 0.532464 0
0 0.531304 0
0 0.529442 0
0 0.526314 0
0 0.522179 0
0 0.517571 0
0 0.513695 0
0 0.555779 0
0.170184 0.63595 0
0.447868 0.705226 0
0.619791 0.725185 0
0.759579 0.715526 0
0.861494 0.70782 0
0.937301 0.704173 0
0.99118 0.701289 0
1 0.69604 0
1 0.681239 0.079881
1 0.637049 0.1579
1 0.567422 0.202106
1 0.52813 0.258015
1 0.538201 0.332219
1 0.588571 0.416938
0 0.573022 0
0 0.573098 0
0 0.57319 0
0 0.578973 0
0 0.581491 0
0 0.582666 0
0 0.583764 0
0 0.584375 0
0 0.584543 0
0 0.584939 0
0 0.584421 0
0 0.583673 0
0 0.581674 0
0 0.579232 0
0 0.575616 0
0 0.571145 0
0 0.566033 0
0 0.558801 0
0 0.577234 0
0 0.637201 0
0.296574 0.720806 0
0.531411 0.775814 0
0.693462 0.786511 0
0.816724 0.776776 0
0.905013 0.768154 0
0.967849 0.762448 0
1 0.758083 0
1 0.744549 0.0917525
1 0.700755 0.161578
1 0.63154 0.204257
1 0.591165 0.260884
1 0.598459 0.334768
1 0.644907 0.417578
0 0.618296 0
0 0.618235 0
0 0.621912 0
0 0.623911 0
0 0.624933 0
0 0.624949 0
0 0.625116 0
0 0.624689 0
0 0.624582 0
0 0.624201 0
0 0.623148 0
0 0.621988 0
0 0.619791 0
0 0.617243 0
0 0.613519 0
0 0.608972 0
0 0.603342 0
0 0.597208 0
0 0.600229 0
0 0.641154 0
0.146792 0.717708 0
0.432258 0.795132 0
0.611215 0.831327 0
0.764019 0.833982 0
0.870207 0.823926 0
0.944656 0.815503 0
1 0.813458 0.0310063
1 0.801465 0.117144
1 0.761181 0.174914
1 0.695262 0.210819
1 0.655909 0.264103
1 0.66157 0.335119
1 0.707912 0.41912
0 0.653788 0
0 0.655451 0
0 0.656321 0
0 0.656626 0
0 0.656138 0
0 0.655818 0
0 0.655253 0
0 0.654643 0
0 0.654093 0
0 0.653132 0
0 0.651743 0
0 0.649882 0
0 0.647257 0
0 0.644511 0
0 0.640818 0
0 0.636194 0
0 0.631235 0
0 0.625513 0
0 0.621988 0
0 0.647578 0
0.0165408 0.708568 0
0.299443 0.790921 0
0.529366 0.852857 0
0.695415 0.874067 0
0.828641 0.872694 0
0.923873 0.865934 0.0251469
0.988815 0.860304 0.0868849
1 0.850477 0.155261
1 0.816983 0.197848
1 0.758633 0.222675
1 0.722927 0.268421
1 0.729641 0.336934
1 0.773098 0.420508
0 0.708522 0.0211643
0 0.70956 0.0260929
0 0.707424 0.0211948
0 0.705287 0.0160372
0 0.703593 0.0117342
0 0.701793 0.00770581
0 0.700465 0.00460822
0 0.699275 0.00144961
0 0.697643 0
0 0.695598 0
0 0.692363 0
0 0.688807 0
0 0.684565 0
0 0.679118 0
0 0.673777 0
0 0.667308 0
0 0.660761 0
0 0.653925 0
0 0.645945 0
0 0.648325 0
0 0.685847 0
0.127337 0.749706 0
0.400183 0.82768 0
0.599344 0.889815 0.0233768
0.771435 0.911574 0.0907454
0.891112 0.90956 0.119585
0.969314 0.900893 0.155322
1 0.892912 0.199969
1 0.867964 0.228092
1 0.82005 0.238575
1 0.790555 0.276493
1 0.799023 0.339193
1 0.845014 0.433387
0 0.835355 0.347356
0 0.823835 0.326009
0 0.818814 0.316686
0 0.814878 0.309239
0 0.81117 0.302388
0 0.808255 0.296956
0 0.805722 0.292195
0 0.803555 0.287953
0 0.801053 0.283299
0 0.797238 0.275822
0 0.792798 0.267414
0 0.78706 0.257374
0 0.780606 0.245411
0 0.773068 0.230335
0 0.76408 0.213504
0 0.753918 0.194278
0 0.743221 0.173159
0 0.732418 0.153933
0 0.723323 0.140108
0 0.665919 0
0 0.654826 0
0 0.678981 0
0.15346 0.737301 0
0.450752 0.836973 0.0427253
0.670726 0.917403 0.149767
0.836164 0.94081 0.209506
0.942473 0.937713 0.228824
1 0.930694 0.248142
1 0.914336 0.262852
1 0.87924 0.263279
1 0.858 0.28809
1 0.870192 0.350683
1 0.911757 0.456657
0 0.913359 0.550195
0 0.905592 0.527184
0 0.902296 0.517464
0 0.900191 0.511345
0 0.898512 0.506462
0 0.896635 0.501045
0 0.894835 0.495903
0 0.893477 0.492058
0 0.891875 0.487587
