app/public/assets/luts/chrome-250.cube
TITLE "Generated by Resolve"
LUT_3D_SIZE 33
0 0.0254978 0
0 0.0255131 0
0 0.0255131 0
0 0.0255131 0
0 0.0255131 0
0 0.024155 0
0 0.0194247 0
0.0142824 0.0162509 0
0.0654307 0.0106966 0
0.132738 0.00238041 0
0.206622 0 0
0.298283 0 0
0.392172 0 0
0.476249 0 0
0.557061 0 0
0.64773 0 0
0.762631 0 0
0.856199 0.00321965 0
0.914565 0.0237888 0
0.949691 0.040238 0
0.972686 0.0536355 0
0.983871 0.06392 0
0.976059 0.0347753 0
0.960388 0 0.0547646
0.96173 0 0.244388
0.962722 0 0.337957
0.963012 0 0.383627
0.964019 0 0.4327
0.976837 0.0234531 0.507118
0.993759 0.0618296 0.592721
1 0.162341 0.644541
1 0.179217 0.646601
1 0.179202 0.646586
0 0.0255436 0
0 0.0255283 0
0 0.0255283 0
0 0.0255283 0
0 0.0255131 0
0 0.0241398 0
0 0.0193637 0
0.0146944 0.0162203 0
0.0658885 0.0106508 0
0.133089 0.00233463 0
0.206287 0 0
0.295918 0 0
0.390143 0 0
0.473457 0 0
0.555215 0 0
0.648722 0 0
0.76408 0 0
0.85771 0.00366217 0
0.915602 0.0242466 0
0.950164 0.0404669 0
0.972946 0.0537881 0
0.983932 0.0640269 0
0.975555 0.033753 0
0.960449 0 0.0614023
0.961776 0 0.248814
0.962768 0 0.341283
0.963027 0 0.38468
0.964111 0 0.435492
0.983932 0.0382544 0.516426
1 0.108095 0.600092
1 0.200153 0.631647
1 0.179248 0.646616
1 0.179217 0.646586
0 0.0255589 0
0 0.0255436 0
0 0.0255283 0
0 0.0255283 0
0 0.0255283 0
0 0.024506 0
0 0.0202029 0
0.00939956 0.0166781 0
0.0590982 0.0114595 0
0.127092 0.00314336 0
0.201801 0 0
0.293446 0 0
0.386709 0 0
0.46923 0 0
0.553429 0 0
0.645197 0 0
0.765393 0 0
0.858778 0.00399786 0
0.916457 0.0246128 0
0.950607 0.0407263 0
0.973129 0.0538033 0
0.983886 0.0639506 0
0.975464 0.0335699 0
0.960464 0 0.0632639
0.961791 0 0.251591
0.962783 0 0.341985
0.963027 0 0.38497
0.964218 0 0.440711
0.989471 0.050782 0.523125
1 0.136477 0.599496
1 0.221149 0.619272
1 0.195026 0.635431
1 0.179217 0.646601
0 0.0255589 0
0 0.0255436 0
0 0.0255283 0
0 0.0255283 0
0 0.0255283 0
0 0.0244755 0
0 0.0204166 0
0.00550851 0.0169985 0
0.0513313 0.012314 0
0.114778 0.00509651 0
0.18056 0 0
0.266148 0 0
0.361975 0 0
0.451728 0 0
0.537087 0 0
0.631388 0 0
0.762173 0 0
0.858259 0.00386053 0
0.917403 0.0250401 0
0.950988 0.0408942 0
0.973251 0.0538033 0
0.983795 0.0638132 0
0.975677 0.0339818 0
0.960464 0 0.0640116
0.961822 0 0.252354
0.962768 0 0.341482
0.963043 0 0.384634
0.964309 0 0.444419
0.993606 0.0611887 0.529107
1 0.153811 0.597711
1 0.23093 0.615152
1 0.215549 0.618769
1 0.185672 0.641825
0 0.0255589 0
0 0.0255436 0
0 0.0255436 0
0 0.0255436 0
0 0.0255436 0
0 0.024094 0
0 0.0205539 0
0.00343328 0.0194553 0
0.0426947 0.0176852 0
0.099443 0.0122225 0
0.16434 0.00560006 0
0.246662 0 0
0.344213 0 0
0.435386 0 0
0.515023 0 0
0.602853 0 0
0.718257 0 0
0.83534 0 0
0.910109 0.0218204 0
0.947936 0.0395209 0
0.971786 0.0525978 0
0.983047 0.0627604 0
0.976913 0.0375982 0
0.960464 0 0.0617838
0.961807 0 0.251469
0.962768 0 0.340612
0.963027 0 0.383566
0.964401 0 0.446677
0.997086 0.06981 0.533654
1 0.168246 0.595514
1 0.238621 0.612924
1 0.224186 0.610788
1 0.209628 0.623972
0 0.027924 0
0 0.0282139 0
0 0.0280919 0
0 0.0285039 0
0 0.0295872 0
0 0.0294804 0
0 0.0287022 0
0 0.0284123 0
0.0329137 0.0278782 0
0.0876631 0.0239414 0
0.154452 0.0175631 0
0.236927 0.00868238 0
0.333562 0 0
0.427359 0 0
0.504646 0 0
0.585138 0 0
0.688701 0 0
0.803555 0 0
0.890043 0.0138552 0
0.941619 0.0362249 0
0.968414 0.0499428 0
0.980911 0.0597238 0
0.983749 0.058732 0
0.960311 0 0
0.961563 0 0.217792
0.96257 0 0.327153
0.962966 0 0.3785
0.9664 0.00285344 0.444343
0.999771 0.0755322 0.534508
1 0.179919 0.593256
1 0.243854 0.610773
1 0.231266 0.605142
1 0.220127 0.614816
0 0.0435187 0
0 0.0439307 0
0 0.0429999 0
0 0.0428321 0
0 0.043946 0
0 0.0438544 0
0 0.0437934 0
0 0.0436561 0
0.0226902 0.0430152 0
0.0771649 0.0391394 0
0.146914 0.0331121 0
0.230549 0.0246281 0
0.330297 0.0147707 0
0.427359 0.00447089 0
0.50692 0 0
0.581155 0 0
0.674281 0 0
0.784726 0 0
0.873381 0.00801099 0
0.928389 0.0298772 0
0.962615 0.0467842 0
0.979538 0.0576333 0
0.985275 0.0659342 0
0.963561 0.00201419 0
0.961196 0 0.168399
0.962203 0 0.301808
0.963134 0 0.365057
0.970199 0.00921645 0.430091
0.996857 0.0692302 0.518288
1 0.177005 0.581949
1 0.250675 0.605066
1 0.23975 0.599283
1 0.23032 0.606226
0 0.0652018 0
0 0.0654765 0
0 0.0645151 0
0 0.0636454 0
0 0.0633097 0
0 0.0628519 0
0 0.0633249 0
0 0.0634928 0
0.00987259 0.0638132 0
0.0651255 0.0616617 0
0.140032 0.0555886 0
0.227192 0.0485084 0
0.331609 0.0393835 0
0.434241 0.0310216 0
0.51809 0.0214389 0
0.593286 0.0081178 0
0.676127 0 0
0.780606 0 0
0.866316 0.00767529 0
0.920485 0.0264134 0
0.954498 0.04271 0
0.977569 0.0563668 0
0.98407 0.06421 0
0.972671 0.0255131 0
0.961517 0 0.111315
0.96199 0 0.274891
0.96289 0 0.348318
0.97171 0.0119631 0.412238
0.996048 0.0671397 0.502037
1 0.171832 0.569726
1 0.257771 0.598901
1 0.247715 0.592874
1 0.240497 0.59675
0 0.0914626 0
0 0.0917983 0
0 0.0908675 0
0 0.0889296 0
0 0.0873121 0
0 0.0867781 0
0 0.0877394 0
0 0.0893111 0
0 0.0921492 0
0.04654 0.0918288 0
0.128161 0.0866865 0
0.220859 0.0806134 0
0.334371 0.0736095 0
0.442023 0.066804 0
0.530297 0.0592203 0
0.609354 0.0482795 0
0.696513 0.0342718 0
0.794781 0.0203403 0
0.872343 0.0226291 0
0.926116 0.0413672 0
0.961257 0.061387 0
0.987274 0.0840772 0
0.994263 0.0907759 0
0.992844 0.0779889 0
0.962982 0 0.0528878
0.969223 0.00691234 0.250294
0.964645 0 0.331273
0.971313 0.0111391 0.394858
0.996811 0.0691234 0.485161
1 0.167163 0.554803
1 0.263203 0.592447
1 0.254871 0.58558
1 0.24802 0.589197
0 0.122774 0
0 0.12311 0
0 0.122621 0
0 0.119219 0
0 0.116091 0
0 0.114977 0
0 0.116091 0
0 0.119768 0
0 0.124605 0
0.0181277 0.130236 0
0.105058 0.127855 0
0.207691 0.122652 0
0.325353 0.116411 0
0.440208 0.109987 0
0.534615 0.104021 0
0.617548 0.0953384 0
0.707942 0.0839704 0
0.811795 0.0739147 0
0.892683 0.0742809 0
0.942718 0.0850538 0
0.975494 0.105699 0
0.997635 0.13518 0
1 0.149996 0
1 0.147814 0
1 0.0892805 0.0699168
0.987015 0.0441596 0.208133
0.977035 0.0232242 0.315251
0.97554 0.0201114 0.379049
1 0.0766613 0.46685
1 0.165667 0.537179
1 0.269245 0.584955
1 0.260853 0.578912
1 0.255131 0.582071
0 0.158007 0
0 0.15816 0
0 0.158007 0
0 0.15346 0
0 0.149996 0
0 0.147906 0
0 0.148302 0
0 0.151583 0
0 0.15877 0
0 0.169512 0
0.0670787 0.177127 0
0.183993 0.172793 0
0.306416 0.165881 0
0.428809 0.159701 0
0.530251 0.155123 0
0.615183 0.148165 0
0.706996 0.137667 0
0.811383 0.130571 0
0.895979 0.134112 0
0.947738 0.148669 0
0.978531 0.168612 0
0.998306 0.193698 0
1 0.21677 0
1 0.227359 0
1 0.218326 0.0573587
1 0.13225 0.177829
0.995575 0.0646983 0.276768
0.987182 0.044892 0.357321
1 0.0891432 0.443015
1 0.167269 0.516869
1 0.268635 0.571832
1 0.267353 0.569604
1 0.26157 0.575631
0 0.193866 0
0 0.19408 0
0 0.194125 0
0 0.190555 0
0 0.187228 0
0 0.18529 0
0 0.183963 0
0 0.185534 0
0 0.191882 0
0 0.206058 0
0.00843824 0.224109 0
0.137758 0.228534 0
0.275349 0.222827 0
0.407401 0.216312 0
0.516609 0.212024 0
0.60412 0.205844 0
0.698054 0.197192 0
0.803159 0.190234 0
0.889616 0.192538 0
0.942855 0.204639 0
0.974411 0.223301 0
0.995041 0.245075 0
1 0.26508 0
1 0.280568 0
1 0.283177 0
1 0.260533 0.157641
1 0.116594 0.209415
1 0.0793774 0.320348
1 0.106142 0.413947
1 0.174472 0.491554
1 0.268803 0.555535
1 0.275563 0.558953
1 0.268925 0.567224
0 0.23125 0
0 0.231632 0
0 0.231861 0
0 0.229496 0
0 0.225559 0
0 0.223743 0
0 0.222446 0
0 0.2224 0
0 0.225345 0
0 0.236103 0
0 0.258564 0
0.0512093 0.282933 0
0.218372 0.286824 0
0.367498 0.28188 0
0.487877 0.275364 0
0.584085 0.270787 0
0.680079 0.262806 0
0.787198 0.254582 0
0.877882 0.255161 0
0.934508 0.265583 0
0.967651 0.282597 0
0.988785 0.301732 0
0.997604 0.318395 0
1 0.331258 0
1 0.341054 0
1 0.32668 0.0805829
1 0.267811 0.215106
1 0.119524 0.257328
1 0.129931 0.377951
1 0.187549 0.46186
1 0.27245 0.53164
1 0.286 0.547143
1 0.278035 0.556374
0 0.267582 0
0 0.267628 0
0 0.268055 0
0 0.267216 0
0 0.263996 0
0 0.261326 0
0 0.260044 0
0 0.259556 0
0 0.260456 0
0 0.264515 0
0 0.278981 0
0 0.314061 0
0.102602 0.347204 0
0.299306 0.351476 0
0.444846 0.346166 0
0.553536 0.341588 0
0.652384 0.334005 0
0.763928 0.325017 0
0.860563 0.323003 0
0.921859 0.330816 0
0.95816 0.344778 0
0.980545 0.361685 0
0.991028 0.374838 0
0.993576 0.383566 0
0.995483 0.388327 0
0.997421 0.386221 0.0206607
1 0.336782 0.157366
1 0.241062 0.233768
1 0.161273 0.319417
1 0.206683 0.423941
1 0.279835 0.501991
1 0.298543 0.532067
1 0.289235 0.542992
0 0.303243 0
0 0.303777 0
0 0.30425 0
0 0.304326 0
0 0.300816 0
0 0.298085 0
0 0.296834 0
0 0.296376 0
0 0.296468 0
0 0.297902 0
0 0.303227 0
0 0.320333 0
0 0.371267 0
0.159213 0.4168 0
0.369604 0.421363 0
0.507454 0.418585 0
0.61384 0.411124 0
0.729137 0.40116 0
0.834134 0.395987 0
0.904112 0.400351 0
0.944518 0.410803 0
0.970031 0.423316 0
0.982162 0.433494 0
0.985687 0.437598 0
0.987564 0.435874 0
0.990753 0.431983 0
0.995697 0.400244 0.0996719
1 0.328328 0.200519
1 0.249821 0.275593
1 0.231037 0.377569
1 0.290791 0.466117
1 0.313634 0.5122
1 0.303563 0.52575
0 0.344427 0
0 0.34519 0
0 0.345693 0
0 0.34641 0
0 0.343359 0
0 0.340307 0
0 0.338186 0
0 0.337331 0
0 0.337209 0
0 0.337728 0
0 0.339269 0
0 0.344884 0
0 0.363272 0
0 0.430747 0
0.195926 0.488136 0
0.420279 0.498482 0
0.559655 0.496025 0
0.678172 0.485359 0
0.795102 0.474678 0
0.877516 0.472557 0
0.92639 0.477607 0
0.955535 0.486397 0
0.972305 0.493355 0
0.976944 0.494667 0
0.97937 0.48893 0
0.98352 0.477607 0
0.988128 0.452583 0.0421759
0.996551 0.390494 0.140337
1 0.337652 0.248798
1 0.293523 0.327321
1 0.308782 0.429252
1 0.331563 0.488396
1 0.320058 0.503899
0 0.411032 0
0 0.412665 0
0 0.413779 0
0 0.414725 0
0 0.409598 0
0 0.405097 0
0 0.401022 0
0 0.398444 0
0 0.397024 0
0 0.397604 0
0 0.39826 0
0 0.399725 0
0 0.404364 0
0 0.416663 0
0 0.494331 0
0.211017 0.563577 0
0.462333 0.579019 0
0.606699 0.57467 0
0.738949 0.559228 0
0.839231 0.550774 0
0.901122 0.550271 0
0.938476 0.555047 0
0.961593 0.558495 0
0.968215 0.557977 0
0.970596 0.547951 0
0.975357 0.527993 0
0.981903 0.495506 0
0.989105 0.445274 0.0784619
0.99617 0.392554 0.178775
0.998077 0.372412 0.295399
1 0.345586 0.391577
1 0.354711 0.456764
1 0.34139 0.474998
0 0.496361 0
0 0.498161 0
0 0.499046 0
0 0.500847 0
0 0.49659 0
0 0.489189 0
0 0.483757 0
0 0.480049 0
0 0.477974 0
0 0.476875 0
0 0.47689 0
0 0.477073 0
0 0.47808 0
0 0.47953 0
0 0.49572 0
0 0.573663 0
0.223346 0.644739 0
0.49659 0.660197 0
0.65919 0.653071 0
0.785107 0.637934 0
0.865644 0.63061 0
0.915618 0.629343 0
0.946685 0.629511 0
0.9579 0.62536 0
0.961822 0.610758 0
0.966659 0.584833 0
0.973831 0.545174 0
0.98233 0.492073 0.0162051
0.989044 0.443854 0.102541
0.992096 0.416052 0.245686
0.989776 0.421851 0.379141
0.995697 0.39707 0.426841
1 0.368566 0.437629
0 0.582361 0
0 0.583627 0
0 0.58471 0
0 0.585794 0
0 0.583932 0
0 0.576486 0
0 0.570672 0
0 0.566308 0
0 0.562737 0
0 0.560357 0
0 0.558541 0
0 0.557443 0
0 0.556313 0
0 0.554833 0
0 0.553185 0
0 0.57734 0
0 0.659983 0
0.263798 0.718944 0
0.549126 0.732235 0
0.712337 0.72398 0
0.819471 0.710872 0
0.885679 0.703487 0
0.924956 0.698177 0
0.945846 0.690349 0
0.952346 0.675258 0
0.957427 0.647242 0
0.965454 0.601724 0
0.974701 0.540978 0
0.983124 0.487007 0.0351415
0.985702 0.46157 0.197971
0.984268 0.460182 0.343877
0.981567 0.469154 0.420417
0.987106 0.442039 0.422278
0 0.656901 0
0 0.658549 0
0 0.659159 0
0 0.659754 0
0 0.659464 0
0 0.652781 0
0 0.647929 0
0 0.642985 0
0 0.639261 0
0 0.635813 0
0 0.633234 0
0 0.630945 0
0 0.627771 0
0 0.625483 0
0 0.622095 0
0 0.619532 0
0 0.662715 0
0 0.741772 0
0.360845 0.779568 0
0.615991 0.789029 0
0.763561 0.779355 0
0.849683 0.766766 0
0.901152 0.756909 0
0.932143 0.748043 0
0.944121 0.735515 0
0.94847 0.709667 0
0.955108 0.663523 0
0.966094 0.59733 0
0.976257 0.534096 0
0.979477 0.504234 0.152834
0.977508 0.506615 0.310918
0.97528 0.512688 0.401266
0.976928 0.501534 0.406287
0 0.71519 0
0 0.716686 0
0 0.717494 0
0 0.717998 0
0 0.718532 0
0 0.713359 0
0 0.708659 0
0 0.704875 0
0 0.700618 0
0 0.697185 0
0 0.693843 0
0 0.690867 0
0 0.686931 0
0 0.683391 0
0 0.679072 0
0 0.672862 0
0 0.685817 0
0 0.735622 0
0.0726482 0.80473 0
0.462486 0.824613 0
0.684977 0.829633 0
0.809277 0.819852 0
0.875486 0.807401 0
0.915328 0.797269 0
0.935073 0.786343 0
0.940963 0.765713 0
0.946563 0.725261 0
0.956542 0.659175 0
0.968765 0.587823 0
0.973205 0.549813 0.115145
0.970871 0.552178 0.285512
0.966934 0.570794 0.388586
0.968368 0.559609 0.389548
0 0.768658 0
0 0.770535 0
0 0.771649 0
0 0.773022 0
0 0.774212 0
0 0.768734 0
0 0.761929 0
0 0.755886 0
0 0.749981 0
0 0.744869 0
0 0.740093 0
0 0.735531 0
0 0.731594 0
0 0.726955 0
0 0.722515 0
0 0.717235 0
0 0.715785 0
0 0.736736 0
0 0.789685 0
0.200778 0.843931 0
0.555001 0.857038 0
0.742611 0.858885 0
0.844572 0.849699 0
0.896941 0.838804 0
0.925597 0.828992 0
0.9364 0.813642 0
0.939315 0.780392 0
0.947707 0.72256 0
0.959274 0.649775 0
0.965896 0.603998 0.088304
0.963516 0.604944 0.271122
0.957626 0.626947 0.382879
0.959411 0.616922 0.384497
0 0.835767 0
0 0.839536 0
0 0.841993 0
0 0.843366 0
0 0.845487 0
0 0.841093 0
0 0.83183 0
0 0.82327 0
0 0.814542 0
0 0.806088 0
0 0.798321 0
0 0.790799 0
0 0.78349 0
0 0.775662 0
0 0.768109 0
0 0.759869 0
0 0.750149 0
0 0.744121 0
0 0.767269 0
0 0.825589 0
0.321218 0.871138 0
0.632303 0.88304 0
0.794247 0.882261 0
0.874388 0.873106 0
0.914656 0.86276 0
0.933059 0.851545 0
0.935042 0.828138 0
0.939712 0.781247 0
0.949477 0.715404 0
0.955062 0.671351 0.0865797
0.952392 0.670085 0.267063
0.947402 0.686625 0.378759
0.949233 0.675532 0.378836
0 0.898054 0.321187
0 0.901366 0.348424
0 0.903502 0.365103
0 0.905608 0.38143
0 0.906798 0.390021
0 0.90544 0.385199
0 0.899229 0.351751
0 0.892622 0.31191
0 0.885985 0.270359
0 0.878325 0.22092
0 0.871534 0.172229
0 0.862928 0.110109
0 0.854398 0.0505074
0 0.845075 0
0 0.834531 0
0 0.821897 0
0 0.810071 0
0 0.795056 0
0 0.763714 0
0 0.779324 0
0 0.843107 0
0.418143 0.885252 0
0.687236 0.90071 0
0.832731 0.897429 0
0.897993 0.889921 0
0.926879 0.880598 0
0.932204 0.865354 0
0.933684 0.831067 0
0.939071 0.778485 0.0213321
0.943053 0.740871 0.116167
0.940627 0.737057 0.278813
0.935607 0.748531 0.38526
0.937606 0.737514 0.383307
0 0.946517 0.583322
0 0.948455 0.598321
0 0.949828 0.608652
0 0.951034 0.616022
0 0.952071 0.623026
0 0.952422 0.625986
0 0.948943 0.609979
0 0.944839 0.590768
0 0.941009 0.569696
0 0.936156 0.544427
0 0.931426 0.518532
0 0.924773 0.483879
0 0.917891 0.447898
0 0.910704 0.410834
0 0.901656 0.367834
0 0.890364 0.302403
0 0.878218 0.225238
0 0.864073 0.122332
0 0.830045 0
0 0.784695 0
0 0.796048 0
0.00331121 0.844633 0
0.422324 0.882368 0
0.72488 0.905898 0
0.863111 0.908965 0
0.914107 0.901762 0.0213931
0.928756 0.8916 0.0612497
0.928939 0.870222 0.0792096
0.930953 0.833021 0.0860914
0.932311 0.804013 0.17351
0.928664 0.800214 0.312932
0.924239 0.80679 0.405386
0.925917 0.79678 0.402365
0 0.97171 0.702449
0 0.972839 0.70898
0 0.974731 0.719203
0 0.975204 0.721874
0 0.975708 0.724681
0 0.975937 0.726055
0 0.974899 0.720394
0 0.973816 0.713909
0 0.972641 0.706828
0 0.971176 0.698558
0 0.969314 0.687449
0 0.966201 0.672892
0 0.962173 0.655314
0 0.957061 0.631601
0 0.949111 0.592248
0 0.938842 0.532876
0 0.926818 0.461143
0 0.914641 0.39411
0 0.905699 0.354726
0 0.887907 0.246952
0 0.799863 0
0 0.793332 0
0 0.832609 0
0.424201 0.879118 0
0.758663 0.911589 0.0136873
0.884199 0.915801 0.178225
0.922179 0.91075 0.204028
0.925048 0.898878 0.189868
0.92604 0.877241 0.167071
0.925338 0.858625 0.219837
0.920989 0.855497 0.344488
0.916625 0.860182 0.438209
0.917708 0.852033 0.429755
0 0.980362 0.750408
0 0.980423 0.750851
0 0.97673 0.730236
0 0.974044 0.716197
0 0.973419 0.713451
0 0.973159 0.712474
0 0.97319 0.712474
0 0.9738 0.715267
0 0.974304 0.717357
0 0.974243 0.716548
0 0.9738 0.713878
0 0.97258 0.706249
0 0.969818 0.691112
0 0.966812 0.672938
0 0.963851 0.657557
0 0.961044 0.640665
0 0.957137 0.621012
0 0.952865 0.596963
0 0.947814 0.568597
0 0.942794 0.540185
0 0.924041 0.43209
0 0.854658 0
0 0.805798 0
0 0.827802 0
0.415015 0.881514 0
0.783734 0.918456 0.148516
0.901991 0.925093 0.297292
0.922133 0.920333 0.28426
0.922988 0.910597 0.249577
0.921416 0.901396 0.292699
0.916411 0.897337 0.410697
0.911513 0.896574 0.521096
0.912367 0.891325 0.499947
0 0.958373 0.624048
0 0.957061 0.614908
0 0.955657 0.606195
0 0.95288 0.58674
0 0.949355 0.560876
0 0.946746 0.542016
0 0.945434 0.530388
0 0.945693 0.533486
0 0.945602 0.532921
