app/public/assets/luts/chrome-250.cube
TITLE "Generated by Resolve"
LUT_3D_SIZE 5
0 0.0254978 0
0.0654307 0.0106966 0
0.762631 0 0
0.96173 0 0.244388
1 0.179202 0.646586
0 0.0914626 0
0 0.0921492 0
0.696513 0.0342718 0
0.962982 0 0.0528878
1 0.24802 0.589197
0 0.411032 0
0 0.397024 0
0.462333 0.579019 0
0.970596 0.547951 0
1 0.34139 0.474998
0 0.946517 0.583322
0 0.941009 0.569696
0 0.878218 0.225238
0.863111 0.908965 0
0.925917 0.79678 0.402365
0 0.992477 0.952697
0.002121 0.990692 0.951904
0.0147555 0.987472 0.950469
0.591592 0.937224 0.853956
0.905303 0.912657 0.664591
0 0.0171206 0.045594
0.0665599 0.00691234 0
0.686351 0 0
0.963043 0 0.373632
1 0.212146 0.654353
0 0.0894942 0.00839246
0 0.0722667 0
0.630442 0.0207065 0
0.985931 0.0416724 0.240635
1 0.281926 0.604349
0 0.399817 0
0 0.370886 0
0.417212 0.514946 0
0.965347 0.602014 0
0.986068 0.451072 0.442634
0 0.967254 0.72607
0 0.956649 0.7075
0 0.907774 0.521981
0.870024 0.904204 0.212711
0.923033 0.808148 0.425162
0.00350958 0.990372 0.951751
0.0113069 0.988342 0.950866
0.0238804 0.985183 0.94931
0.60174 0.935958 0.861936
0.905089 0.912428 0.669398
0 0.0190127 0.701793
0.00411994 0 0.63267
0.699153 0 0.638407
0.979782 0.0258335 0.789059
1 0.260685 0.707103
0 0.134478 0.618616
0 0.0810712 0.538293
0.589899 0 0.535042
1 0.135836 0.756558
1 0.333715 0.705913
0 0.533654 0.777508
0 0.472389 0.720867
0.371206 0.472694 0.508339
0.971481 0.533181 0.449668
0.984482 0.468406 0.55317
0 0.970886 0.914321
0 0.952071 0.912276
0 0.915755 0.847898
0.837903 0.876295 0.42034
0.915694 0.840299 0.505821
0.0235447 0.98529 0.949355
0.0343328 0.982559 0.948287
0.0483711 0.979019 0.947051
0.632746 0.927749 0.858854
0.904555 0.911894 0.681147
0 0.691157 0.897932
0.0496529 0.688243 0.91017
0.568505 0.578317 0.902937
0.972946 0.543999 0.929076
0.991135 0.420096 0.892317
0 0.693492 0.892424
0 0.670329 0.895003
0.555138 0.53785 0.895186
0.972793 0.538109 0.922805
0.978332 0.506355 0.913481
0 0.742153 0.869444
0 0.735485 0.86244
0.304295 0.644709 0.873137
0.941375 0.594842 0.887297
0.964096 0.569604 0.881209
0.0527962 0.871046 0.924773
0.0574807 0.87509 0.925093
0.214572 0.852369 0.915572
0.808484 0.844511 0.832044
0.911665 0.842863 0.78529
0.157824 0.953613 0.935347
0.162982 0.952499 0.934691
0.244984 0.948577 0.927855
0.755322 0.916732 0.874311
0.900267 0.906432 0.780941
0.385214 0.830137 0.902815
0.416464 0.826947 0.901427
0.490349 0.818372 0.895979
0.83212 0.775967 0.880079
0.904173 0.855924 0.869642
0.3794 0.835142 0.90312
0.427436 0.832868 0.901061
0.570397 0.817166 0.890639
0.913924 0.778592 0.882139
0.9037 0.859068 0.869215
0.365789 0.846433 0.904234
0.402167 0.858366 0.902815
0.538079 0.847196 0.892363
0.877607 0.802182 0.876493
0.902525 0.868299 0.867475
0.398688 0.883116 0.905913
0.504631 0.867887 0.895613
0.57319 0.876951 0.889754
0.780743 0.890043 0.870832
0.900649 0.891157 0.859876
0.722942 0.916472 0.877272
0.727398 0.915724 0.87657
0.740017 0.91429 0.875319
0.827771 0.905058 0.868025
0.899016 0.902266 0.854688
