app/public/assets/luts/chrome-250.cube
TITLE "Generated by Resolve"
LUT_3D_SIZE 9
0 0.0254978 0
0 0.0255131 0
0.0654307 0.0106966 0
0.392172 0 0
0.762631 0 0
0.972686 0.0536355 0
0.96173 0 0.244388
0.976837 0.0234531 0.507118
1 0.179202 0.646586
0 0.0255589 0
0 0.0255436 0
0.0426947 0.0176852 0
0.344213 0 0
0.718257 0 0
0.971786 0.0525978 0
0.961807 0 0.251469
0.997086 0.06981 0.533654
1 0.209628 0.623972
0 0.0914626 0
0 0.0873121 0
0 0.0921492 0
0.334371 0.0736095 0
0.696513 0.0342718 0
0.961257 0.061387 0
0.962982 0 0.0528878
0.996811 0.0691234 0.485161
1 0.24802 0.589197
0 0.23125 0
0 0.225559 0
0 0.225345 0
0.218372 0.286824 0
0.680079 0.262806 0
0.967651 0.282597 0
1 0.341054 0
1 0.129931 0.377951
1 0.278035 0.556374
0 0.411032 0
0 0.409598 0
0 0.397024 0
0 0.404364 0
0.462333 0.579019 0
0.901122 0.550271 0
0.970596 0.547951 0
0.99617 0.392554 0.178775
1 0.34139 0.474998
0 0.71519 0
0 0.718532 0
0 0.700618 0
0 0.686931 0
0 0.685817 0
0.684977 0.829633 0
0.935073 0.786343 0
0.968765 0.587823 0
0.968368 0.559609 0.389548
0 0.946517 0.583322
0 0.952071 0.623026
0 0.941009 0.569696
0 0.917891 0.447898
0 0.878218 0.225238
0 0.796048 0
0.863111 0.908965 0
0.930953 0.833021 0.0860914
0.925917 0.79678 0.402365
0 0.897856 0.107576
0 0.884489 0
0 0.87718 0
0 0.880949 0
0 0.883619 0
0 0.883436 0
0 0.858793 0
0.919264 0.926894 0.373281
0.906645 0.914015 0.636973
0 0.992477 0.952697
0 0.992462 0.952682
0.002121 0.990692 0.951904
0.00706493 0.989441 0.951354
0.0147555 0.987472 0.950469
0.0323796 0.983032 0.94844
0.591592 0.937224 0.853956
0.890776 0.911238 0.698222
0.905303 0.912657 0.664591
0 0.0255283 0
0 0.0254215 0
0.0623484 0.0099031 0
0.37023 0 0
0.739116 0 0
0.97496 0.0576028 0
0.962264 0 0.305623
1 0.0779889 0.564126
1 0.186175 0.657954
0 0.0261234 0
0 0.025803 0
0.0310979 0.0172885 0
0.327718 0 0
0.714031 0 0
0.973892 0.0562295 0
0.962325 0 0.308248
1 0.138628 0.571023
1 0.242115 0.621347
0 0.0905318 0
0 0.0838026 0
0 0.0814832 0
0.292821 0.0657359 0
0.669352 0.036759 0
0.96733 0.0783093 0
0.992203 0.0564126 0.116304
1 0.138964 0.504036
1 0.266941 0.60061
0 0.225681 0
0 0.219287 0
0 0.214771 0
0.185031 0.268376 0
0.658396 0.257389 0
0.961975 0.300511 0
0.995209 0.4009 0
1 0.217807 0.343496
1 0.305364 0.557824
0 0.404883 0
0 0.402686 0
0 0.387198 0
0 0.395224 0
0.456931 0.567666 0
0.890776 0.573541 0
0.9626 0.613947 0
0.985962 0.459937 0.197345
0.998444 0.380209 0.451026
0 0.721462 0
0 0.724376 0
0 0.699886 0
0 0.68394 0
0 0.70219 0
0.710048 0.837659 0
0.934432 0.815747 0
0.96202 0.629526 0.0762188
0.964965 0.582666 0.393408
0 0.963638 0.687297
0 0.968399 0.709712
0 0.956558 0.666362
0 0.9355 0.582605
0 0.908675 0.462791
0 0.780545 0
0.869841 0.907393 0.148898
0.929534 0.837674 0.128023
0.925917 0.79678 0.402365
0 0.881086 0
0 0.884031 0
0 0.886992 0.0139925
0 0.879911 0
0 0.868406 0
0 0.877653 0
0 0.858671 0
0.919249 0.926894 0.373281
0.906645 0.914015 0.636973
0 0.992477 0.952697
0 0.992462 0.952682
0.002121 0.990692 0.951904
0.00706493 0.989441 0.951354
0.0147555 0.987472 0.950469
0.0323644 0.983032 0.94844
0.59147 0.93724 0.854124
0.890776 0.911238 0.698222
0.905303 0.912657 0.664591
0 0.0171206 0.045594
0 0.0168917 0.0188907
0.0665599 0.00691234 0
0.337148 0 0
0.686351 0 0
0.954421 0.0151522 0
0.963043 0 0.373632
0.997086 0.070161 0.571221
1 0.212146 0.654353
0 0.0310216 0
0 0.0257877 0
0.0181582 0.0165103 0
0.288273 0 0
0.652995 0 0
0.954437 0.0204623 0
0.962997 0 0.382925
1 0.124788 0.582818
1 0.257465 0.623117
0 0.0894942 0.00839246
0 0.0774701 0
0 0.0722667 0
0.252934 0.0590829 0
0.630442 0.0207065 0
0.948043 0.0499428 0
0.985931 0.0416724 0.240635
1 0.131044 0.504067
1 0.281926 0.604349
0 0.25275 0.0218509
0 0.239948 0.00843824
0 0.218662 0
0.138735 0.242542 0
0.609018 0.228992 0
0.942763 0.259586 0
0.997665 0.384375 0.0171664
1 0.24477 0.321233
1 0.331792 0.5458
0 0.399817 0
0 0.39704 0
0 0.370886 0
0 0.3617 0
0.417212 0.514946 0
0.873091 0.521782 0
0.965347 0.602014 0
0.980285 0.497505 0.192523
0.986068 0.451072 0.442634
0 0.723308 0
0 0.735134 0
0 0.68983 0
0 0.662272 0
0 0.642618 0
0.674449 0.814115 0
0.930739 0.811566 0
0.955566 0.665766 0.118502
0.957137 0.627634 0.408179
0 0.967254 0.72607
0 0.970993 0.750439
0 0.956649 0.7075
0 0.933425 0.62385
0 0.907774 0.521981
0 0.771374 0
0.870024 0.904204 0.212711
0.926467 0.84799 0.208255
0.923033 0.808148 0.425162
0 0.884794 0.00944533
0 0.896254 0.117647
0 0.898039 0.13341
0 0.889662 0.0491798
0 0.882353 0
0 0.884947 0.0111543
0 0.854948 0
0.918486 0.926101 0.388144
0.906279 0.913649 0.644892
0.00350958 0.990372 0.951751
0.00349432 0.990356 0.951736
0.0113069 0.988342 0.950866
0.0164492 0.987045 0.95024
0.0238804 0.985183 0.94931
0.0381933 0.981582 0.947951
0.60174 0.935958 0.861936
0.889845 0.910872 0.704402
0.905089 0.912428 0.669398
0 0.00691234 0.358907
0 0.00730907 0.336355
0.0464179 1.5259e-05 0.297032
0.337926 0 0.265034
0.679255 0 0.252415
0.939269 0 0.33576
0.966033 0.00202945 0.548867
0.991073 0.0550851 0.613703
1 0.23653 0.661036
0 0.0291142 0.322393
0 0.0245823 0.297734
0.009308 0.0128176 0.260075
0.281071 0 0.226566
0.63743 0 0.221622
0.93576 0 0.324712
0.966705 0.00320439 0.567971
1 0.116609 0.635676
1 0.272908 0.648203
0 0.103716 0.262333
0 0.0914626 0.239612
0 0.0716869 0.212543
0.231113 0.0436103 0.213825
0.600046 7.62951e-05 0.174838
0.908949 0 0.157656
0.987472 0.0463569 0.46894
1 0.130022 0.580743
1 0.300877 0.633066
0 0.253971 0.406149
0 0.240162 0.3776
0 0.211719 0.314641
0.122621 0.228977 0.223377
0.593759 0.215641 0.108598
0.940002 0.229648 0.0795453
1 0.331395 0.278874
1 0.239567 0.415442
1 0.355642 0.573907
0 0.540093 0.443976
0 0.532433 0.443427
0 0.487877 0.39884
0 0.469535 0.349294
0.374487 0.482872 0
0.848371 0.486549 0
0.970443 0.570993 0.102174
0.977218 0.512261 0.273442
0.98114 0.481514 0.465309
0 0.817243 0.447364
0 0.826322 0.514488
0 0.779568 0.394003
0 0.744656 0.303731
0 0.618723 0
0.606989 0.766171 0
0.928481 0.788495 0.0926223
0.951339 0.684276 0.205188
0.950774 0.660578 0.430457
0 0.97615 0.816907
0 0.977844 0.841688
0 0.963745 0.81236
0 0.94226 0.753979
0 0.919081 0.689555
0 0.743969 0
0.859571 0.895155 0.285237
0.924361 0.852522 0.260792
0.919417 0.829511 0.449424
0 0.897581 0.143069
0 0.905364 0.220035
0 0.906706 0.234348
0 0.901915 0.189395
0 0.909148 0.256245
0 0.913375 0.29781
0 0.83743 0
0.91725 0.924834 0.412238
0.906065 0.91342 0.649516
0.00947585 0.988861 0.95111
0.00967422 0.988785 0.951064
0.0185245 0.986526 0.949935
0.0240635 0.985122 0.949279
0.0314946 0.983261 0.948531
0.113329 0.985412 0.946853
0.611337 0.933913 0.862425
0.889128 0.910567 0.708141
0.904936 0.912291 0.672587
0 0.0190127 0.701793
0 0.0125277 0.690455
0.00411994 0 0.63267
0.338354 0 0.604059
0.699153 0 0.638407
0.939284 0.00547799 0.718868
0.979782 0.0258335 0.789059
1 0.1037 0.722896
1 0.260685 0.707103
0 0.0431067 0.692363
0 0.0361028 0.679713
0 0.00468452 0.612711
0.304768 0 0.576684
0.666514 0 0.608423
0.933959 0.00332647 0.709346
1 0.0972457 0.825406
1 0.171481 0.737102
1 0.304311 0.712337
0 0.134478 0.618616
0 0.126772 0.607599
0 0.0810712 0.538293
0.232547 0.044831 0.532647
0.589899 0 0.535042
0.902037 0 0.598581
1 0.135836 0.756558
1 0.183307 0.711971
1 0.333715 0.705913
0 0.330816 0.592538
0 0.324224 0.581933
0 0.268376 0.511284
0.0692149 0.246036 0.521004
0.563363 0.195819 0.534981
0.917403 0.184619 0.529763
1 0.283436 0.61915
1 0.284703 0.628901
0.994476 0.382666 0.65713
0 0.533654 0.777508
0 0.526696 0.772229
0 0.472389 0.720867
0 0.44654 0.685405
0.371206 0.472694 0.508339
0.825391 0.460624 0.393011
0.971481 0.533181 0.449668
0.980011 0.482078 0.445548
0.984482 0.468406 0.55317
0 0.829847 0.826627
0 0.826673 0.839826
0 0.791638 0.790661
0 0.761059 0.748592
0 0.756085 0.649622
0.52871 0.712032 0.273762
0.917525 0.749798 0.390814
0.945953 0.691661 0.399222
0.945937 0.678965 0.495888
0 0.970886 0.914321
0 0.966628 0.925994
0 0.952071 0.912276
0 0.934691 0.882963
0 0.915755 0.847898
0 0.740398 0.16527
0.837903 0.876295 0.42034
0.920943 0.846174 0.370016
0.915694 0.840299 0.505821
0 0.929168 0.425269
0 0.934478 0.453696
0 0.939101 0.488441
0 0.949966 0.580804
0 0.95935 0.641642
0 0.961685 0.650782
0 0.83444 0.0234226
0.915206 0.922744 0.451575
0.905409 0.912764 0.662272
0.0235447 0.98529 0.949355
0.0244297 0.985046 0.949248
0.0343328 0.982559 0.948287
0.039826 0.98117 0.947799
0.0483711 0.979019 0.947051
0.279332 0.973922 0.930968
0.632746 0.927749 0.858854
0.888487 0.909697 0.715892
0.904555 0.911894 0.681147
0 0.419272 0.874769
0 0.428504 0.87512
0 0.346181 0.873167
0.341543 0.26302 0.880095
0.732677 0.193347 0.878752
0.971588 0.218067 0.910033
1 0.313863 0.911116
1 0.23769 0.832898
1 0.312245 0.793439
0 0.440833 0.874403
0 0.446448 0.874159
0 0.364019 0.873335
0.346548 0.281895 0.878553
0.735012 0.215106 0.876326
0.968048 0.242618 0.906203
1 0.353414 0.907439
1 0.297414 0.844022
0.995895 0.366247 0.811795
0 0.397406 0.859785
0 0.403464 0.859251
0 0.313359 0.841489
0.202152 0.245014 0.847059
0.629267 0.183719 0.845441
0.936385 0.18526 0.872923
1 0.331212 0.894743
1 0.304128 0.834302
0.991882 0.39237 0.816907
0 0.472816 0.841917
0 0.482582 0.840574
0 0.403769 0.817975
0 0.352941 0.813138
0.511604 0.294972 0.810803
0.879194 0.270253 0.826795
0.989059 0.376333 0.85333
0.995758 0.366522 0.802167
0.985946 0.429099 0.785779
0 0.661509 0.812467
0 0.675395 0.809705
0 0.608179 0.790753
0 0.552697 0.77261
0.290211 0.514778 0.777142
0.77171 0.462699 0.770001
0.962249 0.518486 0.778195
0.978332 0.482948 0.724605
0.975448 0.501976 0.725628
0 0.774746 0.910475
0 0.779782 0.911147
0 0.749859 0.90837
0 0.715587 0.900191
0.183383 0.713756 0.872129
0.591714 0.725338 0.737621
0.909636 0.724269 0.659388
0.945037 0.670283 0.615793
0.946181 0.668345 0.62385
0 0.925765 0.93341
0 0.925155 0.933227
0 0.911971 0.930205
0 0.894118 0.926436
0 0.882429 0.923079
0.462699 0.887007 0.826459
0.804395 0.848066 0.618692
0.914809 0.830839 0.569894
0.911101 0.843183 0.623392
0 0.978317 0.756817
0 0.982712 0.765591
0 0.988632 0.80415
0 0.992294 0.839261
0 0.996445 0.867536
0 0.998764 0.877379
0 0.88333 0.487648
0.909804 0.917235 0.56669
0.903319 0.910628 0.708904
0.0614176 0.975845 0.945953
0.0616159 0.975753 0.945907
0.072694 0.9729 0.944915
0.0813306 0.970657 0.943984
0.0876173 0.96907 0.943358
0.450233 0.951934 0.909697
0.695125 0.923934 0.875395
0.887114 0.907378 0.743542
0.903334 0.910643 0.708888
0 0.691157 0.897932
0.0031281 0.700175 0.906142
0.0496529 0.688243 0.91017
0.25597 0.636637 0.907012
0.568505 0.578317 0.902937
0.864134 0.536843 0.907073
0.972946 0.543999 0.929076
0.99736 0.401801 0.921569
0.991135 0.420096 0.892317
0 0.703349 0.903197
0.0407263 0.709453 0.909041
0.0962844 0.69218 0.91107
0.319905 0.636912 0.905791
0.603876 0.58143 0.902205
0.883375 0.547311 0.908507
0.970825 0.555886 0.927993
0.991577 0.443717 0.930831
0.98233 0.482841 0.909697
0 0.693492 0.892424
0 0.701152 0.896437
0 0.670329 0.895003
0.198611 0.606455 0.899428
0.555138 0.53785 0.895186
0.856458 0.503105 0.898375
0.972793 0.538109 0.922805
0.991333 0.438926 0.922988
0.978332 0.506355 0.913481
0 0.689784 0.876524
0 0.703838 0.877577
0 0.668879 0.875715
0.0300603 0.61471 0.890288
0.461891 0.541756 0.886442
0.800565 0.498131 0.884504
0.96643 0.533364 0.909239
0.984283 0.469627 0.907027
0.974456 0.520729 0.901396
0 0.742153 0.869444
0 0.758328 0.868833
0 0.735485 0.86244
0 0.69926 0.864103
0.304295 0.644709 0.873137
0.704967 0.588647 0.868864
0.941375 0.594842 0.887297
0.967727 0.551385 0.887587
0.964096 0.569604 0.881209
0 0.796811 0.901442
0 0.792355 0.910521
0 0.777584 0.909087
0 0.77229 0.894804
0.0905318 0.808774 0.871366
0.574136 0.749767 0.849393
0.892195 0.717281 0.852369
0.943526 0.667521 0.855344
0.94081 0.679835 0.843549
0.0527962 0.871046 0.924773
0.065919 0.879866 0.925734
0.0574807 0.87509 0.925093
0.0338293 0.858335 0.922621
0.214572 0.852369 0.915572
0.589883 0.848219 0.888243
0.808484 0.844511 0.832044
0.92285 0.806745 0.782528
0.911665 0.842863 0.78529
0 0.996033 0.948318
0 0.993729 0.949126
0.0205844 0.985931 0.949569
0.0203555 0.985931 0.949508
0.0293584 0.983734 0.948211
0.0407568 0.980926 0.947707
0.560082 0.941512 0.893309
0.901045 0.907759 0.761761
0.900099 0.90605 0.785565
0.157824 0.953613 0.935347
0.157809 0.953552 0.935317
0.162982 0.952499 0.934691
0.169635 0.951171 0.933944
0.244984 0.948577 0.927855
0.584009 0.932372 0.89279
0.755322 0.916732 0.874311
0.879561 0.901503 0.800458
0.900267 0.906432 0.780941
0.24242 0.779416 0.906859
0.400275 0.82388 0.90222
0.429313 0.829252 0.900694
0.450874 0.814145 0.898924
0.523384 0.783429 0.894911
0.701732 0.745846 0.888029
0.917632 0.714031 0.89482
0.965286 0.583246 0.924712
0.951675 0.64535 0.912444
0.390311 0.828809 0.902464
0.419837 0.832151 0.901137
0.441672 0.830564 0.899672
0.495766 0.824781 0.895903
0.579568 0.794385 0.890791
0.778958 0.756451 0.883696
0.927047 0.743709 0.890272
0.939208 0.696147 0.901198
0.925307 0.751125 0.88867
0.396307 0.831312 0.902144
0.421561 0.835187 0.901228
0.445228 0.833753 0.89955
0.459434 0.793713 0.898512
0.556985 0.747784 0.895354
0.772839 0.709545 0.890578
0.936904 0.706081 0.899123
0.95256 0.641367 0.913222
0.916609 0.786755 0.880842
0.308248 0.808499 0.904875
0.366934 0.827695 0.903502
0.345953 0.806043 0.903761
0.35848 0.754086 0.904433
0.502953 0.709484 0.90042
0.723461 0.67274 0.895811
0.930175 0.662547 0.906065
0.968322 0.568673 0.927459
0.924559 0.753796 0.887999
0.197971 0.808759 0.907897
0.260121 0.830137 0.907378
0.230518 0.817914 0.907637
0.251408 0.776211 0.906645
0.437552 0.737072 0.902037
0.662074 0.698741 0.895048
0.907378 0.676616 0.90042
0.963455 0.591852 0.923033
0.927687 0.740658 0.890837
0.0241245 0.847913 0.910613
0.129061 0.876158 0.915404
0.10367 0.879683 0.916411
0.119615 0.849928 0.912398
0.332662 0.815305 0.904418
0.582589 0.776577 0.89189
0.862791 0.739971 0.886412
0.942824 0.682109 0.904479
0.913359 0.800229 0.877913
0.0175326 0.840314 0.919631
0.2038 0.841901 0.915282
0.192813 0.856809 0.917144
0.200366 0.854109 0.916487
0.283268 0.887709 0.914961
0.478004 0.88896 0.89897
0.770886 0.847105 0.874144
0.909667 0.820859 0.874586
0.902205 0.87364 0.865599
0.237446 0.940078 0.926772
0.237385 0.940063 0.926757
0.237278 0.940047 0.926757
0.237278 0.940047 0.926757
0.269673 0.938735 0.923812
0.370123 0.934295 0.914351
0.725505 0.915541 0.876951
0.897917 0.899794 0.857374
0.899306 0.89955 0.852979
0.576242 0.92578 0.892515
0.57641 0.92575 0.892485
0.591089 0.925414 0.891096
0.610559 0.924819 0.889128
0.636576 0.92343 0.88629
0.694881 0.919066 0.880171
0.797894 0.907774 0.870008
0.888426 0.901671 0.864027
0.898909 0.90251 0.850645
0.385214 0.830137 0.902815
0.385168 0.830121 0.902815
0.416464 0.826947 0.901427
0.438499 0.824201 0.900145
0.490349 0.818372 0.895979
0.599069 0.804761 0.888838
0.83212 0.775967 0.880079
0.928328 0.739055 0.891402
0.904173 0.855924 0.869642
0.385229 0.830137 0.902815
0.400641 0.830991 0.902052
0.421775 0.830411 0.901061
0.455085 0.827787 0.898711
0.534874 0.818189 0.893004
0.694652 0.797375 0.882918
0.893721 0.776226 0.881346
0.9308 0.728771 0.893629
0.904082 0.856641 0.869566
0.3794 0.835142 0.90312
0.408087 0.833448 0.901854
0.427436 0.832868 0.901061
0.476112 0.828107 0.8972
0.570397 0.817166 0.890639
0.753994 0.793027 0.88014
0.913924 0.778592 0.882139
0.927169 0.743313 0.890379
0.9037 0.859068 0.869215
0.375143 0.838911 0.903502
0.407538 0.838056 0.902007
0.423072 0.840024 0.901061
0.471977 0.836469 0.897475
0.562722 0.826703 0.890654
0.731975 0.803693 0.880034
0.901549 0.786221 0.879942
0.925917 0.749035 0.889235
0.903548 0.861845 0.869078
0.365789 0.846433 0.904234
0.389242 0.850462 0.903044
0.402167 0.858366 0.902815
0.448966 0.85684 0.899992
0.538079 0.847196 0.892363
0.69073 0.825467 0.881254
0.877607 0.802182 0.876493
0.920317 0.770459 0.884169
0.902525 0.868299 0.867475
0.333761 0.869795 0.907485
0.34226 0.880827 0.908034
0.350408 0.895293 0.909331
0.396185 0.895933 0.906752
0.492439 0.884062 0.897597
0.631235 0.863508 0.884581
0.843458 0.834119 0.872084
0.910399 0.816083 0.875242
0.901793 0.878828 0.864057
0.398688 0.883116 0.905913
0.452262 0.867613 0.900435
0.504631 0.867887 0.895613
0.51725 0.874235 0.89482
0.57319 0.876951 0.889754
0.660014 0.88278 0.881926
0.780743 0.890043 0.870832
0.902296 0.87332 0.865858
0.900649 0.891157 0.859876
0.237598 0.940108 0.926772
0.237568 0.940093 0.926772
0.237522 0.940078 0.926757
0.326436 0.936629 0.918608
0.490501 0.929397 0.901671
0.618082 0.924315 0.888106
0.781994 0.909728 0.871534
0.895109 0.899748 0.861418
0.899992 0.899504 0.855985
0.722942 0.916472 0.877272
0.722896 0.916442 0.877256
0.727398 0.915724 0.87657
0.731685 0.915251 0.876143
0.740017 0.91429 0.875319
0.76817 0.911254 0.872709
0.827771 0.905058 0.868025
0.891875 0.901488 0.863554
0.899016 0.902266 0.854688
