app/public/assets/luts/cool-300.cube
TITLE "Generated by Resolve"
LUT_3D_SIZE 5
0 0.0193484 0.0274815
0.0694743 0.00660716 0.0141451
0.717418 0 0
0.912734 0 0.25008
0.964111 0.148501 0.620203
0 0.0843366 0.0107729
0.00488289 0.0838636 0.00411994
0.653483 0.0312657 0
0.941939 0.0479438 0.128206
0.962875 0.230503 0.550607
0 0.381277 0
0 0.367269 0
0.433158 0.5505 0
0.923903 0.549233 0
0.95642 0.335912 0.397208
0 0.934554 0.589883
0 0.923186 0.540291
0 0.861189 0.281666
0.822385 0.903807 0.107988
0.888197 0.801663 0.377874
0 0.980011 1
0.00062562 0.977951 1
0.012604 0.974701 1
0.552407 0.92491 0.862333
0.872007 0.913054 0.65658
0 0.0118257 0.135515
0.0707713 0.00311284 0.11078
0.644205 0 0.023743
0.914366 0 0.351766
0.963684 0.211337 0.611414
0 0.0829023 0.11342
0 0.0664225 0.0834821
0.586542 0.0178988 0.022034
0.941924 0.0405737 0.226017
0.960693 0.265644 0.562966
0 0.382574 0
0 0.345983 0
0.383261 0.480903 0
0.922683 0.581628 0.0512398
0.935256 0.465675 0.400702
0 0.95227 0.733257
0 0.936614 0.693767
0 0.880568 0.465782
0.82884 0.898848 0.239399
0.885222 0.817548 0.403616
0.00196841 0.977646 1
0.0106355 0.975235 1
0.0227359 0.972 1
0.569223 0.92781 0.882033
0.871763 0.912779 0.663935
0 0.0259403 0.730068
0.0300145 0 0.638941
0.65597 0 0.635218
0.940963 0.0370031 0.841718
0.960098 0.25684 0.714672
0 0.129732 0.619074
0 0.0795758 0.519081
0.55581 0 0.51548
0.963211 0.136034 0.767834
0.95433 0.319753 0.711925
0 0.49984 0.811414
0 0.43682 0.736049
0.334417 0.447379 0.484947
0.927886 0.511986 0.439261
0.939391 0.4589 0.52491
0 0.949142 0.967514
0 0.926696 0.957107
0 0.888304 0.882872
0.795575 0.867475 0.407477
0.880064 0.844709 0.496056
0.0236057 0.971801 1
0.0355535 0.968566 1
0.0500038 0.964782 0.998993
0.614588 0.925643 0.889662
0.871229 0.912169 0.680919
0 0.667231 0.954101
0.0904555 0.658228 0.966628
0.561379 0.560235 0.962386
0.929564 0.523812 0.986618
0.941344 0.429129 0.958877
0 0.670527 0.943725
0 0.640238 0.947143
0.534874 0.51783 0.951354
0.929473 0.513008 0.978958
0.933043 0.493217 0.975784
0 0.72343 0.908766
0 0.711131 0.900145
0.308034 0.629908 0.923735
0.897978 0.579355 0.93846
0.921431 0.564492 0.940826
0.0509194 0.84506 0.973114
0.0518959 0.847837 0.973495
0.267247 0.832013 0.964553
0.770504 0.836912 0.880522
0.877928 0.844495 0.837736
0.151171 0.940871 0.988876
0.155306 0.939986 0.988235
0.379126 0.935347 0.968109
0.737011 0.915297 0.92488
0.86685 0.905364 0.822873
0.357687 0.813504 0.957229
0.39707 0.809781 0.955795
0.48333 0.802182 0.949981
0.823163 0.757427 0.935103
0.87126 0.849439 0.921218
0.350286 0.819791 0.957321
0.407431 0.817655 0.95523
0.555932 0.802518 0.94464
0.885252 0.763317 0.937438
0.870985 0.853346 0.920897
0.333806 0.834134 0.958465
0.376669 0.849042 0.957519
0.521614 0.838468 0.946242
0.84892 0.792477 0.929412
0.869612 0.864622 0.917952
0.412177 0.860929 0.956405
0.480766 0.861494 0.950256
0.540795 0.875532 0.945205
0.75787 0.889067 0.921721
0.867674 0.889693 0.907942
0.687572 0.917494 0.930892
0.693202 0.916686 0.929992
0.706767 0.914977 0.928283
0.796384 0.904402 0.918715
0.86627 0.9019 0.901427
