app/public/assets/luts/cool-300.cube
TITLE "Generated by Resolve"
LUT_3D_SIZE 33
0 0.0193484 0.0274815
0 0.0193484 0.0274968
0 0.0193484 0.0274968
0 0.0193484 0.0274968
0 0.0193484 0.0274815
0 0.0179446 0.0259251
0 0.0134737 0.022385
0.0266117 0.0104219 0.0179599
0.0694743 0.00660716 0.0141451
0.125551 6.10361e-05 0.00808728
0.194308 0 0.000335698
0.28043 0 0
0.373877 0 0
0.456779 0 0
0.529641 0 0
0.610803 0 0
0.717418 0 0
0.807568 0 0
0.864729 0 0
0.8981 0.0153811 0
0.920241 0.0290684 0
0.93022 0.0389105 0.0360571
0.921889 0.00360113 0.0607767
0.91136 0 0.130678
0.912734 0 0.25008
0.913771 0 0.313542
0.91429 0 0.347433
0.915129 0 0.397345
0.937255 0.0294652 0.476616
0.960967 0.116655 0.564736
0.964569 0.194003 0.598749
0.964614 0.168704 0.611658
0.964111 0.148501 0.620203
0 0.019379 0.0275425
0 0.0193637 0.027512
0 0.0193637 0.027512
0 0.0193637 0.027512
0 0.0193484 0.0274968
0 0.0180514 0.0260471
0 0.0135348 0.0224918
0.026978 0.0104219 0.0179446
0.06981 0.0065919 0.0141146
0.125872 6.10361e-05 0.0080415
0.193606 0 0.000427253
0.278752 0 0
0.371862 0 0
0.452598 0 0
0.528954 0 0
0.610483 0 0
0.719158 0 0
0.808515 0 0
0.865553 0 0
0.898558 0.01561 0
0.920378 0.029099 0
0.930205 0.03888 0.035874
0.921798 0.00328069 0.0608072
0.911376 0 0.131731
0.912779 0 0.251331
0.913771 0 0.313573
0.91426 0 0.346838
0.915282 0 0.401907
0.941634 0.0421912 0.48336
0.963439 0.137179 0.56463
0.964202 0.204227 0.591577
0.964584 0.190631 0.595972
0.964935 0.163577 0.60827
0 0.0193942 0.0275425
0 0.0193637 0.0275273
0 0.0193637 0.027512
0 0.0193637 0.027512
0 0.0193637 0.027512
0 0.0183566 0.0263523
0 0.0142977 0.0238041
0.0208133 0.0108797 0.0184024
0.0625315 0.00724804 0.014847
0.116655 0.00105287 0.00915541
0.182757 0 0.00164797
0.266926 0 0
0.360388 0 0
0.446357 0 0
0.526986 0 0
0.607553 0 0
0.72105 0 0
0.809003 0 0
0.866438 6.10361e-05 0
0.898924 0.0157778 0
0.920485 0.029099 0
0.930129 0.0387579 0.0352636
0.921874 0.00355535 0.0607919
0.911376 0 0.131899
0.912779 0 0.251362
0.913756 0 0.313024
0.914244 0 0.346532
0.915724 0 0.404868
0.945556 0.0534371 0.488991
0.964858 0.154559 0.563821
0.963912 0.211719 0.585779
0.964324 0.201221 0.588479
0.964767 0.185458 0.588968
0 0.0193942 0.0275578
0 0.019379 0.0275273
0 0.0193637 0.0275273
0 0.0193637 0.027512
0 0.0193637 0.027512
0 0.0183261 0.0263523
0 0.0144503 0.0239872
0.0179599 0.0110933 0.018616
0.057435 0.00770581 0.0152743
0.105486 0.00408942 0.0102541
0.164645 0 0.0033875
0.241962 0 0
0.334417 0 0
0.425025 0 0
0.502998 0 0
0.584161 0 0
0.695232 0 0
0.798093 0 0
0.863676 0 0
0.897612 0.0150454 0
0.919875 0.028336 0
0.929915 0.038407 0.0328832
0.922286 0.00497444 0.0606851
0.911376 0 0.130022
0.912749 0 0.250309
0.913756 0 0.312184
0.914244 0 0.346105
0.918578 0 0.407935
0.948348 0.0619364 0.491829
0.965133 0.166506 0.562341
0.9635 0.216175 0.581064
0.96408 0.207691 0.583917
0.964584 0.194644 0.582757
0 0.0193942 0.0275578
0 0.019379 0.0275273
0 0.019379 0.0275273
0 0.019379 0.0275273
0 0.0193637 0.0275273
0 0.0179599 0.0260929
0 0.0152743 0.02327
0.0154726 0.0146792 0.0184482
0.0496681 0.014435 0.0152743
0.0940108 0.0118563 0.0109102
0.151217 0.00704967 0.00463874
0.226703 0 0
0.319539 0 0
0.411933 0 0
0.488441 0 0
0.561517 0 0
0.658747 0 0
0.77113 0 0
0.848997 0 0
0.892989 0.0125582 0
0.916945 0.0254063 0
0.928496 0.035935 0.0158236
0.927611 0.0241093 0.0590066
0.911116 0 0.0966506
0.912398 0 0.230655
0.913573 0 0.303288
0.914168 0 0.341512
0.921477 0 0.405753
0.950088 0.0678569 0.490288
0.965072 0.175647 0.55996
0.963439 0.220462 0.577707
0.963973 0.212482 0.581064
0.964324 0.201877 0.578363
0 0.0221408 0.0251774
0 0.0223697 0.024979
0 0.0222934 0.0250095
0 0.0228428 0.0246128
0 0.0240787 0.0237583
0 0.0240482 0.0215915
0 0.0243381 0.0186923
0.00788891 0.024918 0.0162509
0.041001 0.025391 0.0142977
0.0847486 0.0238651 0.0105745
0.14197 0.0189517 0.00474556
0.217762 0.0106355 0
0.310445 0 0
0.40415 0 0
0.480995 0 0
0.551583 0 0
0.638926 0 0
0.743969 0 0
0.831312 0 0
0.882429 0.00720226 0
0.912596 0.0229191 0
0.926726 0.0330816 0
0.932128 0.0417182 0.0557259
0.911406 0 0.0652934
0.912215 0 0.199725
0.913359 0 0.287449
0.914076 0 0.33106
0.923751 0 0.391089
0.94873 0.0627756 0.473793
0.965072 0.169528 0.547662
0.963165 0.226917 0.571405
0.963363 0.219333 0.573663
0.964004 0.210315 0.572259
0 0.0389715 0.0169528
0 0.0393835 0.0169375
0 0.0382086 0.0172732
0 0.0382086 0.0173037
0 0.0392309 0.016968
0 0.0392462 0.0164187
0 0.0395514 0.0154726
0 0.040116 0.0130922
0.0325322 0.0400854 0.0122988
0.0763867 0.0386969 0.0108492
0.135592 0.0340276 0.00492866
0.211826 0.0258793 0
0.305089 0.0157473 0
0.403479 0.00370794 0
0.482322 0 0
0.55108 0 0
0.63238 0 0
0.732189 0 0
0.817044 0 0
0.872419 0.00273136 0
0.905547 0.0191196 0
0.9252 0.0317845 0
0.930694 0.0396735 0.0408484
0.91812 0 0.0621653
0.912886 0 0.167987
0.913664 0 0.270588
0.913924 0 0.320729
0.924498 0 0.374838
0.947951 0.0603952 0.457221
0.965103 0.162783 0.533104
0.962585 0.231891 0.564141
0.963226 0.226108 0.566842
0.963455 0.217945 0.565164
0 0.0603952 0.0144198
0 0.0608377 0.0143587
0 0.0595254 0.0145266
0 0.0586709 0.0144808
0 0.0583047 0.0139315
0 0.0581674 0.0130007
0 0.0584268 0.0119631
0 0.0591135 0.0114137
0.0216983 0.0594949 0.0099031
0.0664683 0.0587472 0.00831617
0.127611 0.0546273 0.00396735
0.207172 0.0466621 0
0.30457 0.0376135 0
0.406821 0.0280919 0
0.490059 0.0184939 0
0.559182 0.00561532 0
0.637888 0 0
0.736782 0 0
0.816449 0 0
0.867369 0.000259403 0
0.90338 0.0234379 0
0.92932 0.0459297 0
0.936996 0.0557259 0.0371252
0.933242 0.0358282 0.0742504
0.915251 0 0.133135
0.922133 0 0.257298
0.919982 0 0.311269
0.923949 0 0.359991
0.948653 0.0621958 0.439994
0.965133 0.15877 0.516167
0.962478 0.237613 0.55726
0.962631 0.231342 0.55903
0.963348 0.224903 0.558053
0 0.0843366 0.0107729
0 0.0846113 0.0106661
0 0.0833143 0.0109712
0 0.0818341 0.0114748
0 0.0806134 0.0118105
0 0.0804761 0.00978103
0 0.0811475 0.00779736
0 0.0823987 0.00541695
0.00488289 0.0838636 0.00411994
0.0526589 0.083711 0.00347906
0.115923 0.080293 0.000915541
0.199039 0.07364 0
0.30338 0.0660105 0
0.410895 0.059205 0
0.498909 0.0526741 0
0.571069 0.0442512 0
0.653483 0.0312657 0
0.751873 0.0195621 0
0.831373 0.0217288 0
0.883467 0.0369726 0
0.91754 0.058381 0
0.942794 0.0899062 0
0.951324 0.10338 0.0409857
0.953643 0.105287 0.0930037
0.941939 0.0479438 0.128206
0.937377 0.027985 0.22623
0.931472 0.0121462 0.295995
0.93109 0.0116274 0.345876
0.950713 0.0691844 0.420554
0.965057 0.156329 0.496468
0.961868 0.244602 0.54873
0.962448 0.237034 0.551492
0.962875 0.230503 0.550607
0 0.111223 0.00415045
0 0.111574 0.00401312
0 0.110201 0.00434882
0 0.107485 0.00476081
0 0.105379 0.00569162
0 0.104646 0.00581369
0 0.105989 0.0018616
0 0.108537 0
0 0.11162 0
0.0302892 0.114321 0
0.0975052 0.113191 0
0.186755 0.107988 0
0.29575 0.102281 0
0.410147 0.0974746 0
0.504219 0.0934005 0
0.57937 0.0873426 0
0.664271 0.0779431 0
0.766155 0.0712139 0
0.846723 0.0728771 0
0.897078 0.0867781 0
0.928939 0.110002 0
0.950408 0.142275 0
0.958709 0.170001 0.0242466
0.961486 0.182239 0.0742809
0.963684 0.181079 0.145083
0.958709 0.102907 0.203601
0.945495 0.0505074 0.268177
0.940185 0.0366064 0.325292
0.953979 0.0802625 0.39855
0.965209 0.158343 0.473274
0.961379 0.252552 0.538338
0.961913 0.244373 0.541466
0.962463 0.236164 0.54136
0 0.141314 0
0 0.141176 0
0 0.140459 0
0 0.136568 0
0 0.133913 0
0 0.132525 0
0 0.132876 0
0 0.136156 0
0 0.142092 0
0 0.149233 0
0.0655528 0.155138 0
0.164492 0.152789 0
0.279149 0.148409 0
0.400732 0.144427 0
0.502022 0.141772 0
0.578576 0.137697 0
0.664439 0.128939 0
0.766171 0.121813 0
0.849531 0.125551 0
0.900511 0.141054 0
0.930541 0.163378 0
0.949752 0.190723 0
0.957198 0.216968 0.00154116
0.958648 0.236881 0.0519112
0.96083 0.242466 0.109346
0.962844 0.228305 0.203235
0.958236 0.0957656 0.223972
0.950484 0.066392 0.296254
0.957565 0.0948501 0.37113
0.966201 0.164782 0.449485
0.961425 0.256779 0.522316
0.961425 0.252689 0.529931
0.962036 0.243488 0.528923
0 0.17261 0
0 0.172656 0
0 0.172381 0
0 0.169055 0
0 0.166262 0
0 0.164431 0
0 0.163912 0
0 0.165606 0
0 0.171725 0
0 0.183978 0
0.018265 0.198779 0
0.122026 0.206134 0
0.248829 0.202747 0
0.37821 0.199496 0
0.486809 0.196399 0
0.567498 0.193194 0
0.654551 0.185824 0
0.756237 0.179248 0
0.842176 0.181735 0
0.895338 0.196094 0
0.925551 0.21767 0
0.945098 0.242115 0
0.953536 0.265507 0
0.955322 0.28571 0.0319219
0.956832 0.299275 0.0851148
0.959381 0.288808 0.163775
0.962524 0.236133 0.234318
0.959533 0.102495 0.255589
0.962036 0.116701 0.341588
0.966308 0.176394 0.423728
0.961151 0.260227 0.499504
0.961013 0.262837 0.515557
0.961501 0.252323 0.515038
0 0.206592 0
0 0.20679 0
0 0.206973 0
0 0.203662 0
0 0.200885 0
0 0.199298 0
0 0.198322 0
0 0.19884 0
0 0.201846 0
0 0.212055 0
0 0.233982 0
0.0547799 0.258045 0
0.197818 0.263828 0
0.338491 0.260349 0
0.457588 0.256886 0
0.548135 0.254368 0
0.636179 0.249302 0
0.738659 0.242145 0
0.829587 0.242878 0
0.88687 0.2551 0
0.919066 0.274311 0
0.939376 0.297017 0
0.948638 0.317708 0
0.950896 0.333486 0.0102846
0.952163 0.345464 0.0670481
0.954147 0.346685 0.129564
0.958297 0.303349 0.204242
0.964508 0.210925 0.246876
0.965988 0.145556 0.30486
0.966247 0.193011 0.392432
0.961105 0.266773 0.473121
0.960494 0.275288 0.497627
0.961181 0.263127 0.497078
0 0.240864 0
0 0.24123 0
0 0.241489 0
0 0.239109 0
0 0.236286 0
0 0.234241 0
0 0.233631 0
0 0.233371 0
0 0.234653 0
0 0.240177 0
0 0.253773 0
0 0.289082 0
0.0974289 0.321675 0
0.272618 0.326162 0
0.414389 0.323201 0
0.52079 0.321141 0
0.610056 0.316533 0
0.71519 0.309514 0
0.811261 0.307851 0
0.874281 0.317968 0
0.910124 0.33463 0
0.93196 0.353704 0
0.942321 0.371267 0
0.94493 0.382757 0
0.94641 0.390402 0.0471199
0.948043 0.391791 0.103914
0.952438 0.364157 0.173007
0.958801 0.296605 0.229999
0.964309 0.221607 0.278462
0.965164 0.214618 0.355489
0.960693 0.277272 0.443534
0.959686 0.288838 0.47454
0.960571 0.276204 0.474617
0 0.275792 0
0 0.276371 0
0 0.276722 0
0 0.275227 0
0 0.271992 0
0 0.27042 0
0 0.269337 0
0 0.26894 0
0 0.269322 0
0 0.271 0
0 0.278447 0
0 0.297368 0
0 0.345663 0
0.149264 0.389853 0
0.339406 0.393805 0
0.476463 0.393515 0
0.575006 0.390265 0
0.681971 0.38291 0
0.784787 0.378546 0
0.856184 0.384054 0
0.897032 0.397009 0
0.921508 0.412253 0
0.93402 0.426337 0
0.937331 0.435706 0
0.939208 0.437964 0.0252384
0.941787 0.43389 0.0818341
0.945449 0.415229 0.145556
0.953536 0.354162 0.197086
0.957702 0.307866 0.267155
0.962585 0.255924 0.319142
0.960006 0.292195 0.408438
0.958648 0.305303 0.446067
0.959625 0.29163 0.453925
0 0.316472 0
0 0.317189 0
0 0.317693 0
0 0.316609 0
0 0.313451 0
0 0.310918 0
0 0.309392 0
0 0.308843 0
0 0.308751 0
0 0.309514 0
0 0.311406 0
0 0.318791 0
0 0.341314 0
0 0.404013 0
0.181018 0.459144 0
0.388952 0.469093 0
0.525567 0.470115 0
0.632685 0.462898 0
0.745235 0.455039 0
0.827893 0.454643 0
0.877775 0.461982 0
0.90724 0.47361 0
0.924163 0.485328 0
0.929076 0.492744 0
0.931182 0.490562 0.00202945
0.934524 0.479438 0.0614176
0.939773 0.453498 0.11664
0.946838 0.405936 0.167361
0.953048 0.354528 0.233158
0.954055 0.340139 0.310903
0.958892 0.312749 0.36875
0.957244 0.325795 0.413214
0.958221 0.311482 0.428367
0 0.381277 0
0 0.382284 0
0 0.383719 0
0 0.382757 0
0 0.377081 0
0 0.372335 0
0 0.369268 0
0 0.368017 0
0 0.367269 0
0 0.367651 0
0 0.36849 0
0 0.369711 0
0 0.375067 0
0 0.394385 0
0 0.467674 0
0.19498 0.532937 0
0.433158 0.5505 0
0.56759 0.549706 0
0.689799 0.538918 0
0.789197 0.531395 0
0.851804 0.534356 0
0.889967 0.541543 0
0.913314 0.550484 0
0.921111 0.555367 0
0.923903 0.549233 0
0.927626 0.530541 0.043534
0.933104 0.498421 0.0916457
0.940475 0.449485 0.138582
0.947005 0.403265 0.197421
0.949523 0.379553 0.279179
0.948043 0.386084 0.356023
0.952285 0.366339 0.388235
0.95642 0.335912 0.397208
0 0.464103 0
0 0.464988 0
0 0.466758 0
0 0.466987 0
0 0.459037 0
0 0.453696 0
0 0.448737 0
0 0.445747 0
0 0.444404 0
0 0.443275 0
0 0.443626 0
0 0.444068 0
0 0.444419 0
0 0.448005 0
0 0.473426 0
0 0.547494 0
0.203601 0.615763 0
0.466239 0.632807 0
0.61265 0.629892 0
0.735317 0.618311 0
0.816312 0.613764 0
0.867399 0.616159 0
0.898344 0.619898 0
0.911696 0.62034 0
0.916457 0.611902 0
0.920851 0.588739 0.0263981
0.927108 0.548852 0.072282
0.934432 0.491249 0.110216
0.941314 0.443946 0.164462
0.943862 0.42121 0.245151
0.941878 0.425376 0.328969
0.940673 0.42974 0.383825
0.946502 0.398962 0.385168
0 0.548302 0
0 0.549371 0
0 0.550347 0
0 0.551232 0
0 0.544945 0
0 0.538323 0
0 0.533852 0
0 0.529656 0
0 0.526711 0
0 0.524788 0
0 0.523308 0
0 0.522225 0
0 0.521263 0
0 0.51873 0
0 0.523079 0
0 0.556115 0
0 0.635721 0
0.244282 0.693706 0
0.51693 0.708309 0
0.665766 0.703548 0
0.771221 0.693141 0
0.837888 0.688777 0
0.878431 0.686244 0
0.901366 0.684428 0
0.908904 0.675563 0
0.913252 0.650553 0.0122988
0.919997 0.604212 0.0568399
0.928206 0.539757 0.087129
0.935576 0.484092 0.13344
0.938613 0.461326 0.208194
0.936629 0.464805 0.305989
0.935286 0.46862 0.36968
0.937652 0.450874 0.37702
0 0.623301 0
0 0.624659 0
0 0.624964 0
0 0.625666 0
0 0.621332 0
0 0.615503 0
0 0.610697 0
0 0.606424 0
0 0.60293 0
0 0.599878 0
0 0.597436 0
0 0.594675 0
0 0.59205 0
0 0.589273 0
0 0.586557 0
0 0.593256 0
0 0.639292 0
0 0.7196 0
0.347951 0.758038 0
0.577737 0.769879 0
0.717693 0.762509 0
0.80325 0.751842 0
0.855909 0.745251 0
0.888838 0.740826 0
0.90132 0.731182 0
0.906172 0.70808 0.00474556
0.912413 0.663905 0.0451362
0.921859 0.595895 0.0726482
0.929702 0.531304 0.100786
0.93344 0.500237 0.180056
0.931426 0.505714 0.288975
0.929503 0.515404 0.357488
0.931517 0.496651 0.359487
0 0.684062 0
0 0.685084 0
0 0.685786 0
0 0.686198 0
0 0.683772 0
0 0.678203 0
0 0.673518 0
0 0.669154 0
0 0.665476 0
0 0.661509 0
0 0.658686 0
0 0.655344 0
0 0.651728 0
0 0.647761 0
0 0.643153 0
0 0.640223 0
0 0.656504 0
0 0.714672 0
0.0971389 0.784161 0
0.45272 0.806485 0
0.644831 0.814267 0
0.763516 0.806256 0
0.831205 0.796002 0
0.872282 0.789075 0
0.893126 0.780041 0
0.900313 0.761013 0.00962844
0.905226 0.722118 0.0398108
0.913649 0.657237 0.0544594
0.923278 0.585092 0.084062
0.928283 0.545815 0.162921
0.926772 0.546654 0.275853
0.923751 0.56556 0.354253
0.924743 0.555001 0.354574
0 0.742779 0
0 0.744427 0
0 0.745846 0
0 0.746838 0
0 0.744656 0
0 0.736996 0
0 0.7299 0
0 0.72369 0
0 0.717815 0
0 0.713191 0
0 0.707439 0
0 0.702724 0
0 0.698528 0
0 0.693599 0
0 0.68893 0
0 0.683482 0
0 0.683436 0
0 0.713603 0
0 0.771435 0
0.220768 0.82295 0
0.531258 0.841138 0
0.700633 0.846265 0
0.80206 0.839063 0
0.855207 0.829999 0
0.884886 0.821012 0
0.895903 0.807034 0.00740063
0.899062 0.777035 0.0367285
0.905974 0.719829 0.056733
0.915465 0.646983 0.081651
0.922271 0.600763 0.152407
0.921126 0.596323 0.264973
0.916838 0.620081 0.350744
0.918151 0.611704 0.351431
0 0.816999 0.0642557
0 0.819242 0.075349
0 0.821576 0.0859693
0 0.82298 0.0928817
0 0.822721 0.0935988
0 0.813214 0.0628519
0 0.804395 0.0390631
0 0.795346 0.0178378
0 0.786404 0
0 0.778805 0
0 0.77023 0
0 0.763043 0
0 0.755444 0
0 0.748226 0
0 0.740505 0
0 0.732128 0
0 0.719539 0
0 0.71577 0
0 0.741802 0
0 0.799741 0
0.301503 0.845731 0
0.597681 0.867948 0
0.751797 0.872175 0
0.83328 0.864881 0
0.874098 0.855467 0
0.892515 0.84535 0.0124971
0.894957 0.823194 0.052781
0.899184 0.777203 0.0818799
0.907576 0.71136 0.0928664
0.913909 0.664591 0.152422
0.912596 0.660838 0.264347
0.90782 0.682338 0.350545
0.909239 0.673426 0.350134
0 0.884169 0.346639
0 0.886915 0.360891
0 0.888151 0.369482
0 0.889647 0.377569
0 0.890379 0.382864
0 0.883803 0.356313
0 0.877333 0.332021
0 0.870283 0.304112
0 0.863447 0.277378
0 0.856336 0.249027
0 0.848051 0.215
0 0.839918 0.18143
0 0.831022 0.145434
0 0.82179 0.110796
0 0.811963 0.0780804
0 0.800412 0.0483253
0 0.789517 0.0239261
0 0.767208 0
0 0.727794 0
0 0.747509 0
0 0.805508 0
0.379736 0.857038 0
0.648859 0.888975 0
0.791989 0.890455 0.0237583
0.856947 0.883864 0.0373388
0.88661 0.874479 0.0605325
0.893126 0.859907 0.0902876
0.894774 0.827146 0.108476
0.899367 0.772366 0.124651
0.903929 0.734371 0.173037
0.901778 0.731792 0.276158
0.896651 0.748455 0.361059
0.89839 0.739284 0.35903
0 0.934554 0.589883
0 0.936309 0.602838
0 0.937331 0.609964
0 0.938445 0.616083
0 0.939284 0.621424
0 0.936217 0.607645
0 0.932555 0.588861
0 0.928115 0.566247
0 0.923186 0.540291
0 0.918151 0.514488
0 0.91252 0.484901
0 0.905776 0.453315
0 0.899184 0.424216
0 0.891524 0.392248
0 0.882643 0.358587
0 0.872389 0.321218
0 0.861189 0.281666
0 0.8495 0.240757
0 0.789929 0.0243076
0 0.7458 0
0 0.756939 0
0.00976577 0.815869 0
0.435019 0.86894 0
0.694697 0.901457 0.0526741
0.822385 0.903807 0.107988
0.874418 0.897231 0.128634
0.891264 0.88748 0.147173
0.891554 0.866712 0.156878
0.893156 0.829236 0.156176
0.894347 0.80029 0.206455
0.891371 0.798001 0.297993
0.886961 0.810575 0.381109
0.888197 0.801663 0.377874
0 0.961547 0.721569
0 0.962158 0.725261
0 0.962524 0.728298
0 0.962844 0.730159
0 0.962966 0.731106
0 0.962493 0.728115
0 0.961593 0.721752
0 0.960388 0.714458
0 0.958968 0.705638
0 0.956741 0.694347
0 0.954391 0.681407
0 0.950713 0.665217
0 0.946456 0.645243
0 0.941588 0.622156
0 0.935302 0.591043
0 0.92813 0.553857
0 0.918608 0.504677
0 0.908095 0.453101
0 0.891752 0.377691
0 0.844053 0.172671
0 0.766629 0
0 0.766629 0
0.00444038 0.810208 0
0.427619 0.866178 0
0.723705 0.907134 0.122896
0.84303 0.912749 0.20943
0.885328 0.908095 0.232166
0.888319 0.896635 0.224918
0.889387 0.874952 0.209094
0.888808 0.856916 0.239429
0.885313 0.85594 0.323323
0.881193 0.864271 0.415885
0.881666 0.857328 0.409552
0 0.963561 0.737209
0 0.962005 0.726055
0 0.961242 0.721782
0 0.95993 0.714366
0 0.958968 0.70898
0 0.958724 0.707408
0 0.959182 0.709941
0 0.95967 0.712505
0 0.960189 0.714855
0 0.96051 0.716289
0 0.960342 0.715038
0 0.959823 0.711788
0 0.959106 0.706798
0 0.957137 0.694759
0 0.953002 0.667857
0 0.947646 0.636423
0 0.941512 0.596979
0 0.934112 0.547478
0 0.929366 0.519509
0 0.924437 0.49015
0 0.898863 0.362951
0 0.802228 0.0243381
0 0.775494 0
0 0.805417 0
0.398718 0.866865 0.0285801
0.742794 0.914992 0.191073
0.86186 0.924498 0.289738
0.886397 0.919966 0.28632
0.887221 0.910063 0.261707
0.885908 0.901518 0.289631
0.881712 0.899153 0.38056
0.876585 0.900511 0.51104
0.87747 0.896025 0.493996
0 0.936202 0.553948
0 0.934432 0.540932
0 0.928222 0.493843
0 0.923125 0.458045
0 0.920378 0.437873
0 0.918853 0.428107
0 0.919783 0.434256
0 0.920943 0.443397
0 0.922454 0.454322
