app/public/assets/luts/cool-300.cube
TITLE "Generated by Resolve"
LUT_3D_SIZE 9
0 0.0193484 0.0274815
0 0.0193484 0.0274815
0.0694743 0.00660716 0.0141451
0.373877 0 0
0.717418 0 0
0.920241 0.0290684 0
0.912734 0 0.25008
0.937255 0.0294652 0.476616
0.964111 0.148501 0.620203
0 0.0193942 0.0275578
0 0.0193637 0.0275273
0.0496681 0.014435 0.0152743
0.319539 0 0
0.658747 0 0
0.916945 0.0254063 0
0.912398 0 0.230655
0.950088 0.0678569 0.490288
0.964324 0.201877 0.578363
0 0.0843366 0.0107729
0 0.0806134 0.0118105
0.00488289 0.0838636 0.00411994
0.30338 0.0660105 0
0.653483 0.0312657 0
0.91754 0.058381 0
0.941939 0.0479438 0.128206
0.950713 0.0691844 0.420554
0.962875 0.230503 0.550607
0 0.206592 0
0 0.200885 0
0 0.201846 0
0.197818 0.263828 0
0.636179 0.249302 0
0.919066 0.274311 0
0.952163 0.345464 0.0670481
0.965988 0.145556 0.30486
0.961181 0.263127 0.497078
0 0.381277 0
0 0.377081 0
0 0.367269 0
0 0.375067 0
0.433158 0.5505 0
0.851804 0.534356 0
0.923903 0.549233 0
0.947005 0.403265 0.197421
0.95642 0.335912 0.397208
0 0.684062 0
0 0.683772 0
0 0.665476 0
0 0.651728 0
0 0.656504 0
0.644831 0.814267 0
0.893126 0.780041 0
0.923278 0.585092 0.084062
0.924743 0.555001 0.354574
0 0.934554 0.589883
0 0.939284 0.621424
0 0.923186 0.540291
0 0.899184 0.424216
0 0.861189 0.281666
0 0.756939 0
0.822385 0.903807 0.107988
0.893156 0.829236 0.156176
0.888197 0.801663 0.377874
0 0.861875 0.0937972
0 0.842542 0.0257725
0 0.839353 0.0140993
0 0.845701 0.0312963
0 0.84976 0.0412909
0 0.855833 0.0668193
0 0.825284 0.0345006
0.88394 0.926513 0.345159
0.873487 0.914733 0.614145
0 0.980011 1
0 0.979995 1
0.00062562 0.977951 1
0.00469978 0.976837 1
0.012604 0.974701 1
0.0822614 0.977676 1
0.552407 0.92491 0.862333
0.859266 0.911788 0.694133
0.872007 0.913054 0.65658
0 0.0192569 0.0280003
0 0.0192264 0.0272526
0.0657206 0.00584421 0.0265965
0.345602 0 0
0.685985 0 0
0.920913 0.0324559 0.0215152
0.913375 0 0.286015
0.952117 0.0747387 0.518853
0.964614 0.193423 0.608713
0 0.0200504 0.0269627
0 0.0196841 0.0278935
0.0387884 0.0134279 0.0237583
0.296696 0 0
0.652827 0 0
0.916609 0.0283207 0.00170901
0.91313 0 0.26862
0.961349 0.118624 0.517952
0.963302 0.223468 0.583444
0 0.0829023 0.0259403
0 0.0763256 0.0247044
0 0.0741436 0.0157168
0.258503 0.0591287 0.00221256
0.618799 0.0307774 0
0.915465 0.0661326 0
0.961364 0.127321 0.179965
0.962432 0.122118 0.423835
0.961639 0.248081 0.554025
0 0.201205 0
0 0.193469 0
0 0.190311 0
0.160769 0.241779 0
0.607782 0.237034 0
0.911543 0.276265 0
0.94818 0.384527 0.0750286
0.961715 0.259281 0.2934
0.95903 0.294911 0.492134
0 0.370901 0
0 0.36527 0
0 0.351522 0
0 0.361868 0
0.4271 0.530007 0
0.839536 0.540215 0
0.919173 0.599695 0.0119936
0.938933 0.459464 0.202502
0.945144 0.409628 0.397131
0 0.685802 0
0 0.6851 0
0 0.658244 0
0 0.642405 0
0 0.669459 0
0.657816 0.816983 0
0.893523 0.804166 0.0367895
0.918669 0.628351 0.153277
0.920729 0.587121 0.364553
0 0.949325 0.68072
0 0.953933 0.704341
0 0.936294 0.634318
0 0.913375 0.530571
0 0.885206 0.417884
0 0.754284 0
0.829343 0.902449 0.204517
0.891432 0.836225 0.201938
0.888182 0.801434 0.379828
0 0.851759 0.0631723
0 0.865187 0.118593
0 0.865324 0.117754
0 0.858991 0.0869459
0 0.849149 0.0485695
0 0.848875 0.051606
0 0.826108 0.0426184
0.883787 0.926329 0.348409
0.873442 0.914687 0.615564
0 0.980011 1
0 0.979995 1
0.000610361 0.977951 1
0.00468452 0.976837 1
0.012604 0.974716 1
0.0816358 0.977615 1
0.55259 0.925124 0.86276
0.859251 0.911788 0.694377
0.871977 0.913024 0.657267
0 0.0118257 0.135515
0 0.011368 0.120363
0.0707713 0.00311284 0.11078
0.316274 0 0.0810559
0.644205 0 0.023743
0.89543 0 0.0517128
0.914366 0 0.351766
0.944793 0.0513008 0.527779
0.963684 0.211337 0.611414
0 0.0284581 0.107851
0 0.0220645 0.0973983
0.0285039 0.0132906 0.0928817
0.262654 0 0.0664988
0.605158 0 0.0129702
0.895308 0 0.0465553
0.914153 0 0.340688
0.957397 0.0962081 0.535225
0.962341 0.235645 0.593774
0 0.0829023 0.11342
0 0.0710765 0.104387
0 0.0664225 0.0834821
0.22501 0.054551 0.0546731
0.586542 0.0178988 0.022034
0.896284 0.0332189 0.0333715
0.941924 0.0405737 0.226017
0.960388 0.10927 0.430716
0.960693 0.265644 0.562966
0 0.228092 0.127886
0 0.21413 0.116777
0 0.195178 0.0945602
0.119951 0.218784 0.0416114
0.569314 0.21239 0.0100557
0.892332 0.240467 0
0.951507 0.366094 0.113863
0.960037 0.283909 0.297505
0.956954 0.320668 0.483543
0 0.382574 0
0 0.374929 0
0 0.345983 0
0 0.333959 0
0.383261 0.480903 0
0.821485 0.492058 0
0.922683 0.581628 0.0512398
0.935027 0.487068 0.2103
0.935256 0.465675 0.400702
0 0.700832 0
0 0.705653 0
0 0.65626 0
0 0.628305 0
0 0.598184 0
0.618601 0.788235 0
0.889677 0.795392 0.0703288
0.914305 0.659754 0.176593
0.915236 0.627894 0.376776
0 0.95227 0.733257
0 0.955993 0.760555
0 0.936614 0.693767
0 0.910262 0.591196
0 0.880568 0.465782
0 0.739971 0
0.82884 0.898848 0.239399
0.889189 0.846235 0.239948
0.885222 0.817548 0.403616
0 0.863233 0.115862
0 0.875181 0.179995
0 0.872129 0.160967
0 0.861555 0.104387
0 0.853651 0.0713054
0 0.862623 0.114626
0 0.812451 0.0322576
0.883055 0.925505 0.363256
0.873075 0.91426 0.626963
0.00196841 0.977646 1
0.00205997 0.9776 1
0.0106355 0.975235 1
0.0148623 0.974105 1
0.0227359 0.972 1
0.110872 0.977203 1
0.569223 0.92781 0.882033
0.858183 0.911376 0.703029
0.871763 0.912779 0.663935
0 0.00204471 0.345495
0 0.00247196 0.326345
0.0587625 0 0.302174
0.318349 0 0.282277
0.63714 0 0.273411
0.890303 0 0.337514
0.918013 0 0.544167
0.944381 0.0501411 0.60235
0.962478 0.226871 0.639231
0 0.0277256 0.315343
0 0.0230106 0.295232
0.0244602 0.0110781 0.272236
0.257069 0 0.253437
0.588571 0 0.247608
0.88304 0 0.306325
0.918547 0 0.543938
0.957351 0.0979782 0.618677
0.960723 0.253468 0.638361
0 0.0962997 0.278996
0 0.0846876 0.260716
0 0.068925 0.244144
0.207691 0.0401617 0.242008
0.561288 0 0.223285
0.862058 0 0.210483
0.944701 0.049897 0.43444
0.961074 0.116732 0.53576
0.958587 0.285801 0.612039
0 0.229343 0.382177
0 0.213367 0.349157
0 0.188174 0.304875
0.108034 0.207828 0.249653
0.557412 0.199359 0.18265
0.890578 0.2121 0.165972
0.956298 0.320348 0.285664
0.963394 0.244099 0.371405
0.95375 0.343786 0.530526
0 0.508949 0.438148
0 0.493141 0.427863
0 0.453193 0.388754
0 0.441535 0.349737
0.337194 0.451438 0.121843
0.798352 0.45893 0.0890364
0.927596 0.548821 0.186007
0.931533 0.505379 0.285451
0.931792 0.486549 0.431632
0 0.798779 0.47599
0 0.798566 0.512322
0 0.753811 0.400031
0 0.722728 0.340841
0 0.580148 0.0112917
0.558206 0.737057 0.0601816
0.88632 0.770306 0.181674
0.911009 0.67483 0.245838
0.910353 0.658183 0.404547
0 0.961212 0.853681
0 0.962097 0.880308
0 0.943404 0.833982
0 0.921248 0.76585
0 0.898222 0.694499
0 0.707973 0
0.817227 0.888014 0.293477
0.887495 0.848661 0.277668
0.882719 0.836667 0.429099
0 0.873152 0.17583
0 0.88806 0.263569
0 0.884123 0.241596
0 0.887297 0.262379
0 0.893965 0.298619
0 0.898955 0.323751
0 0.796613 0.0207523
0.882017 0.924346 0.384436
0.872908 0.914061 0.63209
0.0075227 0.97612 1
0.00807202 0.975952 1
0.0175937 0.973358 1
0.0218204 0.972259 1
0.0300908 0.970016 1
0.244846 0.97525 0.990829
0.576822 0.924422 0.878172
0.857237 0.911025 0.708751
0.871626 0.912642 0.668025
0 0.0259403 0.730068
0 0.0142824 0.705058
0.0300145 0 0.638941
0.32903 0 0.605875
0.65597 0 0.635218
0.887526 0 0.737224
0.940963 0.0370031 0.841718
0.959762 0.111345 0.741497
0.960098 0.25684 0.714672
0 0.0469062 0.702632
0 0.0350958 0.676036
0.007187 0.00462348 0.601419
0.284535 0 0.557809
0.612131 0 0.581811
0.878645 0 0.700755
0.9579 0.0952621 0.857099
0.964309 0.162768 0.753597
0.957 0.289693 0.732052
0 0.129732 0.619074
0 0.116182 0.592844
0 0.0795758 0.519081
0.215702 0.0438849 0.509926
0.55581 0 0.51548
0.859388 0 0.588876
0.963211 0.136034 0.767834
0.964462 0.174701 0.717357
0.95433 0.319753 0.711925
0 0.31548 0.584955
0 0.302708 0.561364
0 0.251316 0.487511
0.0697185 0.23331 0.499275
0.527077 0.185534 0.513909
0.866453 0.17435 0.513619
0.959304 0.278996 0.616938
0.958465 0.286473 0.620188
0.948989 0.369055 0.649058
0 0.49984 0.811414
0 0.488487 0.793622
0 0.43682 0.736049
0 0.414282 0.692302
0.334417 0.447379 0.484947
0.776349 0.438529 0.382589
0.927886 0.511986 0.439261
0.935363 0.467903 0.429831
0.939391 0.4589 0.52491
0 0.795727 0.86743
0 0.789609 0.87425
0 0.752804 0.815106
0 0.723445 0.770306
0 0.728115 0.65243
0.490379 0.682017 0.298741
0.87744 0.729915 0.388586
0.907286 0.68069 0.397787
0.906828 0.674556 0.477974
0 0.949142 0.967514
0 0.9449 0.978653
0 0.926696 0.957107
0 0.907378 0.922225
0 0.888304 0.882872
0 0.722103 0.248371
0.795575 0.867475 0.407477
0.884581 0.84033 0.364004
0.880064 0.844709 0.496056
0 0.912245 0.399344
0 0.925002 0.476417
0 0.924743 0.471397
0 0.941329 0.608988
0 0.949523 0.66099
0 0.952346 0.671504
0 0.79707 0.0950179
0.880034 0.922103 0.427359
0.87219 0.913252 0.651514
0.0236057 0.971801 1
0.0247501 0.97145 1
0.0355535 0.968566 1
0.041474 0.966995 0.999954
0.0500038 0.964782 0.998993
0.363439 0.962203 0.975692
0.614588 0.925643 0.889662
0.856779 0.909941 0.721477
0.871229 0.912169 0.680919
0 0.412894 0.924422
0 0.413931 0.923858
0 0.335698 0.9281
0.343984 0.260838 0.934585
0.699489 0.194965 0.929198
0.921248 0.214298 0.95787
0.958389 0.313313 0.961654
0.961334 0.244205 0.877638
0.953475 0.317296 0.834272
0 0.421393 0.922255
0 0.419883 0.92166
0 0.338125 0.922911
0.331441 0.263615 0.928969
0.686671 0.198932 0.922881
0.916091 0.215534 0.949844
0.954971 0.336782 0.95819
0.957671 0.289143 0.889006
0.948501 0.355489 0.866026
0 0.385794 0.906126
0 0.385122 0.904311
0 0.298207 0.884352
0.1944 0.239963 0.892317
0.590829 0.18233 0.888853
0.883757 0.173785 0.910643
0.956039 0.313024 0.939406
0.956909 0.291142 0.872114
0.945418 0.376669 0.857877
0 0.462593 0.883452
0 0.466178 0.879835
0 0.387427 0.854078
0.0184634 0.342199 0.853498
0.486732 0.290471 0.850782
0.826368 0.263325 0.857847
0.940703 0.361059 0.890852
0.947555 0.361959 0.834821
0.939879 0.414282 0.818799
0 0.643687 0.843214
0 0.651576 0.837934
0 0.581796 0.818296
0 0.5308 0.79971
0.269978 0.49836 0.809903
0.720684 0.447837 0.795727
0.916396 0.499168 0.80737
0.932479 0.475731 0.751003
0.930358 0.491463 0.749477
0 0.742214 0.958984
0 0.745602 0.959197
0 0.712352 0.95761
0 0.678523 0.953017
0.202457 0.682246 0.920897
0.557198 0.704921 0.760555
0.873381 0.703441 0.674815
0.909682 0.654856 0.626139
0.906859 0.666651 0.630762
0 0.90161 0.980804
0 0.902174 0.981323
0 0.884672 0.976623
0 0.864713 0.971557
0 0.857374 0.971069
0.464683 0.875669 0.873899
0.757733 0.835508 0.618601
0.880079 0.825193 0.57557
0.875868 0.846876 0.644663
0 0.9691 0.788739
0 0.975769 0.822782
0 0.978805 0.842039
0 0.982742 0.892546
0 0.985733 0.919432
0 0.988159 0.930953
0 0.864546 0.477714
0.87509 0.916533 0.564401
0.870024 0.910826 0.717845
0.0662089 0.960479 0.997543
0.0674144 0.960098 0.997406
0.0788128 0.957031 0.996185
0.0856489 0.955261 0.995453
0.0911269 0.953902 0.994934
0.482002 0.94638 0.958953
0.683818 0.922454 0.927352
0.854994 0.907179 0.763836
0.869886 0.910674 0.722637
0 0.667231 0.954101
0.0473335 0.674601 0.961807
0.0904555 0.658228 0.966628
0.293477 0.612253 0.966461
0.561379 0.560235 0.962386
0.828748 0.520211 0.964645
0.929564 0.523812 0.986618
0.949706 0.391135 0.987518
0.941344 0.429129 0.958877
0.026215 0.67776 0.959106
0.0761883 0.681682 0.963012
0.127642 0.660929 0.967376
0.342123 0.613474 0.965087
0.590555 0.562463 0.961364
0.846113 0.528908 0.966125
0.928115 0.532753 0.98558
0.946242 0.420401 0.997635
0.935103 0.48098 0.978042
0 0.670527 0.943725
0 0.677317 0.948882
0 0.640238 0.947143
0.208957 0.580133 0.955383
0.534874 0.51783 0.951354
0.811154 0.481117 0.951095
0.929473 0.513008 0.978958
0.945357 0.415641 0.982513
0.933043 0.493217 0.975784
0 0.671504 0.922683
0 0.684169 0.923873
0 0.645304 0.921584
0.058854 0.59527 0.94229
0.453132 0.528634 0.940352
0.756283 0.485115 0.935653
0.921187 0.514092 0.961639
0.938201 0.455772 0.96434
0.929519 0.510475 0.962112
0 0.72343 0.908766
0 0.737621 0.907652
0 0.711131 0.900145
0 0.68069 0.907668
0.308034 0.629908 0.923735
0.668147 0.578271 0.92137
0.897978 0.579355 0.93846
0.924453 0.539879 0.944701
0.921431 0.564492 0.940826
0 0.772915 0.951461
0 0.765621 0.956725
0 0.752056 0.956146
0 0.755184 0.942168
0.118364 0.790402 0.912657
0.552071 0.73843 0.897368
0.852461 0.703349 0.901671
0.905608 0.657877 0.912398
0.901152 0.682094 0.899992
0.0509194 0.84506 0.973114
0.0640269 0.855665 0.974792
0.0518959 0.847837 0.973495
0.0319371 0.830182 0.970687
0.267247 0.832013 0.964553
0.570932 0.836973 0.942016
0.770504 0.836912 0.880522
0.884749 0.801312 0.835355
0.877928 0.844495 0.837736
0.00331121 0.977127 1
0.0166476 0.973541 1
0.0416419 0.966873 0.999863
0.0426642 0.966537 0.99971
0.0455024 0.96585 0.999435
0.0554818 0.963317 0.99855
0.561517 0.938369 0.948135
0.865309 0.906188 0.801953
0.866819 0.905333 0.823346
0.151171 0.940871 0.988876
0.151217 0.940795 0.98883
0.155306 0.939986 0.988235
0.160525 0.939086 0.98761
0.379126 0.935347 0.968109
0.582788 0.930022 0.944244
0.737011 0.915297 0.92488
0.847272 0.900313 0.84126
0.86685 0.905364 0.822873
0.317617 0.796124 0.957931
0.390829 0.814313 0.955871
0.410208 0.813733 0.955001
0.456565 0.808972 0.951568
0.533059 0.789715 0.947112
0.703044 0.752468 0.9393
0.883864 0.72604 0.945006
0.914046 0.624598 0.970535
0.896071 0.713298 0.949813
0.38056 0.816693 0.956283
0.396918 0.816602 0.955901
0.424598 0.814755 0.954009
0.484886 0.808331 0.949508
0.578805 0.796765 0.942962
0.764828 0.761212 0.934722
0.888045 0.749691 0.940566
0.891646 0.733288 0.944717
0.877958 0.803616 0.928939
0.382879 0.819516 0.956268
0.397528 0.820905 0.955703
0.425132 0.819471 0.953933
0.44828 0.778836 0.952926
0.541558 0.732754 0.950912
0.743511 0.695369 0.946029
0.900618 0.692256 0.955062
0.911711 0.635889 0.967849
0.877546 0.80676 0.928466
0.329839 0.809552 0.957839
0.374243 0.827573 0.95671
0.334829 0.79379 0.957534
0.357259 0.739391 0.958801
0.492592 0.693339 0.957031
0.695338 0.658015 0.952895
0.892058 0.647654 0.962051
0.924346 0.560647 0.982422
0.882078 0.779614 0.933684
0.230716 0.807736 0.959762
0.276326 0.832181 0.960159
0.231922 0.806195 0.959838
0.257755 0.759152 0.959518
0.433646 0.723537 0.956878
0.639017 0.688273 0.951019
0.870024 0.665553 0.955627
0.920897 0.582361 0.978439
0.884016 0.769085 0.935912
0.0883803 0.844266 0.963439
0.162005 0.876905 0.968521
0.122164 0.870497 0.967529
0.140414 0.837491 0.963302
0.335027 0.804211 0.957626
0.565133 0.769787 0.946105
0.826856 0.73286 0.939544
0.903822 0.676875 0.958755
0.875395 0.820142 0.925948
0.115068 0.823926 0.971359
0.208911 0.837308 0.968399
0.191135 0.847135 0.970336
0.247562 0.841443 0.966613
0.321782 0.869017 0.964218
0.479332 0.882002 0.951583
0.735973 0.847578 0.926345
0.874586 0.824537 0.924941
0.868513 0.877562 0.912657
0.211765 0.930831 0.982132
0.211719 0.930816 0.982132
0.211612 0.9308 0.982132
0.211582 0.9308 0.982132
0.282551 0.929778 0.975937
0.420005 0.926635 0.962341
0.708278 0.914275 0.928115
0.86424 0.899184 0.906142
0.86685 0.898756 0.901045
0.576791 0.924819 0.944411
0.576944 0.924773 0.944366
0.587823 0.924376 0.942992
0.603571 0.923827 0.941009
0.627802 0.92253 0.938201
0.680507 0.918044 0.931624
0.774166 0.906569 0.920531
0.857038 0.901076 0.914183
0.866133 0.902113 0.897856
0.357687 0.813504 0.957229
0.357641 0.813474 0.957214
0.39707 0.809781 0.955795
0.422034 0.807218 0.954208
0.48333 0.802182 0.949981
0.60148 0.786267 0.942275
0.823163 0.757427 0.935103
0.896162 0.713085 0.949935
0.87126 0.849439 0.921218
0.357717 0.813519 0.957244
0.380072 0.815137 0.956374
0.401266 0.814725 0.955627
0.443824 0.811078 0.952422
0.530312 0.801831 0.946944
0.698726 0.778241 0.936019
0.873732 0.759976 0.936996
0.895994 0.713924 0.949737
0.871214 0.851255 0.921157
0.350286 0.819791 0.957321
0.385428 0.817853 0.956207
0.407431 0.817655 0.95523
0.462776 0.813214 0.95137
0.555932 0.802518 0.94464
0.736553 0.777173 0.933837
0.885252 0.763317 0.937438
0.893477 0.725353 0.946868
0.870985 0.853346 0.920897
0.345525 0.823758 0.95758
0.382971 0.824338 0.956344
0.400275 0.827024 0.95584
0.455421 0.824048 0.951705
0.545846 0.814694 0.945037
0.711467 0.79057 0.933639
0.872129 0.772869 0.934066
0.891768 0.73286 0.944854
0.870665 0.856809 0.920531
0.333806 0.834134 0.958465
0.360891 0.840421 0.957794
0.376669 0.849042 0.957519
0.429313 0.847852 0.954314
0.521614 0.838468 0.946242
0.669551 0.816098 0.934447
0.84892 0.792477 0.929412
0.886381 0.757717 0.938643
0.869612 0.864622 0.917952
0.297444 0.861891 0.962066
0.310719 0.875303 0.962951
0.318318 0.890303 0.964706
0.373419 0.890547 0.961425
0.475822 0.879744 0.951736
0.611856 0.85893 0.937469
0.816236 0.829145 0.924117
0.876661 0.811505 0.927459
0.868696 0.876646 0.91313
0.412177 0.860929 0.956405
0.465522 0.847135 0.951186
0.480766 0.861494 0.950256
0.474845 0.871046 0.951217
0.540795 0.875532 0.945205
0.628244 0.883513 0.936004
0.75787 0.889067 0.921721
0.869001 0.872755 0.914916
0.867674 0.889693 0.907942
0.211856 0.930846 0.982132
0.211826 0.930846 0.982116
0.21178 0.930831 0.982116
0.353567 0.928634 0.96939
0.497871 0.925612 0.953521
0.60502 0.923552 0.940841
0.757778 0.90869 0.922347
0.862806 0.899138 0.910613
0.867155 0.898909 0.903197
0.687572 0.917494 0.930892
0.687526 0.917464 0.930861
0.693202 0.916686 0.929992
0.697017 0.916304 0.92958
0.706767 0.914977 0.928283
0.736904 0.911162 0.924575
0.796384 0.904402 0.918715
0.859297 0.90103 0.913314
0.86627 0.9019 0.901427
