app/public/assets/luts/lut-by-amir-2.cube
TITLE "Generated by Resolve"
LUT_3D_SIZE 9
0.00161746 0.0116579 0.00987259
0.00161746 0.0116579 0.00987259
0.0366522 0.00714122 0.0069276
0.159167 0 0
0.320363 0 0
0.511971 0 0
0.77528 0 0
1 0 0.180163
1 0.0703899 0.412985
0.00161746 0.0116579 0.00987259
0.00161746 0.0116579 0.00987259
0.0429694 0.00662242 0.00634775
0.16141 0 0
0.321492 0 0
0.551186 0 0
0.978698 0 0
1 0 0.22089
1 0.28426 0.386282
0.000656138 0.0147555 0.00877394
0 0.0186313 0.00735485
0.040116 0.0145418 0.00581369
0.203632 0 0
0.411826 0 0
0.65568 0 0
0.999985 0 0
1 0 0.238849
1 0.36112 0.38764
0 0.098497 0
0 0.101472 0
0 0.0930495 0
0.0703288 0.0934615 0
0.491295 0.000732433 0
0.786892 0 0
1 0 0
1 0 0.27834
1 0.48423 0.387976
0 0.267369 0
0 0.270008 0
0 0.212345 0
0.0115663 0.209293 0
0.166369 0.207462 0
0.795407 0.235706 0
1 0.271672 0
1 0.31133 0.0746777
1 0.637858 0.397528
0 0.572015 0
0 0.550301 0
0 0.505791 0
0 0.482521 0
0.141161 0.46331 0
0.45098 0.495644 0
1 0.66041 0
1 0.728374 0.186587
1 0.807126 0.465599
0 0.972686 0
0 0.891371 0
0 0.876799 0
0 0.860838 0
0 0.84654 0
0.378912 0.805463 0
0.723598 0.81091 0
1 0.87039 0.296407
1 0.93286 0.618128
0 1 0.558114
0 1 0.349844
0 1 0.312215
0 1 0.264103
0 1 0.203983
0 1 0.150973
0.576822 0.984924 0.195315
0.894362 0.985138 0.208148
1 0.984527 0.760571
0 1 0.892714
0 1 0.893141
0 1 0.893309
0 1 0.893645
0 1 0.894636
0 1 0.684611
0 1 0.706905
0.852033 1 0.755734
0.991577 1 0.828336
0.00161746 0.0116579 0.00987259
0.00161746 0.0116579 0.00987259
0.0566567 0.00573739 0.00520333
0.167437 0 0
0.311437 0 0
0.543954 0 0
0.763577 0 0
1 0 0.233143
1 0 0.475914
0.00161746 0.0116579 0.00987259
0.00161746 0.0116579 0.00987259
0.0615549 0.00541695 0.00483711
0.16994 0 0
0.353506 0 0
0.627359 0 0
0.979217 0 0
1 0 0.273976
1 0.21268 0.417411
0 0.0355535 0.00378424
0 0.0400549 0.00315862
0.0178683 0.0396429 0.00331121
0.233112 0.00640879 0
0.463203 0 0
0.723934 0 0
1 0 0
1 0 0.296498
1 0.297536 0.412406
0 0.114519 0
0 0.114534 0
0 0.107561 0
0.0714275 0.109957 0
0.570428 0.00288396 0
0.892134 0 0
1 0 0
1 0 0.354681
1 0.43154 0.410864
0 0.259922 0
0 0.266529 0
0 0.228901 0
0 0.261692 0
0.217136 0.265431 0
0.932219 0.249516 0
1 0.30106 0
1 0.222736 0.175463
1 0.617533 0.4215
0 0.61033 0
0 0.550332 0
0 0.519692 0
0 0.539422 0
0.0729076 0.529641 0
0.496101 0.545983 0
1 0.667735 0
1 0.725078 0.230121
1 0.798047 0.481636
0 0.974792 0.157748
0 0.916381 0
0 0.903944 0
0 0.888777 0
0 0.895186 0
0.346395 0.822431 0
0.734569 0.821347 0
1 0.869001 0.345342
1 0.930709 0.628107
0 1 0.59205
0 1 0.389532
0 1 0.355016
0 1 0.311574
0 1 0.255406
0 1 0.230182
0.572519 0.986526 0.23975
0.897887 0.984573 0.251881
1 0.984176 0.765301
0 1 0.897108
0 1 0.897398
0 1 0.897597
0 1 0.897948
0 1 0.898802
0 1 0.691295
0 1 0.715175
0.851591 1 0.760571
0.991531 1 0.832166
0.00120546 0.0096437 0.0191958
0.000534066 0.00865187 0.0285496
0.042298 0.00277714 0.0241245
0.151904 0 0.0141756
0.325429 0 0.000946059
0.506294 0 0
0.755566 0 0
1 0 0.252338
1 0 0.496223
0.000213626 0.00794995 0.0345769
0 0.00653086 0.0479591
0.0422827 0.0012665 0.0355383
0.139101 0 0.0234226
0.356039 0 0.00221256
0.628855 0 0
0.977951 0 0.0145724
1 0 0.295048
1 0.172122 0.438758
0 0.0362402 0.0242466
0 0.0381323 0.0327001
0.0148623 0.041886 0.0380102
0.250553 0.000885023 0.00735485
0.498268 0 0
0.741299 0 0
1 0 0.011902
1 0 0.316838
1 0.251484 0.425635
0 0.115236 0.0108949
0 0.117098 0.0162051
0 0.124651 0.0102846
0.0972 0.123339 0.00827039
0.580087 0.0235752 0
0.923323 0 0
1 0 0
1 0 0.379599
1 0.409232 0.421469
0 0.294499 0
0 0.290608 0
0 0.251728 0
0 0.30132 0
0.258244 0.292775 0
0.944564 0.269093 0
1 0.297688 0
1 0.168231 0.207019
1 0.606195 0.432624
0 0.644846 0
0 0.573938 0
0 0.542306 0
0 0.568353 0
0.00750744 0.555062 0
0.517952 0.564721 0
1 0.669825 0
1 0.723232 0.246632
1 0.794614 0.488716
0 0.973327 0.232532
0 0.921218 0
0 0.909865 0
0 0.89482 0
0 0.911604 0
0.325063 0.829923 0
0.74052 0.824994 0
1 0.86833 0.363668
1 0.929747 0.632273
0 1 0.60415
0 1 0.405203
0 1 0.371832
0 1 0.330419
0 1 0.275288
0 1 0.260319
0.570687 0.987152 0.257618
0.89897 0.984268 0.269078
1 0.984024 0.767285
0 1 0.898939
0 1 0.899306
0 1 0.899413
0 1 0.899763
0 1 0.900587
0 1 0.694453
0 1 0.718853
0.851026 1 0.762417
0.991516 1 0.83389
0 0 0.134173
0 0 0.144244
0.0271153 0 0.140658
0.120775 0 0.0753033
0.264042 0 0.0479438
0.462882 0 0.0235142
0.743252 0 0.0255131
1 0 0.290867
1 0 0.529046
0 0.00894179 0.103883
0 0.0113985 0.103761
0.00686656 0 0.176761
0.127214 0 0.0964828
0.325689 0 0.0667124
0.610498 0 0.03682
0.981521 0 0.074342
1 0 0.341176
1 0.113985 0.48072
0 0.0390631 0.091722
0 0.040116 0.0937972
0 0.0389715 0.11989
0.161257 0.00636301 0.11017
0.445029 0 0.0635233
0.727611 0 0.0296483
1 0 0.0894026
1 0 0.3617
1 0.189609 0.46215
0 0.119036 0.0858778
0 0.11426 0.0840772
0 0.125887 0.0784466
0.0999466 0.137896 0.0964523
0.64332 0 0
0.938079 0 0
1 0 0.128695
1 0 0.423621
1 0.339025 0.444053
0 0.332403 0.0328985
0 0.299825 0.0153964
0 0.286152 0.000549325
0 0.338567 0.00148013
0.324269 0.335042 0
0.929931 0.315373 0
1 0.25977 0
1 0.0141146 0.289494
1 0.583719 0.454627
0 0.677394 0.00898756
0 0.606744 0
0 0.575769 0
0 0.609659 0
0 0.613031 0
0.573632 0.598215 0
1 0.674372 0.0314641
1 0.715892 0.282261
1 0.786389 0.502235
0 0.97145 0.335775
0 0.930022 0
0 0.918776 0
0 0.903883 0
0 0.932082 0
0.289357 0.843061 0
0.752117 0.831861 0
1 0.866987 0.398489
1 0.927901 0.640909
0 1 0.621683
0 1 0.436744
0 1 0.40621
0 1 0.364416
0 1 0.312505
0 1 0.315068
0.566293 0.988296 0.291447
0.901427 0.983474 0.302602
1 0.983719 0.771405
0 1 0.902632
0 1 0.902998
0 1 0.903151
0 1 0.903426
0 1 0.904234
0 1 0.700282
0 1 0.725734
0.850324 1 0.766522
0.991501 1 0.837156
0 0 0.349065
0 0 0.3991
0 0 0.389303
0.111101 0 0.258991
0.241978 0 0.148119
0.411078 0 0.103075
0.810346 0 0.163851
1 0 0.394064
1 0 0.591028
0 0.0313725 0.203479
0 0.026215 0.222141
0 0 0.368978
0.082475 0 0.389212
0.36286 0 0.217792
0.627955 0 0.190661
0.997299 0 0.250706
1 0 0.45626
1 0.0248569 0.568292
0 0.0600137 0.208911
0 0.0552529 0.200397
0 0.0474403 0.25713
0.0567025 0 0.431617
0.429129 0 0.241947
0.719997 0 0.218799
1 0 0.282017
1 0 0.479896
1 0.0986191 0.554742
0 0.13022 0.232868
0 0.112535 0.200488
0 0.121569 0.224491
0 0.113573 0.296147
0.50106 0 0.264576
0.856016 0 0.247288
1 0 0.31812
1 0 0.518059
1 0.19942 0.527687
0 0.365072 0.281712
0 0.30837 0.186236
0 0.327733 0.187564
0 0.362463 0.210498
0.351278 0.36733 0.214343
0.986572 0.232975 0.143313
1 0 0.234333
1 0 0.471992
1 0.478981 0.499245
0 0.707012 0.299321
0 0.631235 0.151186
0 0.616419 0.116335
0 0.661219 0.118456
0 0.689693 0.151675
0.655161 0.644221 0.00541695
1 0.68603 0.235416
1 0.683589 0.366232
1 0.758007 0.536934
0 0.970169 0.490593
0 0.928374 0.235508
0 0.922011 0.194781
0 0.912383 0.152575
0 0.93257 0.215045
0.10428 0.874296 0.146731
0.782162 0.843748 0.027512
1 0.864622 0.474083
1 0.922286 0.662882
0 1 0.645182
0 1 0.51133
0 1 0.484459
0 1 0.442817
0 1 0.394949
0 1 0.409293
0.555566 0.99089 0.367514
0.907973 0.981186 0.381643
1 0.982391 0.78349
0 1 0.911925
0 1 0.9122
0 1 0.912322
0 1 0.912627
0 1 0.913329
0 1 0.715618
0 1 0.742763
0.848127 1 0.777035
0.991501 1 0.845853
0 0.0343023 0.388769
0 0 0.540566
0 0 0.653407
0 0 0.680064
0.341283 0 0.509117
0.64744 0 0.406989
0.969772 0 0.450355
1 0 0.626032
1 0 0.694926
0 0.120867 0.399008
0 0.108064 0.416953
0 0.0779583 0.475563
0 0 0.692317
0.414023 0 0.628092
0.771572 0 0.491371
0.999985 0 0.50695
1 0 0.656077
1 0.050782 0.68304
0 0.153185 0.410849
0 0.141085 0.405722
0 0.130526 0.437263
0 0.0340124 0.608423
0.42269 0 0.662684
0.805234 0 0.508934
1 0 0.525719
1 0 0.663432
1 0.108278 0.677348
0 0.23241 0.455039
0 0.199695 0.412528
0 0.197421 0.42475
0 0.193576 0.499687
0.400122 0 0.716045
0.856825 0 0.534493
1 0 0.552941
1 0 0.671595
1 0.191669 0.664714
0 0.429541 0.532311
0 0.36817 0.455253
0 0.379461 0.475074
0 0.361639 0.479652
0.00866712 0.321645 0.566781
0.8533 0.194781 0.527886
1 0.0287785 0.56347
1 0 0.643091
1 0.339376 0.631434
0 0.684016 0.518242
0 0.637049 0.433005
0 0.648112 0.44152
0 0.682094 0.473518
0 0.695872 0.483528
0.669306 0.640467 0.473686
1 0.603677 0.502693
1 0.538155 0.534096
1 0.676387 0.611414
0 0.926757 0.563455
0 0.914702 0.510735
0 0.911254 0.493095
0 0.913237 0.48069
0 0.927398 0.48629
0 0.9028 0.497047
0.817029 0.845747 0.400198
1 0.860441 0.588418
1 0.908446 0.707927
0 1 0.681178
0 1 0.630335
0 1 0.611887
0 1 0.584268
0 1 0.545281
0 1 0.54931
0.473167 0.998581 0.492271
0.925002 0.973465 0.525399
1 0.979065 0.81181
0 1 0.931807
0 1 0.932021
0 1 0.932097
0 1 0.932296
0 1 0.901457
0 1 0.748257
0 1 0.782177
0.840894 1 0.80235
0.991547 1 0.865202
0 0.311528 0.647547
0 0.285496 0.689723
0 0.266819 0.7187
0 0.241154 0.804517
0.272099 0 0.989517
0.831464 0 0.903136
1 0 0.796826
1 0 0.782025
1 0.0976577 0.827115
0 0.360906 0.653529
0 0.345953 0.674296
0 0.333349 0.690196
0 0.321904 0.755673
0.126757 3.0518e-05 0.9635
0.842115 0 0.92163
1 0 0.799558
1 0 0.781323
1 0.165331 0.822248
0 0.381765 0.658732
0 0.365881 0.673594
0 0.357382 0.685985
0 0.351583 0.74165
0.0296483 0.126253 0.940063
0.841688 0 0.926909
1 0 0.800183
1 0 0.780423
1 0.191363 0.82002
0 0.42443 0.670359
0 0.407538 0.676204
0 0.400427 0.683192
0 0.402121 0.719554
0 0.289006 0.875517
0.832593 0 0.933028
1 0 0.800443
1 0.0647288 0.778973
1 0.240223 0.815213
0 0.522469 0.701045
0 0.508003 0.703304
0 0.50016 0.701869
0 0.487648 0.703899
0 0.463294 0.77499
0.773327 0.0849775 0.933486
1 0.235004 0.794018
1 0.252094 0.773968
1 0.35111 0.798321
0 0.692287 0.72987
0 0.71252 0.754086
0 0.708888 0.75285
0 0.698955 0.751995
0 0.672312 0.761532
0.414206 0.598764 0.800931
0.978134 0.54963 0.76051
1 0.490379 0.755352
1 0.550347 0.764096
0 0.90399 0.747951
0 0.900343 0.738018
0 0.907637 0.748302
0 0.911604 0.755825
0 0.89984 0.743343
0 0.885878 0.749935
0.819303 0.815412 0.721721
1 0.807263 0.739803
1 0.845945 0.780987
0 1 0.786023
0 1 0.770611
0 1 0.765011
0 1 0.754421
0 1 0.757931
0 1 0.723552
0.386877 0.987655 0.732479
0.934813 0.958343 0.715053
1 0.972854 0.860639
0 1 0.963546
0 1 0.963653
0 1 0.963684
0 1 0.963806
0 1 0.896193
0 1 0.819409
0 1 0.849378
0.823728 1 0.85156
0.991608 1 0.901946
0 0.639231 0.911711
0 0.645411 0.928008
0 0.643061 0.93373
0 0.634913 0.941558
0 0.595621 0.970718
0.52221 0.414191 1
1 0.135149 1
1 0.346151 0.937926
1 0.399084 0.935485
0 0.652064 0.91014
0 0.658274 0.92578
0 0.657603 0.930556
0 0.649393 0.938415
0 0.614435 0.96083
0.477363 0.461555 1
1 0.191241 1
1 0.374777 0.93608
1 0.418067 0.934447
0 0.657465 0.909316
0 0.663493 0.92459
0 0.663371 0.929763
0 0.656031 0.936996
0 0.62295 0.957259
0.456107 0.480705 1
1 0.212253 1
1 0.387259 0.935271
1 0.426902 0.933959
0 0.667857 0.907683
0 0.673991 0.922225
0 0.674937 0.928084
0 0.668482 0.935317
0 0.638743 0.952224
0.412879 0.516762 1
0.998367 0.252598 1
1 0.411917 0.9337
1 0.442817 0.933135
0 0.69749 0.909239
0 0.69836 0.917082
0 0.700572 0.923095
0 0.697734 0.931029
0 0.675746 0.942596
0.298222 0.589197 1
0.966873 0.348547 1
1 0.470237 0.931044
1 0.483848 0.930877
0 0.768551 0.920836
0 0.758038 0.917464
0 0.755825 0.918151
0 0.756664 0.92459
0 0.741833 0.932403
0.0394598 0.686137 0.948226
0.876616 0.539376 1
1 0.588739 0.922591
1 0.57969 0.92459
0 0.910521 0.94197
0 0.903655 0.938888
0 0.900008 0.937118
0 0.893202 0.93402
0 0.876646 0.928725
0 0.837613 0.93344
0.669596 0.780209 0.939055
1 0.76527 0.908553
1 0.757519 0.91519
0 1 0.916793
0 1 0.922377
0 1 0.924346
0 1 0.926085
0 1 0.922393
0 1 0.915221
0.322072 0.972656 0.905303
0.932418 0.938399 0.89839
1 0.944472 0.921706
0 1 0.998245
0 1 0.998276
0 1 0.989303
0 1 0.974609
0 1 0.950744
0 1 0.926406
0 1 0.933593
0.827619 1 0.935058
0.991287 0.995804 0.949355
0 0.853819 1
0 0.849409 1
0 0.847578 1
0 0.844205 1
0 0.836866 1
0.137392 0.822934 1
0.673381 0.774105 1
1 0.648157 1
1 0.688319 1
0 0.856611 1
0 0.852079 1
0 0.850645 1
0 0.847044 1
0 0.839612 1
0.128466 0.826047 1
0.667597 0.779431 1
1 0.656016 1
1 0.694957 1
0 0.857847 1
0 0.853391 1
0 0.851637 1
0 0.848341 1
0 0.840833 1
0.126467 0.827329 1
0.664805 0.78172 1
1 0.659312 1
1 0.697505 1
0 0.860487 1
0 0.85594 1
0 0.854383 1
0 0.850965 1
0 0.843397 1
0.119036 0.830106 1
0.65948 0.786313 1
1 0.666362 1
1 0.703471 1
0 0.867338 1
0 0.862974 1
0 0.861082 1
0 0.858305 1
0 0.850126 1
0.104906 0.836606 1
0.644266 0.798367 1
1 0.684627 1
1 0.718105 1
0 0.885222 1
0 0.88101 1
0 0.879332 1
0 0.876249 1
0 0.867262 1
0.070573 0.852537 1
0.609934 0.825437 1
1 0.730129 1
1 0.752834 1
0 0.922667 1
0 0.919341 1
0 0.917861 1
0 0.915053 1
0 0.907088 1
0 0.889738 1
0.553994 0.870909 1
0.957595 0.823438 1
1 0.82414 1
0 1 1
0 1 1
0 1 1
0 1 1
0 1 1
0 0.979232 1
0.482567 0.943633 1
0.856489 0.931823 1
1 0.924239 0.991928
0 1 1
0 1 1
0 1 1
0 1 1
0 1 1
0 1 1
0 1 1
0.834089 1 0.989425
0.991043 0.994781 0.990112
