app/public/assets/luts/lut-by-amir-2.cube
TITLE "Generated by Resolve"
LUT_3D_SIZE 5
0.00161746 0.0116579 0.00987259
0.0366522 0.00714122 0.0069276
0.320363 0 0
0.77528 0 0
1 0.0703899 0.412985
0.000656138 0.0147555 0.00877394
0.040116 0.0145418 0.00581369
0.411826 0 0
0.999985 0 0
1 0.36112 0.38764
0 0.267369 0
0 0.212345 0
0.166369 0.207462 0
1 0.271672 0
1 0.637858 0.397528
0 0.972686 0
0 0.876799 0
0 0.84654 0
0.723598 0.81091 0
1 0.93286 0.618128
0 1 0.892714
0 1 0.893309
0 1 0.894636
0 1 0.706905
0.991577 1 0.828336
0.00120546 0.0096437 0.0191958
0.042298 0.00277714 0.0241245
0.325429 0 0.000946059
0.755566 0 0
1 0 0.496223
0 0.0362402 0.0242466
0.0148623 0.041886 0.0380102
0.498268 0 0
1 0 0.011902
1 0.251484 0.425635
0 0.294499 0
0 0.251728 0
0.258244 0.292775 0
1 0.297688 0
1 0.606195 0.432624
0 0.973327 0.232532
0 0.909865 0
0 0.911604 0
0.74052 0.824994 0
1 0.929747 0.632273
0 1 0.898939
0 1 0.899413
0 1 0.900587
0 1 0.718853
0.991516 1 0.83389
0 0 0.349065
0 0 0.389303
0.241978 0 0.148119
0.810346 0 0.163851
1 0 0.591028
0 0.0600137 0.208911
0 0.0474403 0.25713
0.429129 0 0.241947
1 0 0.282017
1 0.0986191 0.554742
0 0.365072 0.281712
0 0.327733 0.187564
0.351278 0.36733 0.214343
1 0 0.234333
1 0.478981 0.499245
0 0.970169 0.490593
0 0.922011 0.194781
0 0.93257 0.215045
0.782162 0.843748 0.027512
1 0.922286 0.662882
0 1 0.911925
0 1 0.912322
0 1 0.913329
0 1 0.742763
0.991501 1 0.845853
0 0.311528 0.647547
0 0.266819 0.7187
0.272099 0 0.989517
1 0 0.796826
1 0.0976577 0.827115
0 0.381765 0.658732
0 0.357382 0.685985
0.0296483 0.126253 0.940063
1 0 0.800183
1 0.191363 0.82002
0 0.522469 0.701045
0 0.50016 0.701869
0 0.463294 0.77499
1 0.235004 0.794018
1 0.35111 0.798321
0 0.90399 0.747951
0 0.907637 0.748302
0 0.89984 0.743343
0.819303 0.815412 0.721721
1 0.845945 0.780987
0 1 0.963546
0 1 0.963684
0 1 0.896193
0 1 0.849378
0.991608 1 0.901946
0 0.853819 1
0 0.847578 1
0 0.836866 1
0.673381 0.774105 1
1 0.688319 1
0 0.857847 1
0 0.851637 1
0 0.840833 1
0.664805 0.78172 1
1 0.697505 1
0 0.867338 1
0 0.861082 1
0 0.850126 1
0.644266 0.798367 1
1 0.718105 1
0 0.922667 1
0 0.917861 1
0 0.907088 1
0.553994 0.870909 1
1 0.82414 1
0 1 1
0 1 1
0 1 1
0 1 1
0.991043 0.994781 0.990112
