app/public/assets/luts/lut-by-amir-2.cube
TITLE "Generated by Resolve"
LUT_3D_SIZE 33
0.00161746 0.0116579 0.00987259
0.00161746 0.0116579 0.00987259
0.00161746 0.0116579 0.00987259
0.00161746 0.0116579 0.00987259
0.00161746 0.0116579 0.00987259
0.00161746 0.0116579 0.00987259
0.00161746 0.0116579 0.00987259
0.0109865 0.0102998 0.00946059
0.0366522 0.00714122 0.0069276
0.068101 0.0049897 0.0043183
0.102174 0.00270085 0.0016022
0.129091 0.00115969 1.5259e-05
0.159167 0 0
0.196826 0 0
0.235721 0 0
0.277882 0 0
0.320363 0 0
0.364904 0 0
0.412558 0 0
0.460945 0 0
0.511971 0 0
0.565362 0 0
0.631113 0 0
0.731868 0 0
0.77528 0 0
0.866636 0 0
0.986404 0 0
1 0 0.0463722
1 0 0.180163
1 0 0.303944
1 0 0.397482
1 0 0.534249
1 0.0703899 0.412985
0.00161746 0.0116579 0.00987259
0.00161746 0.0116579 0.00987259
0.00161746 0.0116579 0.00987259
0.00161746 0.0116579 0.00987259
0.00161746 0.0116579 0.00987259
0.00161746 0.0116579 0.00987259
0.00192264 0.0115969 0.00981155
0.0133974 0.00988785 0.00924697
0.0399176 0.0068513 0.00663767
0.0708934 0.00480659 0.00410468
0.104051 0.00259403 0.00148013
0.130114 0.00108339 0
0.160204 0 0
0.198016 0 0
0.236606 0 0
0.27863 0 0
0.320928 0 0
0.365423 0 0
0.41297 0 0
0.46128 0 0
0.512245 0 0
0.564279 0 0
0.644358 0 0
0.736797 0 0
0.846601 0 0
0.976822 0 0
0.999985 0 0.00555428
1 0 0.0938125
1 0 0.209491
1 0 0.311849
1 0 0.437247
1 0 0.542321
1 0.18764 0.393332
0.00161746 0.0116579 0.00987259
0.00161746 0.0116579 0.00987259
0.00161746 0.0116579 0.00987259
0.00161746 0.0116579 0.00987259
0.00161746 0.0116579 0.00987259
0.00161746 0.0116579 0.00987259
0.00213626 0.0115511 0.00976577
0.0144045 0.00973526 0.00914015
0.0411841 0.00674449 0.00650034
0.0720836 0.00471504 0.00399786
0.104814 0.00256352 0.00143435
0.130541 0.00106813 0
0.160662 0 0
0.198489 0 0
0.236957 0 0
0.278935 0 0
0.321157 0 0
0.365637 0 0
0.413184 0 0
0.461418 0 0
0.512367 0 0
0.563149 0 0
0.662989 0 0
0.797986 0 0
0.914046 0 0
0.999969 0 0
1 0 0.0123445
1 0 0.105974
1 0 0.214435
1 0 0.321202
1 0 0.454322
1 0 0.539437
1 0.22797 0.390555
0.00161746 0.0116579 0.00987259
0.00161746 0.0116579 0.00987259
0.00161746 0.0116579 0.00987259
0.00161746 0.0116579 0.00987259
0.00161746 0.0116579 0.00987259
0.00161746 0.0116579 0.00987259
0.00230411 0.0115206 0.00973526
0.015198 0.00959792 0.00906386
0.0421607 0.00668345 0.00642405
0.0730755 0.00463874 0.00392157
0.105394 0.002533 0.00138857
0.130968 0.00103761 0
0.161059 0 0
0.198871 0 0
0.237247 0 0
0.279164 0 0
0.32134 0 0
0.365805 0 0
0.413321 0 0
0.461463 0 0
0.512444 0 0
0.597345 0 0
0.687282 0 0
0.842893 0 0
0.949859 0 0
0.999985 0 0
1 0 0.012253
1 0 0.109606
1 0 0.217807
1 0 0.327962
1 0 0.466011
1 0 0.536263
1 0.269108 0.387213
0.00161746 0.0116579 0.00987259
0.00161746 0.0116579 0.00987259
0.00161746 0.0116579 0.00987259
0.00161746 0.0116579 0.00987259
0.00161746 0.0116579 0.00987259
0.00161746 0.0116579 0.00987259
0.00244144 0.01149 0.00970474
0.0158541 0.00950637 0.00898756
0.0429694 0.00662242 0.00634775
0.0739147 0.00456245 0.00386053
0.105867 0.00250248 0.00135805
0.131334 0.00102235 0
0.16141 0 0
0.199191 0 0
0.237476 0 0
0.279377 0 0
0.321492 0 0
0.365942 0 0
0.413428 0 0
0.462364 0 0
0.551186 0 0
0.632761 0 0
0.745312 0 0
0.849378 0 0
0.978698 0 0
1 0 0
1 0 0.0120394
1 0 0.112703
1 0 0.22089
1 0 0.335256
1 0 0.474037
1 0 0.533883
1 0.28426 0.386282
0.00161746 0.0116579 0.00987259
0.00161746 0.0116579 0.00987259
0.00161746 0.0116579 0.00987259
0.00161746 0.0116579 0.00987259
0.00161746 0.0116579 0.00987259
0.00161746 0.0116579 0.00987259
0.00259403 0.0114748 0.00970474
0.0164492 0.00941482 0.00894179
0.0436713 0.00656138 0.00628672
0.0746471 0.00450141 0.0037995
0.106294 0.00247196 0.00132753
0.131609 0.0010071 0
0.1617 0 0
0.199466 0 0
0.237675 0 0
0.279545 0 0
0.321614 0 0
0.366079 0 0
0.431342 0 0
0.506279 0 0
0.583597 0 0
0.670863 0 0
0.782162 0 0
0.872557 0 0
0.999969 0 0
1 0 0
1 0 0.00389105
1 0 0.115984
1 0 0.227985
1 0 0.344991
1 0 0.480095
1 0 0.532204
1 0.317464 0.385321
0.00161746 0.0116579 0.00987259
0.00161746 0.0116579 0.00987259
0.00161746 0.0116579 0.00987259
0.00161746 0.0116579 0.00987259
0.00161746 0.0116579 0.00987259
0.00161746 0.0116579 0.00987259
0.00273136 0.0114748 0.00972
0.0170138 0.00932326 0.00888075
0.0443122 0.00653086 0.00622568
0.0753033 0.00445563 0.00375372
0.106676 0.0024567 0.00129702
0.131868 0.000991836 0
0.161959 0 0
0.19971 0 0
0.237873 0 0
0.279698 0 0
0.339712 0 0
0.404349 0 0
0.46952 0 0
0.539437 0 0
0.614176 0 0
0.697475 0 0
0.81117 0 0
0.901656 0 0
0.999985 0 0
1 0 0
1 0 0
1 0 0.111437
1 0 0.233143
1 0 0.355627
1 0 0.484871
1 0 0.52929
1 0.326146 0.385885
0.00161746 0.0116579 0.00987259
0.00161746 0.0116579 0.00987259
0.00161746 0.0116579 0.00987259
0.00161746 0.0116579 0.00987259
0.00161746 0.0116579 0.00987259
0.00161746 0.0116579 0.00987259
0.0028687 0.0114748 0.00972
0.0175326 0.00924697 0.00883497
0.0449226 0.00648508 0.0061799
0.0759136 0.00440986 0.00370794
0.107454 0.002533 0.00123598
0.134508 0.00120546 0
0.173846 0 0
0.213397 0 0
0.265126 0 0
0.320241 0 0
0.378073 0 0
0.438788 0 0
0.502266 0 0
0.567102 0 0
0.637369 0 0
0.715938 0 0
0.837247 0 0
0.934432 0 0
0.999985 0 0
1 0 0
1 0 0
1 0 0.110674
1 0 0.236667
1 0 0.364553
1 0 0.486198
1 0 0.527123
1 0.354284 0.387076
0.000656138 0.0147555 0.00877394
0.000183108 0.0166781 0.00801099
1.5259e-05 0.0175021 0.00770581
0 0.018143 0.00749218
0 0.0186313 0.00735485
0 0.0190738 0.00724804
0.000320439 0.0193027 0.00732433
0.00906386 0.0183413 0.00772107
0.040116 0.0145418 0.00581369
0.0863508 0.00898756 0.00225834
0.122072 0.00593576 0
0.158663 0.00292973 0
0.203632 0 0
0.251759 0 0
0.304356 0 0
0.356161 0 0
0.411826 0 0
0.47013 0 0
0.530541 0 0
0.590814 0 0
0.65568 0 0
0.738994 0 0
0.867735 0 0
0.971954 0 0
0.999985 0 0
1 0 0
1 0 0
1 0 0.110307
1 0 0.238849
1 0 0.37467
1 0 0.486076
1 0 0.52343
1 0.36112 0.38764
0 0.0284733 0.00512703
0 0.0303197 0.0047303
0 0.0310674 0.00456245
0 0.0316472 0.00445563
0 0.0321355 0.00434882
0 0.0325628 0.00427253
0 0.0320439 0.00440986
0.00292973 0.0311131 0.00569161
0.0124666 0.0317388 0.00508125
0.0394141 0.0329442 0.00262455
0.0882582 0.0272068 0.000823987
0.153857 0.0143587 0
0.223438 0.00280766 0
0.280659 0 0
0.334615 0 0
0.387198 0 0
0.440757 0 0
0.497719 0 0
0.551827 0 0
0.609903 0 0
0.677928 0 0
0.770825 0 0
0.899748 0 0
0.999969 0 0
1 0 0
1 0 0
1 0 0
1 0 0.112596
1 0 0.242588
1 0 0.382635
1 0 0.487236
1 0 0.519554
1 0.379629 0.387549
0 0.0487373 0.00202945
0 0.0509651 0.00180056
0 0.0518959 0.00170901
0 0.0525826 0.00163272
0 0.0531777 0.00157168
0 0.0536812 0.00151064
0 0.051194 0.00161746
0 0.0508278 0.0027924
0.00762951 0.0501869 0.00274662
0.0211032 0.0518502 0.00122072
0.0459907 0.0544289 0
0.101503 0.0522011 0
0.174578 0.0360571 0
0.274998 0.00959792 0
0.352636 0 0
0.41706 0 0
0.469017 0 0
0.524437 0 0
0.58056 0 0
0.639582 0 0
0.706081 0 0
0.812909 0 0
0.938155 0 0
0.999985 0 0
1 0 0
1 0 0
1 0 0
1 0 0.114916
1 0 0.251286
1 0 0.391287
1 0 0.487358
1 0 0.512352
1 0.416403 0.387549
0 0.0723583 0
0 0.0740826 0
0 0.0747845 0
0 0.0753643 0
0 0.0758373 0
0 0.0762493 0
0 0.0722515 0
0 0.0721447 0.000198367
0.00263981 0.0704356 0.000518807
0.0166018 0.0709392 0
0.0336461 0.0717632 0
0.0565805 0.0741741 0
0.125933 0.0723735 0
0.209918 0.0572366 0
0.323781 0.0215 0
0.421775 0 0
0.494591 0 0
0.555993 0 0
0.616037 0 0
0.676234 0 0
0.741878 0 0
0.86157 0 0
0.979568 0 0
0.999985 0 0
1 0 0
1 0 0
1 0 0
1 0 0.126558
1 0 0.268894
1 0 0.398322
1 0 0.485588
1 0 0.501274
1 0.445197 0.387411
0 0.098497 0
0 0.0999924 0
0 0.100603 0
0 0.101076 0
0 0.101472 0
0 0.101808 0
0 0.0954452 0
0 0.0952163 0
0 0.0930495 0
0.0101472 0.0910048 0
0.0267033 0.0915236 0
0.0466926 0.0919661 0
0.0703288 0.0934615 0
0.145815 0.0933547 0
0.252094 0.0770428 0
0.37322 0.0405585 0
0.491295 0.000732433 0
0.578912 0 0
0.651423 0 0
0.714672 0 0
0.786892 0 0
0.920394 0 0
0.999969 0 0
1 0 0
1 0 0
1 0 0
1 0 0
1 0 0.120653
1 0 0.27834
1 0 0.399954
1 0 0.480369
1 0 0.480858
1 0.48423 0.387976
0 0.127932 0
0 0.129366 0
0 0.129961 0
0 0.130419 0
0 0.1308 0
0 0.131136 0
0 0.119966 0
0 0.117372 0
0 0.116472 0
0.000823987 0.113771 0
0.0174258 0.112825 0
0.0368353 0.113939 0
0.0610666 0.114214 0
0.0869306 0.114061 0
0.15494 0.11809 0
0.299504 0.102358 0
0.432334 0.0717937 0
0.564813 0.0195468 0
0.669657 0 0
0.759228 0 0
0.838529 0 0
0.96968 0 0
0.999985 0 0
1 0 0
1 0 0
1 0 0
1 0 0
1 0 3.0518e-05
1 0 0.266712
1 0 0.389364
1 0 0.46392
1 0 0.453391
1 0.52311 0.38761
0 0.164691 0
0 0.166003 0
0 0.166537 0
0 0.166949 0
0 0.1673 0
0 0.167605 0
0 0.148867 0
0 0.142397 0
0 0.144427 0
0 0.141573 0
0.00421149 0.138903 0
0.0232547 0.139803 0
0.0473335 0.140185 0
0.0745403 0.140856 0
0.106905 0.139727 0
0.15996 0.149645 0
0.352514 0.137835 0
0.487312 0.11574 0
0.629404 0.0697185 0
0.749004 0.00656138 0
0.878798 0 0
0.999969 0 0
1 0 0
1 0 0
1 0 0
1 0.00358587 0
1 0 0
1 0 0
1 0 0.163165
1 0 0.351217
1 0 0.428702
1 0.0643931 0.42298
1 0.556085 0.389822
0 0.209079 0
0 0.210483 0
0 0.211063 0
0 0.211521 0
0 0.211887 0
0 0.212222 0
0 0.183261 0
0 0.172961 0
0 0.176745 0
0 0.174319 0
0 0.172122 0
0.00614939 0.171054 0
0.0270237 0.172915 0
0.0586099 0.173816 0
0.0949874 0.173541 0
0.135378 0.171771 0
0.189258 0.181506 0
0.405249 0.176928 0
0.554696 0.16434 0
0.688609 0.137133 0
0.874983 0.0860609 0
0.999985 0.0307774 0
1 0.0245518 0
1 0.0816815 0
1 0.144762 0
1 0.185 0
1 0.189014 0
1 0.159731 0
1 0.0806592 0.101015
1 0 0.242161
1 0.0330968 0.355413
1 0.272938 0.393942
1 0.593805 0.391714
0 0.267369 0
0 0.268696 0
0 0.269245 0
0 0.269657 0
0 0.270008 0
0 0.264652 0
0 0.224704 0
0 0.208621 0
0 0.212345 0
0 0.214008 0
0 0.212268 0
0 0.209293 0
0.0115663 0.209293 0
0.0370031 0.210986 0
0.0816052 0.211795 0
0.122469 0.210117 0
0.166369 0.207462 0
0.224887 0.218204 0
0.443244 0.226596 0
0.62858 0.235645 0
0.795407 0.235706 0
0.996902 0.189761 0
1 0.192752 0
1 0.212863 0
1 0.271672 0
1 0.317327 0
1 0.34165 0
1 0.337209 0
1 0.31133 0.0746777
1 0.295521 0.214206
1 0.324926 0.31606
1 0.434241 0.386892
1 0.637858 0.397528
0 0.337087 0
0 0.338277 0
0 0.338781 0
0 0.339162 0
0 0.339483 0
0 0.320241 0
0 0.278492 0
0 0.259724 0
0 0.259052 0
0 0.262058 0
0 0.260014 0
0 0.255512 0
0 0.253208 0
0.0131991 0.252659 0
0.0509957 0.254948 0
0.102312 0.254658 0
0.148501 0.25359 0
0.20267 0.250706 0
0.30309 0.27953 0
0.575463 0.300908 0
0.733089 0.326543 0
0.921141 0.329549 0
1 0.330114 0
1 0.353368 0
1 0.38352 0
1 0.427558 0
1 0.456886 0
1 0.464363 0
1 0.458732 0.0671855
1 0.449332 0.199344
1 0.460533 0.304372
1 0.522667 0.38146
1 0.67921 0.4056
0 0.417258 0
0 0.418677 0
0 0.41912 0
0 0.419455 0
0 0.41973 0
0 0.37351 0
0 0.337896 0
0 0.317266 0
0 0.313191 0
0 0.311604 0
0 0.31252 0
0 0.307927 0
0 0.303716 0
0 0.301472 0
0.0234531 0.302449 0
0.0726024 0.304936 0
0.141924 0.310994 0
0.21532 0.317433 0
0.298528 0.324361 0
0.450858 0.361654 0
0.684596 0.390005 0
0.831266 0.421561 0
0.993957 0.446784 0
1 0.466087 0
1 0.490639 0
1 0.528725 0
1 0.560281 0
1 0.573541 0
1 0.57023 0.0982681
1 0.566857 0.197391
1 0.577646 0.295918
1 0.609384 0.381567
1 0.721309 0.419333
0 0.499306 0
0 0.500114 0
0 0.50045 0
0 0.50071 0
0 0.498329 0
0 0.43563 0
0 0.405264 0
0 0.385199 0
0 0.378042 0
0 0.377142 0
0 0.378927 0
0 0.37702 0
0 0.374884 0
0 0.372946 0
0.0196994 0.373388 0
0.100481 0.374853 0
0.166308 0.380209 0
0.216205 0.391409 0
0.279149 0.397833 0
0.361059 0.405798 0
0.568856 0.450828 0
0.785672 0.484993 0
0.917372 0.528008 0
1 0.560662 0
1 0.584329 0
1 0.608865 0
1 0.640513 0
1 0.659175 0.0563211
1 0.663813 0.141314
1 0.663218 0.223087
1 0.666804 0.306981
1 0.688289 0.394476
1 0.765637 0.439551
0 0.572015 0
0 0.571633 0
0 0.571267 0
0 0.571023 0
0 0.550301 0
0 0.535561 0
0 0.526833 0
0 0.517601 0
0 0.505791 0
0 0.495262 0
0 0.489357 0
0 0.483833 0
0 0.482521 0
0 0.464668 0
0 0.456382 0
0.0613565 0.458396 0
0.141161 0.46331 0
0.221057 0.469139 0
0.27747 0.480751 0
0.344808 0.489494 0
0.45098 0.495644 0
0.676066 0.545953 0
0.862821 0.585809 0
0.977539 0.629908 0
1 0.66041 0
1 0.679667 0
1 0.696147 0
1 0.71664 0.0926986
1 0.728374 0.186587
1 0.736522 0.2598
1 0.74168 0.336431
1 0.756512 0.421439
1 0.807126 0.465599
0 0.646006 0
0 0.647868 0
0 0.648936 0
0 0.646326 0
0 0.606943 0
0 0.594614 0
0 0.588556 0
0 0.584054 0
0 0.580926 0
0 0.577173 0
0 0.570962 0
0 0.573419 0
0 0.589639 0
0 0.583139 0
0 0.563302 0
0 0.550164 0
0.104372 0.549279 0
0.196292 0.554955 0
0.282094 0.563027 0
0.3449 0.574716 0
0.419471 0.582864 0
0.539635 0.590234 0
0.753994 0.640406 0
0.913741 0.679942 0
1 0.717601 0
1 0.735515 0
1 0.745953 0
1 0.756069 0.131991
1 0.773678 0.215671
1 0.787976 0.298451
1 0.799924 0.37409
1 0.811185 0.455787
1 0.845884 0.49807
0 0.760357 0
0 0.763287 0
0 0.764508 0
0 0.719081 0
0 0.700084 0
0 0.690303 0
0 0.684398 0
0 0.680323 0
0 0.676112 0
0 0.669978 0
0 0.664805 0
0 0.656336 0
0 0.656779 0
0 0.689754 0
0 0.675837 0
0 0.661357 0
0.00294499 0.643168 0
0.163394 0.641825 0
0.267445 0.647379 0
0.347463 0.655283 0
0.415076 0.666392 0
0.497948 0.6748 0
0.618692 0.680156 0
0.812268 0.723964 0
0.95169 0.755596 0
1 0.779004 0
1 0.786404 0
1 0.794415 0.130831
1 0.805631 0.255146
1 0.824781 0.331304
1 0.841505 0.417899
1 0.854994 0.493721
1 0.880262 0.535912
0 0.882475 0
0 0.885344 0
0 0.838941 0
0 0.807446 0
0 0.795819 0
0 0.789288 0
0 0.784939 0
0 0.781369 0
0 0.776898 0
0 0.772656 0
0 0.767361 0
0 0.762325 0
0 0.755383 0
0 0.758328 0
0 0.781765 0
0 0.765225 0
0 0.756436 0
0.0537881 0.732677 0
0.230213 0.730892 0
0.32961 0.735103 0
0.406012 0.740749 0
0.480415 0.74699 0
0.559686 0.752682 0
0.676204 0.753613 0
0.855421 0.788159 0
0.981186 0.812009 0
1 0.824842 0
1 0.829099 0.131868
1 0.838483 0.274403
1 0.853071 0.379171
1 0.872099 0.458686
1 0.88893 0.535576
1 0.908415 0.574319
0 0.972686 0
0 0.96405 0
0 0.911803 0
0 0.898421 0
0 0.891371 0
0 0.886748 0
0 0.882185 0
0 0.879194 0
0 0.876799 0
0 0.87361 0
0 0.869734 0
0 0.865125 0
0 0.860838 0
0 0.854917 0
0 0.865812 0
0 0.876539 0
0 0.84654 0
0 0.838804 0
0.0989548 0.811856 0
0.279255 0.805753 0
0.378912 0.805463 0
0.45452 0.807324 0
0.533028 0.809842 0
0.612833 0.813001 0
0.723598 0.81091 0
0.891646 0.839887 0
1 0.858991 0
1 0.864713 0.0854658
1 0.87039 0.296407
1 0.879866 0.417945
1 0.895598 0.502037
1 0.913802 0.577142
1 0.93286 0.618128
0 1 0.183139
0 0.998306 6.10361e-05
0 0.984512 0
0 0.979065 0
0 0.973983 0
0 0.970489 0
0 0.967544 0
0 0.965087 0
0 0.962585 0
0 0.960266 0
0 0.957336 0
0 0.954589 0
0 0.950179 0
0 0.945327 0
0 0.942657 0
0 0.955184 0
0 0.953506 0
0 0.922881 0
0 0.904341 0
0.106889 0.872511 0
0.310475 0.862745 0
0.422812 0.858549 0
0.49839 0.858305 0
0.578897 0.859083 0
0.656779 0.862028 0
0.768399 0.860945 0
0.931884 0.888518 0
1 0.903426 0
1 0.902907 0.300511
1 0.907225 0.443091
1 0.916442 0.547509
1 0.933654 0.612909
1 0.950683 0.658473
0 1 0.372671
0 1 0.00311284
0 1 0
0 1 0
0 1 0
0 1 0
0 1 0
0 1 0
0 1 0
0 1 0
0 1 0
0 1 0
0 1 0
0 1 0
0 1 0
0 1 0
0 1 0
0 1 0
0 0.98024 0
0 0.959731 0
0.0983444 0.922225 0
0.343877 0.910063 0
0.4636 0.903777 0
0.544198 0.903761 0
0.625757 0.905653 0
0.703059 0.909163 0
0.815412 0.910338 0
0.960388 0.934447 0
1 0.941054 0.182391
1 0.933852 0.457862
1 0.937697 0.576059
1 0.948165 0.654383
1 0.965164 0.694469
0 1 0.290578
0 1 0.228428
0 1 0.197574
0 1 0.179583
0 1 0.164584
0 1 0.156283
0 1 0.148409
0 1 0.141894
0 1 0.134264
