app/public/assets/luts/lut-by-amir.cube
LUT_3D_SIZE 6
0.004098 0.004098 0.004098
0.004098 0.004098 0.004098
0.159285 0.003459 0.022973
0.464807 0.007912 0.041151
0.643145 0.017449 0.064324
0.722885 0.024024 0.068864
0.004098 0.004098 0.004098
0.011050 0.014898 0.004006
0.391197 0.063988 0.012268
0.742259 0.156792 0.040195
0.918633 0.203317 0.059279
0.940538 0.194333 0.069305
0.007062 0.305268 0.046702
0.005569 0.322831 0.019556
0.434072 0.412947 0.010551
0.880497 0.570039 0.084038
0.983627 0.538577 0.135686
0.997411 0.510338 0.181273
0.051399 0.778271 0.219409
0.073390 0.764206 0.150429
0.323416 0.764709 0.106878
0.747990 0.733454 0.140081
0.867848 0.708344 0.356108
0.867660 0.706848 0.536210
0.031588 0.533652 0.169589
0.215293 0.478213 0.241268
0.443717 0.495351 0.443223
0.563730 0.587257 0.588512
0.665742 0.678157 0.690120
0.714734 0.725314 0.742873
0.388722 0.461738 0.428668
0.512525 0.569033 0.554678
0.588947 0.629528 0.625610
0.675669 0.699294 0.708083
0.719944 0.737966 0.758311
0.748673 0.761998 0.790420
0.004098 0.004098 0.004098
0.004098 0.004098 0.004098
0.163991 0.003629 0.042838
0.471545 0.008206 0.077095
0.643928 0.017763 0.096782
0.733818 0.025125 0.107069
0.004098 0.004098 0.004098
0.004098 0.004098 0.004098
0.186052 0.003293 0.019069
0.604119 0.017529 0.081257
0.862667 0.056017 0.104041
0.931172 0.079901 0.178031
0.012506 0.259005 0.082322
0.006805 0.274454 0.042439
0.317697 0.321164 0.008344
0.877498 0.484207 0.139276
0.955371 0.424129 0.251629
0.971943 0.390521 0.316196
0.027901 0.695715 0.234617
0.050300 0.733985 0.218065
0.254308 0.705338 0.129663
0.692533 0.697691 0.237087
0.858863 0.704813 0.472440
0.858531 0.705713 0.601060
0.036829 0.658796 0.249825
0.159841 0.603175 0.319903
0.462152 0.580143 0.468178
0.606993 0.632475 0.637231
0.691103 0.702832 0.720369
0.727306 0.739790 0.764991
0.475155 0.547558 0.537400
0.561257 0.612411 0.613367
0.637176 0.671514 0.683729
0.701683 0.720834 0.739063
0.735496 0.751652 0.777640
0.753000 0.766935 0.798077
0.004098 0.004098 0.004098
0.004098 0.004098 0.004098
0.115963 0.004038 0.056103
0.442706 0.004735 0.125257
0.630540 0.017482 0.154498
0.712901 0.023131 0.166633
0.004098 0.011919 0.026797
0.004098 0.005491 0.048844
0.147219 0.004072 0.078861
0.525753 0.012296 0.170192
0.797688 0.037249 0.259079
0.904709 0.068469 0.310389
0.000000 0.205298 0.183459
0.000775 0.208580 0.194196
0.232726 0.233958 0.240499
0.740077 0.212942 0.284153
0.920175 0.250789 0.409647
0.950028 0.282053 0.454261
0.000000 0.650311 0.332736
0.016136 0.653093 0.291320
0.087301 0.653373 0.290462
0.628468 0.645891 0.413380
0.836365 0.686583 0.579096
0.837349 0.675903 0.646410
0.018206 0.735909 0.357826
0.093930 0.685611 0.455094
0.478884 0.642239 0.549119
0.633839 0.667267 0.671172
0.709709 0.722118 0.744372
0.738878 0.751542 0.780150
0.531611 0.591433 0.601332
0.614032 0.660137 0.675294
0.680040 0.705601 0.724340
0.718118 0.735565 0.759907
0.745279 0.759943 0.789565
0.757155 0.770772 0.803489
0.004098 0.012308 0.062584
0.007447 0.004098 0.072305
0.099302 0.000000 0.109378
0.357400 0.003973 0.180402
0.580744 0.014611 0.206140
0.675837 0.020366 0.190867
0.000000 0.032831 0.118397
0.004098 0.018020 0.175774
0.102443 0.004098 0.164940
0.433579 0.008905 0.244752
0.699437 0.023154 0.288185
0.856579 0.048076 0.344751
0.000000 0.204366 0.286164
0.004098 0.213217 0.342276
0.115429 0.147708 0.491096
0.689297 0.164097 0.515352
0.905300 0.196217 0.528172
0.940455 0.261358 0.562814
0.000000 0.566297 0.523634
0.001259 0.572778 0.538744
0.017000 0.566689 0.555189
0.571300 0.579714 0.604721
0.798123 0.582110 0.614567
0.814307 0.614123 0.666989
0.004348 0.776414 0.546105
0.074652 0.712148 0.580768
0.467597 0.673509 0.634101
0.663224 0.699008 0.712265
0.725005 0.738946 0.765559
0.746331 0.758583 0.788714
0.577772 0.633502 0.650857
0.654255 0.689644 0.711006
0.706888 0.728936 0.755012
0.736255 0.752338 0.781045
0.750712 0.765385 0.797066
0.760127 0.774098 0.807638
0.000000 0.031037 0.182880
0.019273 0.004098 0.203803
0.078772 0.004098 0.189702
0.301314 0.004098 0.271326
0.522976 0.013000 0.279934
0.620059 0.017346 0.243184
0.000000 0.054056 0.221104
0.004098 0.039063 0.300995
0.038709 0.004098 0.275938
0.314999 0.004098 0.319451
0.622207 0.020499 0.374865
0.789196 0.032232 0.376116
0.000000 0.196969 0.365393
0.004098 0.209432 0.471273
0.053763 0.194405 0.716637
0.643131 0.105197 0.717405
0.857625 0.220054 0.655333
0.928501 0.265398 0.635947
0.004098 0.582773 0.678411
0.014272 0.615693 0.739384
0.031490 0.621110 0.768473
0.499339 0.531818 0.774470
0.800279 0.556467 0.735016
0.830055 0.585261 0.716611
0.016644 0.762484 0.725262
0.086825 0.716516 0.715730
0.447016 0.684675 0.713890
0.674003 0.714735 0.744085
0.735029 0.749279 0.778799
0.747983 0.761451 0.792782
0.617567 0.667319 0.694101
0.689567 0.715869 0.740939
0.725580 0.745159 0.773258
0.745582 0.761402 0.791768
0.756378 0.770470 0.803456
0.763010 0.777241 0.811610
0.000000 0.050723 0.293901
0.004098 0.015289 0.343945
0.043861 0.004098 0.271527
0.242926 0.004098 0.314582
0.461313 0.010791 0.383789
0.587948 0.017062 0.319826
0.000000 0.053764 0.295904
0.004098 0.054473 0.386297
0.031402 0.007434 0.407483
0.238997 0.005229 0.388168
0.536693 0.017117 0.483788
0.723796 0.032608 0.456448
0.000000 0.184763 0.434403
0.004098 0.195485 0.586506
0.062703 0.208750 0.821700
0.541636 0.080188 0.795507
0.836723 0.217866 0.833345
0.917725 0.256921 0.745321
0.000000 0.587279 0.765345
0.014950 0.610184 0.827859
0.049250 0.610024 0.857728
0.465421 0.529004 0.842013
0.785583 0.555362 0.810005
0.837612 0.581316 0.774233
0.031353 0.784656 0.863779
0.076972 0.753749 0.825313
0.434308 0.694375 0.748781
0.679836 0.722370 0.760360
0.742226 0.756335 0.787698
0.752070 0.765217 0.797735
0.647132 0.688570 0.718734
0.705849 0.729302 0.757827
0.736775 0.753588 0.783633
0.751199 0.765610 0.798337
0.759150 0.773334 0.807112
0.764088 0.778550 0.813309
