app/public/assets/luts/lut-by-amir.cube
LUT_3D_SIZE 16
0.004098 0.004098 0.004098
0.004098 0.004098 0.004098
0.004098 0.004098 0.004098
0.004098 0.004098 0.004098
0.005737 0.004091 0.004135
0.070398 0.003797 0.008340
0.159285 0.003459 0.022973
0.270030 0.003016 0.038515
0.373634 0.002495 0.039182
0.464807 0.007912 0.041151
0.539234 0.011898 0.046507
0.595731 0.014752 0.056376
0.643145 0.017449 0.064324
0.680967 0.020122 0.069493
0.711450 0.022816 0.070331
0.722885 0.024024 0.068864
0.004098 0.004098 0.004098
0.004098 0.004098 0.004098
0.004098 0.004098 0.004098
0.004098 0.004098 0.004098
0.017821 0.004089 0.004409
0.090474 0.005008 0.006032
0.188098 0.003289 0.019853
0.302556 0.002797 0.031468
0.404353 0.004402 0.028385
0.492763 0.009501 0.029589
0.566693 0.013264 0.047871
0.625821 0.016521 0.059111
0.674234 0.019909 0.065085
0.718632 0.023933 0.063989
0.750963 0.027427 0.056711
0.761649 0.028724 0.050817
0.004098 0.004098 0.004098
0.004098 0.004098 0.004098
0.004098 0.004098 0.004098
0.004098 0.004098 0.004098
0.060717 0.009825 0.005336
0.149905 0.016236 0.007249
0.275715 0.026268 0.009947
0.393808 0.035225 0.012485
0.500523 0.034297 0.020627
0.589928 0.035760 0.028590
0.661717 0.045771 0.034934
0.716576 0.057461 0.040341
0.767229 0.067031 0.046942
0.811540 0.084972 0.051883
0.833402 0.094086 0.054212
0.835107 0.092609 0.054602
0.004098 0.004098 0.004098
0.004104 0.004551 0.004097
0.004134 0.010880 0.004080
0.011050 0.014898 0.004006
0.122665 0.043390 0.006670
0.247750 0.051985 0.009256
0.391197 0.063988 0.012268
0.526918 0.088737 0.017976
0.639809 0.121153 0.029608
0.742259 0.156792 0.040195
0.824250 0.171527 0.047418
0.884259 0.191784 0.053346
0.918633 0.203317 0.059279
0.937331 0.205819 0.064818
0.941215 0.200532 0.067382
0.940538 0.194333 0.069305
0.004773 0.068888 0.010811
0.004644 0.074361 0.009436
0.004555 0.084156 0.007812
0.004551 0.090969 0.007370
0.117610 0.110492 0.003704
0.308574 0.178114 0.009368
0.472254 0.217187 0.013434
0.618172 0.233936 0.024940
0.757309 0.256077 0.039283
0.865273 0.281391 0.049737
0.918403 0.289982 0.054989
0.941440 0.313626 0.067048
0.961526 0.307033 0.074409
0.972560 0.299968 0.082660
0.974839 0.290717 0.086612
0.977204 0.281449 0.090507
0.005689 0.168577 0.025227
0.005507 0.173343 0.023157
0.005335 0.183980 0.020756
0.005159 0.195108 0.017072
0.066853 0.201833 0.014184
0.268049 0.251616 0.003211
0.488848 0.342497 0.017244
0.655347 0.403649 0.030680
0.792408 0.438590 0.043483
0.892404 0.451593 0.054945
0.934474 0.445380 0.075053
0.963427 0.437363 0.084817
0.982192 0.427942 0.100126
0.989490 0.417795 0.114157
0.990233 0.407118 0.121837
0.991695 0.395035 0.130983
0.007062 0.305268 0.046702
0.006609 0.303871 0.041186
0.006525 0.312507 0.040265
0.005569 0.322831 0.019556
0.076329 0.326982 0.009976
0.174232 0.361857 0.014242
0.434072 0.412947 0.010551
0.649026 0.500970 0.035945
0.787367 0.550147 0.060987
0.880497 0.570039 0.084038
0.933556 0.559405 0.098037
0.965062 0.549084 0.112543
0.983627 0.538577 0.135686
0.992854 0.528958 0.155604
0.995861 0.518796 0.168738
0.997411 0.510338 0.181273
0.006111 0.475316 0.087900
0.005625 0.473633 0.083367
0.009672 0.472500 0.082501
0.015647 0.479695 0.037989
0.113499 0.481745 0.021669
0.187644 0.501792 0.044261
0.323696 0.539774 0.024211
0.588696 0.566785 0.039817
0.761984 0.624197 0.078312
0.859834 0.645993 0.112205
0.911717 0.640513 0.124600
0.948545 0.635377 0.144732
0.971973 0.621773 0.179584
0.982391 0.614907 0.205815
0.988548 0.607930 0.228026
0.993002 0.602071 0.248670
0.023130 0.646496 0.176997
0.028624 0.657009 0.131581
0.030350 0.649919 0.129838
0.036117 0.642526 0.111840
0.152342 0.641045 0.052564
0.237052 0.655840 0.075641
0.311225 0.676660 0.069590
0.468579 0.687821 0.051003
0.700699 0.682036 0.082753
0.829416 0.704306 0.135417
0.890502 0.700188 0.158164
0.924715 0.696130 0.191637
0.947074 0.687524 0.234711
0.956110 0.678099 0.278004
0.958631 0.673812 0.315965
0.959124 0.670251 0.356311
0.051399 0.778271 0.219409
0.052768 0.780800 0.192211
0.059535 0.773288 0.179367
0.073390 0.764206 0.150429
0.203167 0.756754 0.093678
0.277083 0.761907 0.110235
0.323416 0.764709 0.106878
0.417282 0.767347 0.093396
0.572805 0.752165 0.091339
0.747990 0.733454 0.140081
0.830962 0.729398 0.216358
0.859323 0.718348 0.288445
0.867848 0.708344 0.356108
0.875184 0.707404 0.424828
0.872611 0.705629 0.485394
0.867660 0.706848 0.536210
0.064141 0.824216 0.231628
0.070874 0.820325 0.221755
0.079942 0.810675 0.203510
0.091516 0.794788 0.174596
0.179629 0.769968 0.105086
0.261509 0.748821 0.117753
0.296232 0.725055 0.121444
0.365783 0.710544 0.124933
0.468931 0.696826 0.161968
0.583043 0.685121 0.240537
0.674972 0.683226 0.351098
0.721215 0.685334 0.457575
0.736841 0.688852 0.537503
0.739731 0.693195 0.593607
0.737722 0.692460 0.634062
0.729297 0.694301 0.659804
0.054270 0.775780 0.220234
0.056168 0.758475 0.209876
0.061566 0.734909 0.201646
0.072652 0.694725 0.186866
0.108217 0.646738 0.150581
0.230156 0.601270 0.177145
0.301130 0.574503 0.259735
0.377197 0.563046 0.341585
0.445803 0.563509 0.416283
0.509373 0.584714 0.484728
0.571170 0.608218 0.547660
0.615237 0.630784 0.602398
0.640830 0.646003 0.641105
0.662960 0.666092 0.675421
0.679625 0.684587 0.697097
0.694248 0.700191 0.712453
0.031588 0.533652 0.169589
0.038650 0.517708 0.182783
0.124463 0.502662 0.207652
0.215293 0.478213 0.241268
0.295272 0.461665 0.296287
0.375635 0.469251 0.373049
0.443717 0.495351 0.443223
0.490350 0.526115 0.502630
0.530599 0.558066 0.551439
0.563730 0.587257 0.588512
0.599627 0.617958 0.623335
0.633059 0.649155 0.658087
0.665742 0.678157 0.690120
0.688724 0.698982 0.712069
0.703873 0.714361 0.729725
0.714734 0.725314 0.742873
0.211894 0.351794 0.253840
0.288856 0.375357 0.313632
0.348572 0.413425 0.373268
0.382363 0.435596 0.405842
0.414262 0.461891 0.435318
0.454649 0.498307 0.476831
0.499670 0.540420 0.528670
0.541555 0.574621 0.570836
0.573494 0.603519 0.603657
0.604977 0.630172 0.634277
0.633218 0.656089 0.662754
0.665692 0.682489 0.693890
0.692065 0.705693 0.718067
0.709412 0.722019 0.740324
0.722969 0.734542 0.757106
0.730860 0.743933 0.768400
0.330310 0.395285 0.363344
0.369699 0.428777 0.401826
0.419445 0.476206 0.452145
0.451665 0.505368 0.486014
0.478060 0.527863 0.510592
0.514234 0.557589 0.545719
0.550254 0.588237 0.584149
0.587114 0.618353 0.618267
0.614455 0.644837 0.649113
0.644025 0.668526 0.674741
0.669818 0.690097 0.700546
0.692188 0.708888 0.721836
0.708591 0.723708 0.741682
0.723421 0.737388 0.759591
0.733704 0.748426 0.772591
0.742095 0.755135 0.782607
0.388722 0.461738 0.428668
0.428517 0.497528 0.468017
0.476984 0.541971 0.520669
0.512525 0.569033 0.554678
0.532316 0.585219 0.571882
0.558111 0.605822 0.595031
0.588947 0.629528 0.625610
0.615641 0.658016 0.657203
0.646140 0.679070 0.685031
0.675669 0.699294 0.708083
0.694132 0.714471 0.725676
0.707410 0.726703 0.743451
0.719944 0.737966 0.758311
0.730940 0.748087 0.772165
0.741376 0.755696 0.782740
0.748673 0.761998 0.790420
0.004098 0.004098 0.004098
0.004098 0.004098 0.004098
0.004098 0.004098 0.004098
0.004098 0.004098 0.004098
0.010529 0.004071 0.004508
0.074672 0.003808 0.012315
0.160321 0.003503 0.028360
0.269442 0.003083 0.045637
0.374295 0.002560 0.048679
0.468315 0.008029 0.053972
0.542838 0.012164 0.060167
0.598266 0.014964 0.068214
0.644454 0.017521 0.074397
0.684868 0.020290 0.077631
0.717119 0.023051 0.078438
0.736842 0.025237 0.073924
0.004098 0.004098 0.004098
0.004098 0.004098 0.004098
0.004098 0.004098 0.004098
0.004098 0.004098 0.004098
0.006776 0.004090 0.004159
0.067578 0.003809 0.008057
0.159728 0.003478 0.025387
0.272285 0.003040 0.042558
0.380240 0.002828 0.045422
0.478371 0.008818 0.051651
0.558994 0.012984 0.059517
0.624261 0.016457 0.067898
0.678128 0.020158 0.071002
0.726128 0.024552 0.068381
0.759623 0.028244 0.062173
0.771286 0.029612 0.063243
0.004098 0.004098 0.004098
0.004098 0.004098 0.004098
0.004098 0.004098 0.004098
0.004098 0.004098 0.004098
0.030764 0.005594 0.004696
0.103045 0.006781 0.006294
0.209993 0.003167 0.018024
0.330211 0.002659 0.031500
0.440862 0.007182 0.038798
0.541503 0.012117 0.050361
0.625601 0.017053 0.057886
0.694807 0.022683 0.053364
0.752144 0.042755 0.047246
0.799006 0.065235 0.052234
0.830989 0.078397 0.056520
0.837173 0.073246 0.058653
0.004098 0.004098 0.004098
0.004098 0.004098 0.004098
0.004099 0.004205 0.004098
0.004996 0.006410 0.004228
0.091401 0.029308 0.006005
0.206023 0.026355 0.008415
0.349895 0.034294 0.011521
0.488886 0.060165 0.020924
0.606846 0.068974 0.030471
0.710816 0.101557 0.038506
0.796692 0.130465 0.047415
0.860883 0.156054 0.054555
0.902620 0.170111 0.062550
0.925025 0.172929 0.071634
0.935725 0.168213 0.078734
0.937676 0.159463 0.082728
0.004639 0.061239 0.009086
0.004537 0.066746 0.007851
0.004471 0.072418 0.006521
0.004511 0.078725 0.007099
0.088085 0.089940 0.003031
0.280551 0.149154 0.009194
0.456454 0.177256 0.016152
0.617136 0.186669 0.029663
0.765789 0.213001 0.042251
0.863460 0.248037 0.050639
0.916449 0.269605 0.057047
0.940705 0.275130 0.072539
0.958176 0.268819 0.084548
0.970952 0.261595 0.097801
0.976429 0.251177 0.105354
0.979113 0.240655 0.110049
0.005465 0.160644 0.022256
0.005323 0.165515 0.020443
0.005195 0.171380 0.018396
0.005207 0.183104 0.018464
0.029722 0.183161 0.004959
0.232336 0.224573 0.002627
0.471626 0.318885 0.016965
0.654981 0.380112 0.031432
0.799700 0.409831 0.044770
0.901269 0.420501 0.056710
0.939213 0.415062 0.083848
0.961975 0.402286 0.101487
0.976836 0.390463 0.125013
0.984356 0.378428 0.146565
0.985755 0.366160 0.158253
0.986983 0.355297 0.167174
0.003303 0.296332 0.050078
0.006695 0.299498 0.042163
0.006413 0.302257 0.038476
0.006202 0.312251 0.035333
0.024854 0.314830 0.004169
0.136934 0.334869 0.021893
0.405403 0.388641 0.009499
0.638485 0.484341 0.036871
0.788751 0.534097 0.063616
0.889866 0.552284 0.088710
0.937282 0.537302 0.110006
0.964222 0.524110 0.134736
0.981680 0.511615 0.168666
0.986606 0.500276 0.194081
0.987404 0.489289 0.208754
0.989288 0.478870 0.223388
0.011529 0.457200 0.123362
0.007019 0.464968 0.094594
0.006887 0.461624 0.093277
0.012350 0.468236 0.068015
0.031736 0.469222 0.016096
0.165037 0.475517 0.038492
0.285560 0.515351 0.028180
0.564538 0.547178 0.041243
0.753689 0.610768 0.081791
0.858819 0.634636 0.118188
0.912753 0.628252 0.137305
0.949944 0.615717 0.172390
0.970193 0.605722 0.215304
0.978224 0.596405 0.248487
0.982151 0.590562 0.273538
0.985888 0.585641 0.297634
0.022322 0.622525 0.182697
0.028199 0.636225 0.180061
0.030926 0.642345 0.143445
0.031528 0.638446 0.134338
0.047624 0.629649 0.084659
0.209486 0.634508 0.070401
0.279777 0.653066 0.075534
0.435594 0.671357 0.055253
0.682245 0.666728 0.084716
0.821431 0.693456 0.145105
0.883721 0.689491 0.180087
0.919772 0.683938 0.222643
0.942342 0.675114 0.274892
0.950165 0.668986 0.318416
0.952581 0.663775 0.359165
0.955478 0.660752 0.394543
0.049114 0.750703 0.226092
0.050562 0.768716 0.215743
0.056792 0.771178 0.204697
0.063770 0.762195 0.181181
0.087498 0.747169 0.104096
0.248597 0.746322 0.106723
0.302967 0.749311 0.112808
0.394898 0.755470 0.100684
0.551596 0.743210 0.102137
0.730200 0.723457 0.163835
0.821542 0.723566 0.256290
0.852334 0.715489 0.330646
0.864183 0.707613 0.394564
0.874061 0.707076 0.456473
0.873788 0.705487 0.510172
0.867282 0.707367 0.557393
0.060929 0.818261 0.246759
0.066242 0.815037 0.236066
0.075318 0.809757 0.224261
0.087307 0.799445 0.207951
0.107344 0.773363 0.154533
0.240545 0.750241 0.127047
0.294831 0.726405 0.141938
0.367610 0.711758 0.154873
0.468552 0.701145 0.197893
0.582126 0.693111 0.276101
0.686159 0.690877 0.381506
0.734746 0.695868 0.481201
0.748296 0.699472 0.549442
0.752728 0.703914 0.603229
0.750987 0.705337 0.639659
0.738095 0.704502 0.666524
0.055909 0.782433 0.240761
0.057817 0.765740 0.230357
0.063765 0.744844 0.224965
0.085097 0.715823 0.218525
0.124378 0.675145 0.199774
0.218988 0.632813 0.190168
0.307145 0.603765 0.272081
0.385015 0.593277 0.354091
0.458551 0.591904 0.424190
0.519391 0.605016 0.487903
0.585320 0.629317 0.553271
0.634116 0.649278 0.607354
0.659185 0.662471 0.649210
0.676719 0.678194 0.681155
0.690232 0.693627 0.704120
0.702781 0.706453 0.723969
0.035815 0.579157 0.190925
0.038730 0.559281 0.204021
0.104420 0.543663 0.229246
0.208934 0.524991 0.263874
0.293918 0.510088 0.305468
0.370941 0.506376 0.369673
0.450132 0.524529 0.447935
0.506483 0.551404 0.513165
0.544674 0.576032 0.564821
0.578193 0.602146 0.604857
0.611460 0.630607 0.638296
0.643745 0.659249 0.671521
0.674207 0.686063 0.700350
0.695290 0.704715 0.721113
0.708880 0.718842 0.737378
0.719734 0.730083 0.751082
0.222799 0.395911 0.285874
0.270430 0.412557 0.323790
0.344855 0.436768 0.380578
0.402095 0.468103 0.431147
0.438056 0.491620 0.466013
0.471991 0.516570 0.502490
0.516322 0.553261 0.549129
0.554429 0.586058 0.588220
0.588979 0.616057 0.621712
0.617814 0.642054 0.650046
0.645768 0.666515 0.677516
0.674303 0.690863 0.704267
0.697601 0.711035 0.727308
0.713557 0.726466 0.746308
0.725117 0.738390 0.761410
0.733561 0.747590 0.772071
0.358457 0.423550 0.402122
0.389066 0.449314 0.426933
0.431240 0.488518 0.469141
0.474920 0.526918 0.515358
0.505773 0.552522 0.546627
0.531424 0.573204 0.570292
0.562908 0.599505 0.600663
0.597278 0.629169 0.634101
0.625118 0.655202 0.663367
0.653169 0.678488 0.689540
0.678915 0.698331 0.710955
0.697563 0.714790 0.730651
0.712859 0.728516 0.747832
0.726554 0.741260 0.764593
0.736839 0.751171 0.777287
0.744032 0.757613 0.785883
0.419463 0.494595 0.466305
0.449026 0.517096 0.496723
0.488523 0.552631 0.536794
0.531540 0.584327 0.578131
0.556913 0.606176 0.600345
0.578746 0.620859 0.618470
0.602077 0.640499 0.642862
0.635570 0.665961 0.669473
0.662828 0.688098 0.698108
0.687627 0.707609 0.718269
0.701783 0.720468 0.736551
0.714397 0.732435 0.751369
0.724897 0.742507 0.765745
0.736199 0.751647 0.776978
0.743923 0.758161 0.786371
0.750511 0.763938 0.793457
0.004098 0.004098 0.004098
0.004098 0.004098 0.004098
0.004098 0.004098 0.004098
0.004098 0.004098 0.004098
0.017885 0.004049 0.005916
0.082533 0.003831 0.018988
0.166614 0.003539 0.035595
0.274341 0.003111 0.051324
0.378723 0.002599 0.055786
0.471710 0.008280 0.061479
0.546007 0.012416 0.069880
0.603821 0.015337 0.078539
0.648851 0.017888 0.085741
0.687740 0.020572 0.091642
0.718146 0.023146 0.096250
0.740845 0.025594 0.092942
0.004098 0.004098 0.004098
0.004098 0.004098 0.004098
0.004098 0.004098 0.004098
0.004098 0.004098 0.004098
0.010061 0.004073 0.004491
0.070206 0.003821 0.011254
0.159332 0.003516 0.029161
0.270062 0.003083 0.045951
0.377819 0.002662 0.050207
0.477917 0.008769 0.057706
0.559553 0.013073 0.067314
0.624708 0.016515 0.077671
0.678551 0.020150 0.084902
0.725553 0.024372 0.089281
0.760793 0.028340 0.090644
0.775512 0.030291 0.092735
0.004098 0.004098 0.004098
0.004098 0.004098 0.004098
0.004098 0.004098 0.004098
0.004098 0.004098 0.004098
0.012388 0.004090 0.004286
0.066661 0.003806 0.006936
0.162516 0.003432 0.021822
0.288856 0.002931 0.040041
0.409133 0.005321 0.044928
0.518688 0.011039 0.055354
0.608644 0.015839 0.067910
0.683263 0.021376 0.075292
0.744086 0.027664 0.076837
0.793564 0.034346 0.074033
0.830825 0.040652 0.071230
0.839572 0.042183 0.084068
0.004098 0.004098 0.004098
0.004098 0.004098 0.004098
0.004098 0.004098 0.004098
0.004098 0.004098 0.004098
0.055713 0.017440 0.005243
0.139341 0.008924 0.007082
0.254451 0.005500 0.009713
0.400530 0.005391 0.020029
0.536568 0.020158 0.026857
0.651182 0.048140 0.036665
0.747936 0.079186 0.046988
0.824027 0.105271 0.057696
0.880683 0.123654 0.069012
0.912862 0.122103 0.082675
0.928907 0.111507 0.094777
0.934919 0.096660 0.100604
0.005051 0.050368 0.011693
0.004427 0.055764 0.006273
0.004395 0.058286 0.005625
0.004472 0.059926 0.006910
0.060754 0.068062 0.002841
0.231417 0.112098 0.008535
0.413789 0.126708 0.015828
0.590542 0.128439 0.029151
0.722696 0.173133 0.039801
0.826463 0.207658 0.057405
0.894720 0.223729 0.075943
0.930748 0.226847 0.084430
0.950387 0.217195 0.096288
0.964703 0.206002 0.109788
0.973165 0.192758 0.122976
0.976468 0.177538 0.131818
0.006995 0.149176 0.034665
0.005202 0.154645 0.018504
0.005017 0.156294 0.015251
0.005093 0.160976 0.016638
0.004838 0.164558 0.009736
0.188860 0.191840 0.001884
0.438506 0.285174 0.015293
0.639278 0.341764 0.031261
0.800328 0.370027 0.046502
0.901664 0.378649 0.062950
0.930860 0.368249 0.107815
0.951432 0.353085 0.133576
0.966411 0.339416 0.157498
0.977078 0.326819 0.180991
0.981879 0.313315 0.199596
0.984191 0.299846 0.210300
0.010992 0.278577 0.074024
0.007786 0.288489 0.052866
0.006446 0.290459 0.038679
0.006216 0.293512 0.035449
0.006099 0.300557 0.033602
0.108279 0.302789 0.022247
0.366652 0.358417 0.007896
0.617389 0.459792 0.037955
0.784374 0.512209 0.067595
0.891776 0.526378 0.101343
0.934049 0.505898 0.140362
0.956289 0.489568 0.173308
0.969406 0.474730 0.208747
0.977024 0.461348 0.240428
0.977872 0.449315 0.256293
0.978389 0.438649 0.267864
0.012137 0.430440 0.123791
0.012270 0.443845 0.126151
0.010658 0.449818 0.117333
0.013501 0.447082 0.108996
0.014883 0.454141 0.069035
0.130285 0.451496 0.028700
0.241200 0.484939 0.034727
0.530342 0.521079 0.043863
0.738564 0.592023 0.087518
0.849521 0.617714 0.133434
0.909450 0.605822 0.171253
0.944902 0.596463 0.217586
0.961490 0.585344 0.266836
0.970406 0.578392 0.310246
0.972079 0.570592 0.332821
0.973235 0.564093 0.350775
0.022167 0.585147 0.178313
0.021560 0.603453 0.175790
0.029368 0.616595 0.173871
0.033709 0.623229 0.160415
0.034795 0.615880 0.135301
0.154417 0.608599 0.060255
0.248000 0.621273 0.080717
0.398797 0.647622 0.062349
0.652733 0.646742 0.092365
0.805148 0.679671 0.164005
0.875124 0.679118 0.217018
0.911810 0.669794 0.266361
0.935372 0.664878 0.318816
0.945026 0.657043 0.368267
0.947484 0.654094 0.404516
0.949019 0.653321 0.435596
0.045104 0.725636 0.226214
0.048591 0.739653 0.223765
0.049783 0.753468 0.213550
0.057774 0.754595 0.200293
0.071624 0.744193 0.180548
0.186190 0.728691 0.099924
0.282430 0.731870 0.119601
0.372958 0.740276 0.112498
0.525516 0.732192 0.118812
0.715586 0.712841 0.193939
0.810214 0.716905 0.296216
0.846482 0.713196 0.371577
0.864200 0.708190 0.433725
0.871206 0.704350 0.488416
0.874173 0.704551 0.537543
0.861922 0.706662 0.578079
0.058375 0.809281 0.260189
0.061910 0.808125 0.251752
0.069705 0.805840 0.243709
0.081317 0.797580 0.233254
0.103756 0.779384 0.211390
0.178725 0.751514 0.133183
0.288723 0.727522 0.165916
0.359419 0.713179 0.186750
0.465212 0.703271 0.235236
0.579109 0.697540 0.314087
0.693412 0.695058 0.419383
0.740660 0.703771 0.507783
0.755345 0.708030 0.570907
0.760596 0.712225 0.619903
0.757991 0.713538 0.649762
0.746552 0.712584 0.676830
0.057150 0.788905 0.259180
0.059337 0.773542 0.251026
0.065062 0.755412 0.243665
0.083558 0.730373 0.241533
0.133873 0.699020 0.238502
0.202951 0.660153 0.225698
0.309009 0.628592 0.288615
0.393460 0.614550 0.376172
0.466937 0.613827 0.448059
0.530853 0.622242 0.508572
0.600215 0.646489 0.571849
0.649748 0.663593 0.621134
0.674855 0.675925 0.661999
0.687923 0.689020 0.691644
0.698638 0.701731 0.712569
0.704641 0.713143 0.730053
0.037784 0.623556 0.222346
0.037913 0.602058 0.231393
0.078686 0.582546 0.254664
0.186745 0.564255 0.289244
0.299527 0.552617 0.334027
0.380886 0.544249 0.387198
0.457760 0.551612 0.457081
0.520108 0.572624 0.525986
0.558735 0.593219 0.580282
0.593283 0.617513 0.621765
0.623185 0.643581 0.653301
0.654931 0.670771 0.684825
0.683356 0.694739 0.710800
0.701024 0.711611 0.729790
0.713282 0.724165 0.744407
0.723501 0.734941 0.757753
0.222789 0.440588 0.317439
0.281265 0.453738 0.357110
0.350466 0.462635 0.399013
0.414691 0.491590 0.452974
0.462453 0.519717 0.500594
0.497302 0.542769 0.534898
0.532296 0.568240 0.569465
0.568808 0.599388 0.605441
0.602866 0.628876 0.637635
0.629610 0.654288 0.665557
0.659104 0.678358 0.692001
0.684150 0.699667 0.714996
0.703954 0.717656 0.736258
0.718955 0.731866 0.753929
0.729300 0.742880 0.767658
0.737587 0.751137 0.777640
0.389001 0.454051 0.435674
0.421277 0.482140 0.466312
0.451140 0.507481 0.496606
0.491856 0.542908 0.538675
0.530270 0.574253 0.575963
0.554638 0.593316 0.596848
0.579634 0.614356 0.620036
0.608418 0.640366 0.648527
0.638381 0.665868 0.677090
0.666112 0.689239 0.702724
0.688564 0.707051 0.722450
0.704810 0.721557 0.739930
0.718493 0.734168 0.755622
0.730701 0.745704 0.770672
0.740217 0.754405 0.781770
0.746932 0.760303 0.789424
0.450475 0.521869 0.506150
0.480549 0.548166 0.535372
0.510642 0.569720 0.562810
0.543843 0.595755 0.592783
0.577756 0.623179 0.626325
0.598547 0.639680 0.644675
0.614975 0.657191 0.661912
0.643154 0.675426 0.685905
0.672525 0.698333 0.710281
0.693631 0.714718 0.731077
0.708484 0.727260 0.746792
0.720572 0.738144 0.759926
0.730206 0.747386 0.772008
0.739827 0.754671 0.782070
0.746912 0.760852 0.789951
0.751346 0.765361 0.796107
0.004098 0.004098 0.004098
0.004098 0.004098 0.004098
0.004098 0.004098 0.004098
0.004098 0.004098 0.004098
0.016597 0.004069 0.006868
0.079420 0.003898 0.023543
0.163991 0.003629 0.042838
0.269154 0.003247 0.062137
0.377127 0.002768 0.073043
0.471545 0.008206 0.077095
0.542913 0.012404 0.084040
0.598634 0.015201 0.090666
0.643928 0.017763 0.096782
0.683266 0.020492 0.102315
0.713789 0.023090 0.106678
0.733818 0.025125 0.107069
0.004098 0.004098 0.004098
0.004098 0.004098 0.004098
0.004098 0.004098 0.004098
0.004098 0.004098 0.004098
0.015517 0.004065 0.006073
0.078079 0.003852 0.018618
0.163189 0.003591 0.038814
0.270011 0.003192 0.057201
0.377628 0.002704 0.066650
0.476392 0.008735 0.072534
0.554572 0.012980 0.082454
0.617858 0.016307 0.092496
0.670508 0.019803 0.101132
0.715410 0.023689 0.108449
0.749742 0.027403 0.113519
0.766974 0.029644 0.115568
0.004098 0.004098 0.004098
0.004098 0.004098 0.004098
0.004098 0.004098 0.004098
0.004098 0.004098 0.004098
0.014163 0.004066 0.005599
0.069294 0.003833 0.011949
0.158675 0.003522 0.029514
0.276408 0.003100 0.051338
0.395901 0.004399 0.062473
0.506361 0.010605 0.073534
0.595089 0.015224 0.088905
0.669400 0.020398 0.101491
0.729264 0.026184 0.111467
0.779051 0.032605 0.119386
0.817618 0.038875 0.128234
0.829248 0.040970 0.138563
0.004098 0.004098 0.004098
0.004098 0.004098 0.004098
0.004098 0.004098 0.004098
0.004098 0.004098 0.004098
0.036490 0.006401 0.004820
0.090490 0.003713 0.010677
0.186052 0.003293 0.019069
0.334882 0.002674 0.037109
0.480752 0.009437 0.062988
0.604119 0.017529 0.081257
0.710810 0.028610 0.092643
0.796476 0.042115 0.097113
0.862667 0.056017 0.104041
0.903007 0.068095 0.131526
0.920436 0.076332 0.158280
0.931172 0.079901 0.178031
0.005605 0.040812 0.014759
0.005455 0.044593 0.013273
0.004994 0.046109 0.010909
0.005153 0.046407 0.011871
0.042994 0.055625 0.003030
0.189432 0.083403 0.007900
0.335974 0.069738 0.011103
0.481453 0.084373 0.025236
0.644003 0.098572 0.043191
0.774457 0.123534 0.064196
0.866059 0.146833 0.085298
0.913346 0.146043 0.106693
0.937063 0.135808 0.120334
0.952804 0.113649 0.132947
0.964252 0.117206 0.173921
0.970074 0.121114 0.204806
0.008546 0.134231 0.042831
0.007352 0.139719 0.035806
0.005858 0.141322 0.025418
0.005228 0.138818 0.018590
0.005017 0.140146 0.015476
0.160060 0.166939 0.001773
0.392512 0.245624 0.012738
0.601061 0.291640 0.032365
0.775332 0.313554 0.058436
0.878324 0.307105 0.105354
0.910797 0.290047 0.150225
0.938610 0.284496 0.168378
0.956359 0.267807 0.187402
0.969685 0.252963 0.208960
0.977134 0.239386 0.229016
0.979247 0.224315 0.242989
0.012506 0.259005 0.082322
0.011367 0.267139 0.074794
0.009619 0.273412 0.065082
0.006805 0.274454 0.042439
0.006675 0.276115 0.041048
0.089782 0.271304 0.017670
0.317697 0.321164 0.008344
0.581442 0.424598 0.043291
0.760127 0.479382 0.087220
0.877498 0.484207 0.139276
0.914054 0.457304 0.187493
0.940956 0.439417 0.222699
0.955371 0.424129 0.251629
0.965560 0.412492 0.279924
0.970362 0.401840 0.300970
0.971943 0.390521 0.316196
0.012903 0.406659 0.129556
0.012697 0.416500 0.126307
0.015618 0.423117 0.118734
0.014947 0.428384 0.115469
0.015139 0.431288 0.104793
0.042547 0.423757 0.024763
0.204639 0.450644 0.042519
0.481479 0.485017 0.057917
