app/public/assets/luts/retro-matte.cube
TITLE "Generated by Resolve"
LUT_3D_SIZE 9
0.0658427 0.0484169 0.0458076
0.185992 0.0303349 0.0278019
0.284596 0.022034 0.0194553
0.389212 0.0153658 0.0125429
0.493019 0.011017 0.00787366
0.604593 0.00923171 0.00601205
0.713573 0.0112306 0.00833143
0.811963 0.0168917 0.014725
0.905241 0.0248569 0.0235904
0.0692149 0.124849 0.0520485
0.196872 0.110719 0.0390021
0.297749 0.104997 0.033402
0.404593 0.100908 0.0293126
0.511681 0.0990463 0.0272068
0.627543 0.0999924 0.0283055
0.739803 0.104952 0.0339361
0.841459 0.113588 0.0436561
0.93785 0.124376 0.0556954
0.0485847 0.224277 0.056611
0.19292 0.209522 0.0372015
0.298375 0.206088 0.0352331
0.407523 0.205158 0.0346532
0.517754 0.20618 0.0357977
0.639048 0.209506 0.0394141
0.753979 0.216907 0.0477607
0.857771 0.227497 0.059617
0.955688 0.239689 0.0732128
0.0182956 0.338766 0.0677043
0.170809 0.326848 0.0339208
0.290211 0.322988 0.030457
0.40325 0.323735 0.032929
0.518257 0.32575 0.0350805
0.640436 0.330404 0.0403296
0.756054 0.338399 0.0493629
0.860121 0.349157 0.0614786
0.958297 0.361532 0.0753338
0 0.462806 0.0871595
0.145861 0.453452 0.0404517
0.274678 0.449195 0.0261692
0.401114 0.446921 0.0259709
0.515251 0.449332 0.0298314
0.636408 0.454658 0.0358282
0.752514 0.463127 0.0453346
0.85713 0.474388 0.0579995
0.95555 0.487007 0.0720989
0 0.590127 0.110201
0.118135 0.582498 0.0534676
0.251041 0.578714 0.0272526
0.386069 0.575326 0.0197604
0.508049 0.576028 0.0234836
0.630915 0.580987 0.0299077
0.746792 0.589258 0.0391699
0.850813 0.6 0.0512398
0.948318 0.611795 0.0643626
0 0.715419 0.138521
0.0955673 0.709453 0.0750439
0.229145 0.706584 0.0388495
0.368688 0.702495 0.0216373
0.497276 0.700999 0.0202029
0.626368 0.703136 0.0255589
0.741512 0.710063 0.0335699
0.843915 0.719524 0.0439765
0.939712 0.729915 0.0553292
0 0.838224 0.172503
0.078645 0.832715 0.102876
0.211078 0.829862 0.0574502
0.35201 0.824796 0.0299535
0.484321 0.821088 0.0208438
0.619043 0.820142 0.0220951
0.736904 0.824308 0.0288396
0.837781 0.832349 0.0375677
0.932021 0.841505 0.0473487
0 0.956603 0.202655
0.0603189 0.950607 0.127321
0.190646 0.947295 0.074464
0.331258 0.941329 0.0373388
0.465599 0.935958 0.0200656
0.604685 0.932677 0.0158236
0.726543 0.934432 0.0205539
0.829419 0.940887 0.0289464
0.92314 0.949615 0.0381781
0.0664225 0.0494392 0.102312
0.188586 0.0334325 0.0864576
0.287495 0.025452 0.0784772
0.392325 0.0190433 0.0719615
0.496193 0.0149844 0.0675669
0.608408 0.0133669 0.0657206
0.717708 0.0156405 0.0683604
0.816419 0.021622 0.0750896
0.910033 0.0298619 0.0842908
0.0685588 0.128206 0.126726
0.200275 0.114702 0.0987106
0.30135 0.109239 0.0935988
0.408408 0.105455 0.0900893
0.513466 0.104463 0.089601
0.632456 0.105135 0.0891432
0.745037 0.110384 0.0951095
0.846998 0.119295 0.105119
0.943648 0.130312 0.117433
0.0499275 0.225895 0.155093
0.194842 0.215076 0.0991836
0.302785 0.211353 0.0970626
0.412161 0.210727 0.0971695
0.519249 0.212848 0.100191
0.644404 0.215656 0.101503
0.760006 0.223072 0.109728
0.86389 0.233768 0.121691
0.961852 0.245991 0.135332
0.0242313 0.33901 0.17995
0.168261 0.333776 0.107958
0.293904 0.329397 0.0940566
0.408362 0.329915 0.0968795
0.516121 0.333822 0.101854
0.644114 0.337285 0.103685
0.762203 0.344656 0.111437
0.866331 0.355489 0.123629
0.964584 0.367941 0.13756
0.000823987 0.462043 0.20618
0.141573 0.460075 0.127825
0.270375 0.457603 0.0959793
0.398138 0.455253 0.0927901
0.51397 0.45742 0.0955825
0.641062 0.461509 0.0988327
0.758862 0.469596 0.107622
0.863462 0.480873 0.120287
0.961852 0.493446 0.13434
0 0.588296 0.233371
0.117433 0.587411 0.148867
0.248768 0.586343 0.101274
0.387228 0.58294 0.0843519
0.512413 0.582879 0.0862745
0.637201 0.587381 0.0921187
0.752972 0.595575 0.101289
0.85687 0.606226 0.113237
0.954192 0.617884 0.126177
0 0.712871 0.264775
0.0969406 0.7131 0.177478
0.226566 0.713542 0.119783
0.368795 0.709987 0.088838
0.501015 0.707729 0.0826886
0.632074 0.709209 0.0872969
0.747173 0.715953 0.09514
0.849409 0.725277 0.105379
0.945022 0.735546 0.116564
0 0.834806 0.300725
0.0817121 0.834989 0.210132
0.208484 0.835721 0.144091
0.350103 0.831861 0.100908
0.485695 0.827741 0.0843519
0.623301 0.826001 0.0833295
0.741939 0.82974 0.0898146
0.842725 0.837659 0.0984054
0.936858 0.846738 0.10808
0 0.952163 0.332708
0.0646525 0.951476 0.238621
0.188388 0.951904 0.165667
0.328054 0.947723 0.112154
0.464912 0.942412 0.0854963
0.607202 0.938491 0.0772564
0.7308 0.939742 0.081178
0.834134 0.946044 0.0895552
0.927855 0.954787 0.0988022
0.123186 0.0339818 0.181415
0.190066 0.0339971 0.177279
0.288045 0.0265507 0.170779
0.392996 0.0203708 0.164645
0.496788 0.0166171 0.160739
0.60972 0.0151675 0.158602
0.719326 0.0177462 0.161563
0.818402 0.0240177 0.168643
0.912337 0.032578 0.178164
0.176989 0.0966201 0.229404
0.205371 0.115373 0.189532
0.302556 0.111162 0.187198
0.409796 0.107683 0.184298
0.514961 0.107012 0.184466
0.634455 0.108034 0.183505
0.747784 0.113497 0.189441
0.85005 0.122667 0.199802
0.946914 0.133883 0.212406
0.152834 0.190356 0.32604
0.209018 0.210086 0.232898
0.304814 0.214267 0.192386
0.414359 0.213931 0.193179
0.521523 0.216312 0.196902
0.642817 0.22034 0.200244
0.763485 0.226841 0.204898
0.86746 0.237598 0.217029
0.965423 0.249851 0.230732
0.0987564 0.310765 0.375402
0.1776 0.329381 0.262043
0.292454 0.333974 0.1935
0.410986 0.333654 0.194324
0.518639 0.337636 0.199802
0.637125 0.343404 0.206653
0.765103 0.348623 0.207111
0.869978 0.359426 0.219089
0.968292 0.371923 0.233143
0.0587472 0.439353 0.402609
0.152392 0.454673 0.291966
0.264546 0.462135 0.211017
0.399145 0.459464 0.191363
0.510506 0.462715 0.197375
0.632227 0.468299 0.202518
0.759548 0.474311 0.204883
0.867185 0.484871 0.215808
0.965515 0.497414 0.229862
0.0258488 0.568597 0.42742
0.131655 0.581003 0.314641
0.241398 0.590097 0.230365
0.377417 0.589715 0.190616
0.504479 0.589426 0.188876
0.631769 0.593393 0.192782
0.754513 0.599893 0.197635
0.860288 0.609964 0.208408
0.957427 0.621485 0.221241
0.00242618 0.694865 0.457328
0.113054 0.705882 0.346014
0.22443 0.714992 0.255528
0.363287 0.715129 0.196857
0.498833 0.712718 0.180453
0.633433 0.713191 0.182986
0.750179 0.719371 0.189853
0.852247 0.728542 0.199939
0.947662 0.738659 0.210971
0 0.817426 0.492042
0.0990158 0.82678 0.380438
0.20827 0.835401 0.286137
0.343969 0.835889 0.215396
0.48249 0.832197 0.18381
0.624277 0.829511 0.17792
0.74432 0.8327 0.183932
0.845029 0.840497 0.192432
0.939071 0.8495 0.202029
0 0.934997 0.522454
0.082536 0.942351 0.409628
0.189761 0.949996 0.311986
0.321752 0.950561 0.232547
0.459556 0.946563 0.18883
0.605936 0.942107 0.172717
0.732189 0.942672 0.175021
0.836255 0.948745 0.183383
0.930007 0.957504 0.192645
0.209674 0.007187 0.284871
0.230091 0.0221103 0.275441
0.289601 0.0251621 0.281804
0.39173 0.0198367 0.279255
0.496498 0.0162051 0.27509
0.609003 0.0151217 0.274098
0.718944 0.0180056 0.277455
0.818341 0.0245823 0.284688
0.912612 0.0334478 0.29424
0.269383 0.0696574 0.330327
0.281178 0.0936446 0.290944
0.306981 0.110063 0.298268
0.409262 0.108064 0.300053
0.514549 0.107698 0.301259
0.634226 0.109117 0.300008
0.748501 0.114748 0.30544
0.851026 0.124178 0.315602
0.948104 0.135561 0.327749
0.279911 0.154681 0.424277
0.328679 0.176226 0.338949
0.322133 0.210788 0.302892
0.414633 0.215274 0.31017
0.521813 0.217884 0.314611
0.638682 0.223041 0.321798
0.764324 0.228809 0.320745
0.868894 0.239521 0.331868
0.966857 0.251759 0.344854
0.24509 0.265095 0.52958
0.304051 0.286732 0.447288
0.33402 0.317906 0.366964
0.411643 0.33547 0.312474
0.519158 0.339498 0.318425
0.636164 0.345541 0.326497
0.760555 0.351827 0.327077
0.871519 0.36144 0.333761
0.969894 0.373999 0.347143
0.194125 0.393149 0.600671
0.250919 0.417044 0.513359
0.289281 0.448844 0.408011
0.394736 0.462425 0.314427
0.511055 0.464652 0.316945
0.627771 0.471397 0.325597
0.748348 0.479133 0.330083
0.868025 0.487098 0.331044
0.967041 0.499428 0.343847
0.141573 0.526207 0.646922
0.20853 0.549493 0.5411
0.260945 0.578027 0.432776
0.364904 0.593027 0.335058
0.496849 0.593225 0.313603
0.617243 0.598642 0.322026
0.740688 0.605112 0.323644
0.857908 0.612558 0.325322
0.95848 0.623117 0.33518
0.102174 0.65658 0.683619
0.177523 0.678187 0.570291
0.246143 0.702464 0.45417
0.35288 0.716472 0.350881
0.484154 0.717739 0.308644
0.620676 0.7178 0.3075
0.740078 0.723262 0.311589
0.850523 0.730388 0.315602
0.948119 0.739818 0.324758
0.074342 0.7823 0.717754
0.15552 0.801221 0.600626
0.229831 0.822339 0.48336
0.339864 0.834287 0.372992
0.473869 0.834867 0.310704
0.619471 0.831907 0.294301
0.742596 0.834134 0.298924
0.845151 0.841398 0.306127
0.939116 0.850324 0.315541
0.0479591 0.902113 0.745876
0.133288 0.918135 0.626047
0.21091 0.936446 0.508049
0.319554 0.947173 0.395392
0.450462 0.948165 0.32195
0.600595 0.944152 0.289769
0.730968 0.943816 0.288655
0.83624 0.949538 0.296925
0.930037 0.958312 0.306188
0.288975 0 0.39028
0.296757 0.000854505 0.375128
0.316716 0.016022 0.381277
0.392386 0.017792 0.389654
0.495018 0.0148775 0.388434
0.607309 0.0141451 0.388357
0.717601 0.017319 0.392126
0.817319 0.0242008 0.399496
0.911925 0.0333562 0.409094
0.350317 0.0443275 0.436271
0.361242 0.0688945 0.396963
0.351125 0.0970016 0.398306
0.411048 0.106783 0.412284
0.513176 0.107424 0.417258
0.634363 0.108995 0.414054
0.748257 0.115053 0.42031
0.851026 0.124681 0.430365
0.948272 0.136248 0.442298
0.377157 0.127153 0.517143
0.414176 0.151553 0.441932
0.399481 0.188632 0.408637
0.419669 0.214313 0.422507
0.521141 0.218433 0.431678
0.638437 0.223651 0.438911
0.763897 0.229755 0.436118
0.869261 0.240375 0.446067
0.967208 0.252613 0.45864
0.364065 0.232136 0.625544
0.419654 0.254627 0.546288
0.442924 0.287877 0.466835
0.43154 0.330816 0.423896
0.518624 0.340291 0.436408
0.635416 0.346303 0.444877
0.753811 0.354055 0.44918
0.871382 0.362539 0.448478
0.970428 0.375021 0.46096
0.32845 0.352941 0.728359
0.387137 0.375235 0.651164
0.415045 0.406912 0.577096
0.440635 0.443778 0.48925
0.510582 0.465522 0.435859
0.627176 0.472282 0.444892
0.742046 0.481315 0.452995
0.861418 0.489586 0.451041
0.967468 0.500374 0.457603
0.27808 0.482048 0.808789
0.338323 0.505486 0.721508
0.364019 0.539178 0.640772
0.392538 0.577676 0.532082
0.491386 0.595056 0.437308
0.61651 0.599359 0.44184
0.725734 0.608835 0.453223
0.842924 0.616419 0.451362
0.957534 0.623835 0.449424
0.231052 0.61236 0.868559
0.29218 0.636378 0.772229
0.328023 0.668864 0.669963
0.37261 0.702831 0.550042
0.466773 0.720317 0.454154
0.604883 0.721294 0.436805
0.720195 0.727581 0.442481
0.832212 0.734447 0.442542
0.943313 0.740795 0.441001
0.19266 0.739437 0.91545
0.255863 0.762234 0.81062
0.298222 0.792157 0.698131
0.361257 0.820096 0.565896
0.461128 0.834867 0.461326
0.602213 0.835401 0.420722
0.725719 0.837491 0.424323
0.831449 0.844053 0.428199
0.935378 0.850706 0.430472
0.155749 0.860929 0.950652
0.221881 0.881605 0.839094
0.269841 0.908583 0.720699
0.340078 0.932723 0.587198
0.445106 0.945205 0.475257
0.591333 0.945373 0.412238
0.725048 0.945205 0.404196
0.832929 0.950271 0.411505
0.929 0.958572 0.419364
0.364446 0 0.499031
0.3691 0 0.479515
0.366567 0 0.482094
0.410086 0.0110323 0.493278
0.494469 0.0128176 0.502892
0.605188 0.0126802 0.504982
0.715816 0.0161746 0.509056
0.815869 0.0233616 0.516594
0.910811 0.0328069 0.526268
0.426841 0.0196536 0.544747
0.438254 0.0445258 0.504768
0.417487 0.0767224 0.501106
0.438025 0.0987716 0.514
0.518227 0.105638 0.526329
0.633707 0.108492 0.530663
0.747524 0.11487 0.537377
0.850523 0.124712 0.547189
0.947951 0.136416 0.558679
0.462318 0.102327 0.61529
0.493645 0.127962 0.548363
0.476631 0.16556 0.520211
0.461326 0.202762 0.527764
0.522805 0.217868 0.548531
0.643015 0.222889 0.551324
0.764553 0.229862 0.551705
0.869062 0.240681 0.561898
0.96698 0.252888 0.5738
0.465736 0.204089 0.719219
0.516945 0.228336 0.637644
0.526482 0.264271 0.572549
0.506111 0.309468 0.534554
0.522728 0.3393 0.552865
0.634104 0.346487 0.565438
0.75378 0.354208 0.56733
0.870451 0.363134 0.565118
0.970428 0.375479 0.576059
0.44303 0.320592 0.830839
0.502464 0.343267 0.747662
0.526116 0.375677 0.678798
0.544244 0.414664 0.592859
0.52845 0.460777 0.551186
0.626032 0.472602 0.566354
0.736171 0.482521 0.5785
0.852903 0.491554 0.575586
0.966567 0.500847 0.573312
0.404517 0.444358 0.931182
0.46598 0.467002 0.848295
0.495201 0.498878 0.77528
0.513329 0.536858 0.701671
0.533867 0.576669 0.614618
0.615198 0.599435 0.563821
0.725994 0.608454 0.573404
0.834379 0.617853 0.576501
0.948653 0.625452 0.571389
0.361837 0.571084 1
0.422187 0.594125 0.927565
0.453498 0.626062 0.842695
0.472602 0.664286 0.753948
0.489158 0.70518 0.652659
0.599466 0.721736 0.560723
0.712062 0.728313 0.569253
0.811978 0.737713 0.576837
0.924681 0.743877 0.570367
0.32105 0.696498 1
0.379919 0.719066 0.986038
0.410773 0.750423 0.891356
0.440742 0.78616 0.777356
0.477226 0.820966 0.658763
0.581872 0.837751 0.562066
0.706462 0.840177 0.55758
0.807111 0.847898 0.563577
0.913344 0.854276 0.561425
0.278538 0.817533 1
0.337041 0.839017 1
0.369345 0.869017 0.924102
0.406378 0.902083 0.798962
0.464057 0.930678 0.666285
0.575143 0.946181 0.558297
0.705959 0.948074 0.533364
0.812848 0.953368 0.541436
0.912825 0.960998 0.545266
0.430335 0 0.598779
0.434287 0 0.576471
0.420829 0 0.57612
0.440925 0.000488289 0.586313
0.504189 0.00849927 0.600214
0.603738 0.0112612 0.610483
0.71426 0.0151369 0.615381
0.814649 0.0226291 0.623056
0.909895 0.0323644 0.632776
0.493614 0 0.645228
0.505241 0.0229953 0.605402
0.482353 0.0568093 0.596185
0.480827 0.0862135 0.605264
0.532738 0.101396 0.622278
0.633371 0.108064 0.636606
0.747005 0.114763 0.644038
0.850202 0.124788 0.653986
0.947768 0.136629 0.665629
0.533974 0.0809033 0.710811
0.562631 0.107393 0.647471
0.548196 0.145144 0.614313
0.522881 0.186236 0.615808
0.550546 0.211795 0.634745
0.649073 0.22211 0.650614
0.764904 0.230091 0.658274
0.869001 0.24097 0.669017
0.966888 0.253178 0.681025
0.548089 0.181338 0.807614
0.594842 0.20705 0.726894
0.601877 0.243854 0.662272
0.577569 0.289372 0.632975
0.55874 0.329931 0.649058
0.639094 0.345724 0.668696
0.759747 0.353399 0.669261
0.87155 0.363363 0.671504
0.970535 0.375921 0.683497
0.535576 0.295201 0.919066
0.593256 0.318547 0.834195
0.618036 0.351781 0.755703
0.621134 0.393576 0.686595
0.593347 0.442283 0.654795
0.626123 0.472633 0.677562
0.73695 0.482429 0.688899
0.85304 0.491691 0.684749
0.965438 0.501335 0.681666
0.506462 0.415595 1
0.567483 0.438468 0.943557
0.599344 0.470283 0.863905
0.618097 0.508186 0.788952
0.62707 0.550164 0.712993
0.618021 0.598474 0.674128
0.72282 0.608652 0.687892
0.823255 0.619532 0.697398
0.938308 0.627115 0.688273
0.471717 0.538613 1
0.532982 0.561044 1
0.565805 0.591989 0.958114
0.589532 0.62797 0.876387
0.598154 0.667826 0.806561
0.613153 0.712779 0.711467
0.710277 0.727611 0.681758
0.813031 0.736324 0.685878
0.91429 0.744869 0.687251
0.435187 0.660807 1
0.494713 0.682399 1
0.525414 0.712612 1
0.551583 0.747494 0.934096
0.563119 0.786542 0.844862
0.585122 0.829541 0.729534
0.69868 0.840238 0.674144
0.795071 0.848753 0.683696
0.889967 0.857664 0.688869
0.393561 0.779522 1
0.451164 0.800244 1
0.480217 0.829816 1
0.506096 0.86424 0.975204
0.531853 0.900557 0.85919
0.577417 0.937575 0.729488
0.685389 0.950652 0.660655
0.790997 0.956405 0.668009
0.88539 0.965484 0.674571
0.491341 0 0.695964
0.495308 0 0.671641
0.476005 0 0.668833
0.479957 0 0.677195
0.524071 0.00199893 0.691966
0.60853 0.00914015 0.707683
0.713329 0.0145724 0.71809
0.814038 0.0223697 0.726055
0.909606 0.0323796 0.736034
0.555444 0 0.743206
0.567346 0.0034638 0.703578
0.543725 0.0381933 0.69163
0.529503 0.0720684 0.697795
0.558938 0.094377 0.714412
0.640238 0.106676 0.734142
0.747082 0.115099 0.74757
0.850462 0.125292 0.757671
0.948135 0.137255 0.769421
0.599252 0.0617227 0.805753
0.625925 0.0888075 0.746197
0.611505 0.126864 0.713558
0.583413 0.169711 0.708873
0.588159 0.202655 0.724208
0.658961 0.220691 0.746777
0.765332 0.230762 0.762158
0.869398 0.241642 0.772885
0.96733 0.253864 0.784909
0.62063 0.161669 0.896513
0.663401 0.188342 0.819654
0.667475 0.225834 0.758236
0.647501 0.27097 0.72079
0.620447 0.315022 0.726299
0.663127 0.341772 0.750027
0.767224 0.352972 0.764996
0.872648 0.364065 0.77499
0.97113 0.37673 0.787533
0.617563 0.273289 1
0.671901 0.297581 0.920455
0.692821 0.332174 0.841306
0.696437 0.374517 0.766979
0.66743 0.423163 0.739788
0.657328 0.4663 0.762432
0.749447 0.480873 0.781216
0.860517 0.490959 0.782437
0.966995 0.501671 0.784466
0.595071 0.391684 1
0.654734 0.415045 1
0.685252 0.447486 0.949157
0.707683 0.485588 0.861814
0.706828 0.52961 0.793545
0.670054 0.584405 0.770275
0.723217 0.608545 0.795941
0.82797 0.618494 0.800092
0.938293 0.626993 0.793591
0.567224 0.51191 1
0.628244 0.534325 1
0.660685 0.56527 1
0.688441 0.600702 0.962753
0.700191 0.639796 0.889647
0.703212 0.686351 0.81146
0.708995 0.727169 0.791119
0.804288 0.737148 0.802243
0.90135 0.746517 0.805783
0.53611 0.631037 1
0.59617 0.65211 1
0.62771 0.68162 1
0.655543 0.715358 1
0.672343 0.751934 0.964935
0.676982 0.796033 0.88806
0.693797 0.839582 0.790753
0.793637 0.847791 0.79237
0.891432 0.856168 0.794034
0.497841 0.747021 1
0.556115 0.766995 1
0.585779 0.795651 1
0.611429 0.828962 1
0.632578 0.864775 1
0.643 0.909285 0.91107
0.676295 0.948577 0.802335
0.783368 0.95671 0.782132
0.87245 0.966995 0.79295
0.549828 0 0.7935
0.554055 0 0.767666
0.531731 0 0.762585
0.524163 0 0.769162
0.551949 0 0.78352
0.620722 0.00534066 0.801862
0.715312 0.0136416 0.818173
0.813657 0.0222477 0.82916
0.909529 0.0325475 0.839414
0.61471 0 0.841566
0.626947 0 0.802136
0.603082 0.0202487 0.788251
0.581445 0.0570077 0.791791
0.593957 0.0849165 0.806897
0.655924 0.103182 0.82855
0.750195 0.114992 0.848295
0.850858 0.125902 0.861448
0.948638 0.137942 0.873259
0.661234 0.0435645 0.902129
0.68658 0.0711376 0.845472
0.672251 0.109468 0.813214
0.642786 0.153292 0.805325
0.632761 0.191119 0.817838
0.679149 0.216541 0.840833
0.769146 0.230838 0.862882
0.869917 0.242329 0.876753
0.96791 0.254627 0.888853
0.688014 0.143374 0.987961
0.727764 0.170748 0.914656
0.729152 0.208713 0.857298
0.708614 0.253956 0.820645
0.677821 0.299809 0.819486
0.693401 0.335134 0.839918
0.773007 0.352758 0.864042
0.873365 0.364904 0.879057
0.971832 0.377554 0.8916
0.692515 0.253376 1
0.743389 0.278584 1
0.760021 0.314229 0.93341
0.760128 0.357351 0.862654
0.736767 0.405356 0.826093
0.712596 0.453925 0.837186
0.769314 0.478157 0.863783
0.8692 0.490227 0.876982
0.967987 0.502144 0.887724
0.676493 0.370062 1
0.734752 0.393896 1
0.762768 0.427054 1
0.781369 0.466438 0.9467
0.782406 0.510628 0.870985
0.747173 0.565133 0.845441
0.750851 0.603387 0.874601
0.842023 0.616007 0.889998
0.946212 0.625452 0.889738
0.654047 0.488258 1
0.714107 0.510903 1
0.745174 0.542199 1
0.771557 0.578119 1
0.789227 0.616831 0.960616
0.783993 0.665293 0.886412
0.742779 0.718334 0.880705
0.808927 0.7355 0.904356
0.906142 0.744732 0.90721
0.62797 0.604776 1
0.687861 0.625727 1
0.719188 0.655116 1
0.746685 0.688777 1
0.769055 0.724437 1
0.778073 0.767437 0.971511
0.772152 0.814832 0.901534
0.792309 0.84683 0.901076
0.880903 0.856977 0.911604
0.593896 0.71812 1
0.652628 0.737682 1
0.682933 0.765835 1
0.709606 0.798413 1
0.732631 0.833051 1
0.748196 0.874861 1
0.744991 0.921096 0.967697
0.781353 0.956008 0.890974
0.870817 0.965743 0.90132
