app/public/assets/luts/retro-matte.cube
TITLE "Generated by Resolve"
LUT_3D_SIZE 33
0.0658427 0.0484169 0.0458076
0.100557 0.0410773 0.0384222
0.13286 0.0362402 0.0336309
0.160327 0.0329747 0.0304112
0.185992 0.0303349 0.0278019
0.210727 0.0280461 0.0255436
0.235157 0.0259403 0.0234379
0.259373 0.0239414 0.0214084
0.284596 0.022034 0.0194553
0.310246 0.0201877 0.0175479
0.336172 0.0184329 0.0157321
0.362432 0.0168154 0.0140536
0.389212 0.0153658 0.0125429
0.415518 0.0141146 0.0112612
0.440986 0.0130312 0.0101472
0.466926 0.0119173 0.00885023
0.493019 0.011017 0.00787366
0.519036 0.0102846 0.00708019
0.546059 0.00972 0.00650034
0.575219 0.00935378 0.00613413
0.604593 0.00923171 0.00601205
0.633021 0.00935378 0.00616464
0.660655 0.00972 0.00662242
0.687495 0.0103456 0.00733959
0.713573 0.0112306 0.00833143
0.738933 0.0123445 0.00961318
0.763714 0.0136873 0.0111238
0.788006 0.0152132 0.0128328
0.811963 0.0168917 0.014725
0.835706 0.0187076 0.0167697
0.859312 0.0206149 0.0189059
0.882948 0.0225986 0.0211032
0.905241 0.0248569 0.0235904
0.0690013 0.0628061 0.0490425
0.10547 0.0572976 0.043534
0.138231 0.0528878 0.0391852
0.166003 0.0499428 0.0362707
0.191913 0.0475471 0.0339208
0.216861 0.0454719 0.0318608
0.241505 0.0435645 0.0299535
0.265904 0.0417487 0.0281224
0.291264 0.0399939 0.0263218
0.317082 0.0383001 0.0245975
0.34316 0.0367132 0.0229496
0.369619 0.0352331 0.0214237
0.396521 0.0339208 0.0200809
0.422934 0.0328374 0.018967
0.448646 0.0318608 0.0179141
0.474769 0.0308995 0.0167849
0.501106 0.0301213 0.0159304
0.527321 0.0295415 0.0153201
0.554574 0.0291295 0.0148775
0.584039 0.0289158 0.0146944
0.613565 0.0289616 0.0147555
0.642176 0.0292515 0.0151064
0.669993 0.0297856 0.0157321
0.697047 0.0305943 0.0166629
0.723339 0.0316625 0.0178683
0.748898 0.0329747 0.0193484
0.773877 0.0345006 0.0210727
0.798398 0.0362249 0.0230106
0.822553 0.0380865 0.0251011
0.846494 0.0401007 0.0273442
0.870314 0.0421912 0.0296941
0.894148 0.0443732 0.032105
0.916655 0.0467994 0.0348058
0.0706951 0.082063 0.0507668
0.107408 0.0767681 0.0454871
0.140368 0.0725719 0.0413367
0.168322 0.0697948 0.0386053
0.194415 0.0675822 0.0364385
0.219486 0.0656596 0.0345312
0.244282 0.0639048 0.0327916
0.268788 0.0622416 0.0311284
0.294301 0.0606241 0.0294957
0.320241 0.0590982 0.027924
0.346456 0.0576486 0.0264439
0.373053 0.0563363 0.0250706
0.40061 0.0550546 0.023621
0.42742 0.0540627 0.0225528
0.453239 0.0532387 0.0216983
0.479164 0.0525216 0.0209506
0.505516 0.0519417 0.0203098
0.531914 0.0515297 0.0198672
0.559426 0.0512856 0.0196536
0.589166 0.0512551 0.0196384
0.618891 0.0514687 0.0198978
0.647715 0.0519417 0.0204623
0.675731 0.0526894 0.0213016
0.702983 0.0536812 0.022446
0.729488 0.0549477 0.0238651
0.755276 0.0564431 0.0255741
0.780468 0.0581674 0.027512
0.805188 0.0600748 0.0296483
0.829541 0.0621347 0.0319371
0.853681 0.0643015 0.0343938
0.877699 0.0665904 0.0369268
0.901762 0.0689403 0.0395666
0.924437 0.0715648 0.0424506
0.0710002 0.102754 0.051606
0.108553 0.0974136 0.0466163
0.141665 0.0933852 0.0426184
0.169757 0.0907607 0.0400397
0.195956 0.0886854 0.0380255
0.221149 0.0869154 0.0363012
0.246082 0.0852979 0.0347143
0.27071 0.0837873 0.0332036
0.296345 0.0823377 0.0317388
0.322408 0.0809491 0.0303349
0.348745 0.0796674 0.0290227
0.375494 0.0785077 0.0278477
0.40264 0.0775311 0.0268711
0.429267 0.0767834 0.0261234
0.455589 0.0760357 0.0252537
0.482307 0.0753643 0.0244297
0.50901 0.0749218 0.0239109
0.535683 0.0746777 0.0236667
0.56347 0.0746319 0.0236362
0.593545 0.0747845 0.0238346
0.623453 0.0751965 0.0243381
0.652476 0.0758526 0.0251011
0.68072 0.0767987 0.026154
0.708186 0.0779736 0.027512
0.73489 0.0794232 0.0291295
0.760861 0.0811017 0.0310369
0.786252 0.0830091 0.0331731
0.81117 0.0850996 0.035523
0.835737 0.0873274 0.0380255
0.86009 0.0896925 0.0406653
0.884306 0.0921645 0.0434272
0.908553 0.0946822 0.0462654
0.931441 0.0974746 0.0493477
0.0692149 0.124849 0.0520485
0.108492 0.119203 0.0469825
0.142336 0.115114 0.0432593
0.170535 0.112642 0.0408484
0.196872 0.110719 0.0390021
0.222187 0.109102 0.0374304
0.247227 0.107637 0.0360113
0.271977 0.106294 0.0346838
0.297749 0.104997 0.033402
0.323934 0.103792 0.0321813
0.350423 0.102678 0.0310674
0.37731 0.101701 0.0300908
0.404593 0.100908 0.0293126
0.431357 0.100343 0.0287785
0.45716 0.0999466 0.0284123
0.48394 0.0995041 0.027863
0.511681 0.0990463 0.0272068
0.538949 0.098909 0.0270237
0.567056 0.0990463 0.0272068
0.597467 0.0994125 0.0276188
0.627543 0.0999924 0.0283055
0.656779 0.100847 0.0292821
0.685222 0.101961 0.0305638
0.712902 0.103334 0.0321202
0.739803 0.104952 0.0339361
0.765972 0.106813 0.0360571
0.791562 0.108904 0.0383917
0.816693 0.111177 0.04094
0.841459 0.113588 0.0436561
0.86598 0.116136 0.046479
0.89041 0.118761 0.0494392
0.914824 0.121447 0.05243
0.93785 0.124376 0.0556954
0.0657969 0.148089 0.0526589
0.106569 0.14226 0.046891
0.141863 0.137942 0.0432288
0.170779 0.135439 0.0410925
0.197238 0.133684 0.0394293
0.222675 0.132219 0.0380407
0.247852 0.130938 0.0368048
0.272725 0.129747 0.0356603
0.298634 0.128634 0.0345769
0.324956 0.127611 0.0335699
0.351583 0.126696 0.0326696
0.378653 0.125917 0.0319219
0.406088 0.125338 0.0313726
0.432975 0.124971 0.0310521
0.4589 0.124788 0.03093
0.485176 0.124712 0.0309148
0.513619 0.124315 0.0302434
0.541665 0.124224 0.0300298
0.57023 0.124514 0.0303655
0.600961 0.125063 0.0310063
0.631235 0.125826 0.0318914
0.660655 0.126864 0.0330663
0.689311 0.128161 0.0345464
0.717174 0.129702 0.0363012
0.744289 0.131518 0.0383459
0.770657 0.133562 0.0406348
0.796445 0.135805 0.043183
0.821729 0.138247 0.0458991
0.846677 0.14081 0.0487984
0.871366 0.143496 0.0517891
0.895918 0.146258 0.0548867
0.92047 0.149065 0.0580148
0.943648 0.152117 0.0614023
0.0610513 0.172366 0.0536049
0.103014 0.166522 0.0467536
0.139666 0.162066 0.042649
0.169894 0.159396 0.04065
0.19707 0.15761 0.0392767
0.222644 0.156329 0.0381018
0.247959 0.15523 0.0370794
0.272969 0.154253 0.0361486
0.299046 0.153338 0.0352941
0.325521 0.152514 0.0345159
0.352285 0.151797 0.0338445
0.379507 0.151232 0.0332952
0.407095 0.150835 0.0329747
0.434104 0.150683 0.0328832
0.460121 0.150698 0.0329747
0.486717 0.15079 0.0331426
0.515373 0.150561 0.0326848
0.543862 0.150607 0.0326085
0.572946 0.151034 0.0330663
0.603998 0.151736 0.0339055
0.634424 0.152697 0.0349889
0.664073 0.153903 0.0363775
0.692912 0.155383 0.038056
0.720958 0.157092 0.0399939
0.748241 0.15906 0.0422065
0.774777 0.161257 0.0446784
0.800717 0.163638 0.047364
0.826154 0.166201 0.050248
0.851225 0.168887 0.0532692
0.876051 0.171695 0.0563821
0.900725 0.174563 0.0596017
0.925368 0.177462 0.0628367
0.948638 0.180606 0.0663157
0.0552224 0.19765 0.054902
0.0980545 0.191897 0.0467842
0.135866 0.187411 0.0419165
0.167346 0.184634 0.0396582
0.195743 0.182742 0.038468
0.222095 0.18146 0.0376287
0.247578 0.18056 0.0368353
0.272725 0.179767 0.0361486
0.298939 0.179065 0.0355077
0.325551 0.178439 0.0349432
0.352468 0.17792 0.0344854
0.379843 0.177539 0.0341802
0.407568 0.177371 0.0340734
0.434699 0.177401 0.0341955
0.460807 0.177615 0.0345006
0.487877 0.177829 0.0347601
0.516747 0.177768 0.0345159
0.545571 0.177966 0.0346227
0.575128 0.178515 0.0352331
0.606455 0.1794 0.0362554
0.637064 0.180529 0.0375219
0.66688 0.181903 0.0390936
0.695857 0.183505 0.0409094
0.724086 0.185351 0.0430152
0.751507 0.187442 0.0453803
0.778164 0.189761 0.0479744
0.804227 0.192264 0.0507973
0.82977 0.194934 0.0537728
0.854948 0.197711 0.0568856
0.879866 0.20058 0.0601053
0.904616 0.20354 0.0634012
0.929351 0.206516 0.0667277
0.952667 0.209705 0.0702831
0.0485847 0.224277 0.056611
0.0920424 0.218708 0.0471962
0.13077 0.214298 0.0413672
0.163348 0.211505 0.0385595
0.19292 0.209522 0.0372015
0.220417 0.208133 0.0365606
0.246723 0.207202 0.0361181
0.272023 0.206607 0.0356451
0.298375 0.206088 0.0352331
0.325109 0.205661 0.0348821
0.352163 0.205325 0.0346532
0.37966 0.205142 0.0345464
0.407523 0.205158 0.0346532
0.434775 0.205386 0.0350042
0.46099 0.205783 0.035523
0.488731 0.206073 0.0357977
0.517754 0.20618 0.0357977
0.546807 0.206546 0.0360876
0.57673 0.207218 0.0368048
0.608301 0.208255 0.037995
0.639048 0.209506 0.0394141
0.669001 0.211002 0.0411078
0.698116 0.212741 0.043061
0.726452 0.21471 0.0452888
0.753979 0.216907 0.0477607
0.780758 0.219303 0.0504616
0.806897 0.221897 0.0533608
0.832532 0.224643 0.0564279
0.857771 0.227497 0.059617
0.88275 0.230442 0.0629129
0.907561 0.233433 0.0662547
0.932326 0.236454 0.0696117
0.955688 0.239689 0.0732128
0.0413672 0.251789 0.058732
0.0852369 0.246479 0.0480812
0.124636 0.242237 0.0411994
0.158114 0.239506 0.0376135
0.188724 0.237522 0.0358282
0.217319 0.236057 0.0350652
0.244709 0.23505 0.0348058
0.270848 0.234424 0.0346838
0.297368 0.234073 0.0345006
0.324224 0.233845 0.0343786
0.3514 0.233707 0.0343481
0.379034 0.233722 0.0344701
0.407019 0.233936 0.0347753
0.434379 0.234348 0.0353246
0.460685 0.234928 0.0360418
0.489281 0.235187 0.0362249
0.518364 0.235447 0.0364233
0.547555 0.23595 0.0368811
0.577722 0.236728 0.0377508
0.609476 0.237858 0.0390478
0.64033 0.239216 0.040589
0.67039 0.240803 0.0423896
0.699611 0.242618 0.0444495
0.728008 0.244663 0.0467536
0.755627 0.246921 0.0492866
0.782452 0.249378 0.0520485
0.808652 0.252003 0.0550088
0.834333 0.25478 0.0581369
0.859632 0.257649 0.0613718
0.884642 0.260609 0.0646983
0.909453 0.263615 0.06804
0.934249 0.266636 0.0714122
0.95761 0.269841 0.0750286
0.0337682 0.280003 0.0612192
0.0778668 0.274998 0.0494392
0.117754 0.270954 0.0415045
0.151934 0.268345 0.0370489
0.183429 0.266407 0.0346227
0.213001 0.264958 0.0335088
0.241428 0.263874 0.0331731
0.268559 0.263172 0.0332341
0.295918 0.262791 0.033402
0.322988 0.262715 0.0334936
0.350271 0.26276 0.0336767
0.377997 0.262943 0.0339666
0.406073 0.26331 0.0344701
0.433494 0.263874 0.035172
0.460456 0.264439 0.0358282
0.489525 0.264729 0.0360571
0.518593 0.265141 0.0364233
0.547829 0.265751 0.0370642
0.578103 0.266636 0.0380407
0.609979 0.267857 0.0394293
0.640909 0.269276 0.0410468
0.671046 0.270924 0.0429236
0.700313 0.272801 0.0450446
0.728786 0.274891 0.0474098
0.756436 0.27718 0.0499886
0.783307 0.279652 0.0527962
0.809552 0.282307 0.055787
0.835248 0.285084 0.0589303
0.860533 0.287968 0.06215
0.885542 0.290929 0.0654765
0.910353 0.293904 0.0688182
0.935119 0.29691 0.0721752
0.95845 0.300099 0.0757458
0.0260014 0.308995 0.0641794
0.0702068 0.30428 0.0513771
0.11043 0.300481 0.0424506
0.145159 0.298039 0.0370794
0.177356 0.296208 0.0339208
0.207782 0.294789 0.0322728
0.237125 0.293706 0.0316472
0.265217 0.292927 0.0316472
0.293523 0.292454 0.0319677
0.321401 0.292287 0.0323644
0.348852 0.292454 0.0327306
0.376638 0.292775 0.0331731
0.404776 0.293263 0.033814
0.432258 0.29395 0.0346532
0.460533 0.294316 0.0349889
0.489525 0.294728 0.0353857
0.518532 0.295262 0.035935
0.547707 0.295964 0.0366979
0.577996 0.296941 0.0377966
0.609918 0.298207 0.0392462
0.640909 0.299687 0.0409247
0.671077 0.301381 0.0428473
0.700389 0.303273 0.0449836
0.728878 0.305379 0.047364
0.756542 0.307683 0.0499733
0.783413 0.310185 0.052781
0.809659 0.312825 0.0557717
0.83534 0.315587 0.0588846
0.860609 0.318441 0.0621042
0.885573 0.32137 0.0653849
0.910384 0.324346 0.0687266
0.93518 0.327367 0.0720989
0.958541 0.330602 0.0757
0.0182956 0.338766 0.0677043
0.0625467 0.33434 0.0540169
0.102968 0.3308 0.0441596
0.138064 0.328557 0.0379034
0.170809 0.326848 0.0339208
0.201907 0.325475 0.0316014
0.232074 0.324376 0.0304875
0.26099 0.323568 0.0302129
0.290211 0.322988 0.030457
0.318944 0.322713 0.0309758
0.347143 0.322759 0.0316014
0.375082 0.323156 0.0321965
0.40325 0.323735 0.032929
0.432303 0.324132 0.0333562
0.460502 0.32459 0.0338445
0.489387 0.325109 0.0343938
0.518257 0.32575 0.0350805
0.547326 0.326543 0.0359503
0.577493 0.327581 0.0371405
0.609415 0.328893 0.0386206
0.640436 0.330404 0.0403296
0.670619 0.332097 0.0422522
0.699931 0.334005 0.0444038
0.72842 0.33611 0.0467842
0.756054 0.338399 0.0493629
0.782925 0.340871 0.0521401
0.80911 0.343496 0.0551003
0.834806 0.346273 0.0582284
0.860121 0.349157 0.0614786
0.885145 0.352148 0.0648203
0.910033 0.355169 0.0682383
0.934874 0.358251 0.0716564
0.958297 0.361532 0.0753338
0.0109407 0.369329 0.0718395
0.0550393 0.365164 0.0574197
0.0955673 0.361822 0.0466773
0.130907 0.359731 0.0395209
0.164034 0.358114 0.034699
0.195666 0.356802 0.031632
0.226459 0.355703 0.0299077
0.256138 0.354833 0.0291752
0.286122 0.354162 0.0291447
0.315694 0.35375 0.0295872
0.344686 0.353658 0.0303044
0.373938 0.353765 0.0308995
0.403403 0.354086 0.0313573
0.432364 0.354559 0.0319066
0.460426 0.355108 0.032517
0.489143 0.355718 0.0331884
0.517845 0.35642 0.0339818
0.546715 0.35729 0.0349432
0.576699 0.358404 0.0361944
0.608606 0.359731 0.0376898
0.639612 0.361227 0.0393683
0.669764 0.362905 0.0412757
0.699062 0.364782 0.0433967
0.72752 0.366873 0.0457618
0.755184 0.369177 0.0483558
0.782086 0.371679 0.0511788
0.808347 0.374365 0.0542
0.834104 0.377172 0.0573892
0.859464 0.380102 0.0607004
0.88455 0.383124 0.0640879
0.909468 0.386191 0.0675517
0.934356 0.389288 0.0710155
0.957809 0.392599 0.0747082
0.00430304 0.399985 0.0764172
0.0484932 0.396033 0.0612345
0.0890059 0.39292 0.0497139
0.124407 0.391043 0.0417639
0.157687 0.389609 0.0361486
0.189624 0.388403 0.0323186
0.22089 0.387335 0.0298924
0.251225 0.386435 0.0285801
0.282155 0.385611 0.0280461
0.312901 0.384985 0.0280919
0.343282 0.384588 0.0285191
0.373495 0.384451 0.0291295
0.403494 0.384649 0.0298009
0.43241 0.385153 0.030457
0.460304 0.385763 0.0311589
0.488823 0.386419 0.0319066
0.517281 0.387198 0.0327764
0.545922 0.388113 0.0337987
0.575708 0.389242 0.0350805
0.607569 0.390555 0.0365454
0.638575 0.392035 0.0382239
0.668757 0.393759 0.0401617
0.698116 0.395697 0.0423285
0.726635 0.397833 0.0447547
0.75436 0.400198 0.0474098
0.781308 0.402747 0.0502937
0.80763 0.405478 0.0533608
0.833417 0.408331 0.0565957
0.858808 0.411307 0.0599222
0.88394 0.414359 0.0633555
0.908904 0.417456 0.0668498
0.933791 0.420569 0.0703288
0.95729 0.423911 0.0740673
0 0.431159 0.0816663
0.0420386 0.42739 0.0657511
0.0827192 0.424445 0.0534371
0.118379 0.42269 0.0445869
0.152026 0.421332 0.0380865
0.184436 0.420157 0.0333715
0.216266 0.419089 0.0301366
0.247242 0.418128 0.0281224
0.278874 0.417212 0.0270085
0.310338 0.416449 0.026627
0.341436 0.4159 0.0268101
0.372305 0.415595 0.0273442
0.402884 0.415595 0.0280919
0.432212 0.415961 0.0289158
0.459998 0.416571 0.0296788
0.488258 0.417273 0.0304723
0.516457 0.418082 0.0314031
0.544839 0.419089 0.032517
0.574594 0.420279 0.0338445
0.606531 0.421622 0.0353704
0.637598 0.423178 0.0371252
0.667826 0.424949 0.0391089
0.69723 0.426932 0.0413367
0.725811 0.429129 0.0438087
0.753582 0.431525 0.0465095
0.78056 0.434119 0.049424
0.806912 0.436866 0.0525368
0.832731 0.439765 0.055787
0.858137 0.442756 0.059144
0.883284 0.445823 0.0625925
0.908232 0.448936 0.0660716
0.933135 0.452064 0.0695659
0.956619 0.455406 0.0732891
0 0.462806 0.0871595
0.0352941 0.45922 0.0706035
0.0760662 0.456413 0.0575265
0.11191 0.454749 0.047837
0.145861 0.453452 0.0404517
0.178622 0.452308 0.0348516
0.210925 0.451225 0.0307774
0.242435 0.450202 0.027985
0.274678 0.449195 0.0261692
0.306783 0.448295 0.0252384
0.338506 0.447578 0.0250248
0.370001 0.447089 0.0253147
0.401114 0.446921 0.0259709
0.430945 0.447105 0.0268711
0.459083 0.447608 0.0278325
0.487251 0.448386 0.0287785
0.515251 0.449332 0.0298314
0.543511 0.450416 0.0310674
0.573312 0.451667 0.0324559
0.605295 0.453056 0.0340276
0.636408 0.454658 0.0358282
0.666697 0.456474 0.0378576
0.696117 0.458488 0.0401007
0.724712 0.4607 0.0426032
0.752514 0.463127 0.0453346
0.779522 0.465736 0.0482643
0.805875 0.468498 0.0513771
0.831693 0.471397 0.0546426
0.85713 0.474388 0.0579995
0.882261 0.47747 0.0614481
0.907195 0.480568 0.0649271
0.932097 0.483696 0.0684062
0.95555 0.487007 0.0720989
0 0.494713 0.0928054
0.0284276 0.491295 0.0756695
0.0691081 0.488624 0.0619059
0.104997 0.487068 0.0514534
0.139116 0.485832 0.0432136
0.172183 0.484688 0.0367437
0.204837 0.483589 0.0317845
0.236774 0.482521 0.0281682
0.26952 0.481407 0.0255894
0.30219 0.480369 0.0240024
0.334524 0.479515 0.0233005
0.366613 0.47892 0.0233005
0.398352 0.478645 0.0238499
0.428717 0.478752 0.0247807
0.457328 0.479179 0.0259098
0.485817 0.479912 0.0270848
0.513802 0.480888 0.0282597
0.542107 0.482033 0.0295262
0.571923 0.483314 0.0309606
0.603952 0.484749 0.0325628
0.635065 0.486366 0.0343786
0.665385 0.488182 0.0364385
0.69482 0.490211 0.0387121
0.723445 0.492454 0.0412146
0.751247 0.494881 0.043946
0.778241 0.49749 0.0468757
0.804593 0.500267 0.0499886
0.830411 0.503151 0.0532387
0.855802 0.506127 0.0565652
0.880919 0.509194 0.0599832
0.905821 0.512276 0.0634318
0.930694 0.515373 0.0668803
0.954131 0.518654 0.0705425
0 0.526757 0.098558
0.0215763 0.523445 0.0808576
0.0621042 0.520882 0.0664683
0.0979019 0.519417 0.0552834
0.131991 0.518257 0.0462654
0.165133 0.517159 0.0389715
0.198016 0.516045 0.0331731
0.230304 0.514961 0.0287785
0.263539 0.513832 0.0254673
0.296757 0.512779 0.02327
0.329702 0.511879 0.0220951
0.362387 0.511193 0.0217288
0.394705 0.510826 0.0220645
0.425605 0.510842 0.0229343
0.454719 0.511177 0.0240787
0.483772 0.511772 0.0253452
0.512261 0.512642 0.0266575
0.540673 0.513771 0.027985
0.570504 0.515068 0.0294347
0.602548 0.516518 0.0310521
0.633677 0.518135 0.0328679
0.663981 0.519982 0.0349279
0.693431 0.522011 0.0372015
0.722042 0.524224 0.039704
0.749813 0.52665 0.0424048
0.776791 0.529244 0.0453193
0.803143 0.531991 0.0484169
0.828916 0.534859 0.0516213
0.854276 0.53782 0.0549172
0.879347 0.540825 0.0582895
0.904219 0.543877 0.0617075
0.92903 0.546914 0.065095
0.952392 0.550164 0.0686809
0 0.558679 0.104356
0.0147707 0.555444 0.0861372
0.0551308 0.552972 0.0711223
0.0908064 0.551598 0.0592966
0.12488 0.55053 0.0496071
0.158083 0.549538 0.0416114
0.191119 0.548547 0.0351263
0.223667 0.547524 0.030045
0.257221 0.546441 0.0260471
0.290883 0.545373 0.023209
0.324315 0.544442 0.0214847
0.357549 0.543694 0.0206912
0.390463 0.543236 0.0206912
0.421973 0.54313 0.0213474
0.451652 0.543328 0.022385
0.481285 0.54377 0.0236515
0.510338 0.544488 0.0250248
0.539193 0.54548 0.0264591
0.5691 0.546761 0.027924
0.601129 0.548211 0.0295415
0.632258 0.549828 0.0313573
0.662562 0.551644 0.0333867
0.691966 0.553658 0.0356298
0.720562 0.555856 0.038117
0.748318 0.558251 0.0408026
0.77525 0.560815 0.0436561
0.801541 0.563516 0.0467079
0.827268 0.566339 0.0498665
0.852583 0.569223 0.0531167
0.877607 0.572183 0.0564279
0.902403 0.575174 0.0597543
0.927138 0.578149 0.0630808
0.950423 0.581308 0.0666056
0 0.590127 0.110201
0.00817884 0.587015 0.0915541
0.0484627 0.58468 0.0760815
0.0840772 0.583444 0.0637522
0.118135 0.582498 0.0534676
0.151369 0.581613 0.0448463
0.184497 0.580713 0.037705
0.217212 0.579767 0.0319524
0.251041 0.578714 0.0272526
0.285054 0.577646 0.0237736
0.318898 0.576684 0.0214542
0.352621 0.575875 0.0201572
0.386069 0.575326 0.0197604
0.418112 0.575097 0.0201267
0.448325 0.575174 0.0209812
0.478492 0.575463 0.0221256
0.508049 0.576028 0.0234836
0.537423 0.576852 0.0249638
0.567773 0.577981 0.0265202
0.599817 0.5794 0.0281224
0.630915 0.580987 0.0299077
0.661173 0.582773 0.0319066
0.690562 0.584756 0.0341192
0.719081 0.586908 0.0365454
0.746792 0.589258 0.0391699
0.773693 0.59176 0.0419928
0.799908 0.594415 0.0449531
0.825559 0.597177 0.0480507
0.850813 0.6 0.0512398
0.875746 0.602884 0.0544594
0.900465 0.605814 0.0577096
0.925109 0.608713 0.0609445
0.948318 0.611795 0.0643626
0 0.6215 0.116472
0.00207523 0.618524 0.0974899
0.042237 0.616327 0.0816052
0.0777905 0.615213 0.0687724
0.111788 0.614404 0.0579538
0.145037 0.613626 0.0487373
0.17821 0.612818 0.04094
0.211048 0.611917 0.0345159
0.24509 0.61091 0.02916
0.279362 0.609857 0.0250095
0.313558 0.608865 0.0220798
0.347692 0.607996 0.0202182
0.381598 0.607355 0.0193637
0.414115 0.607019 0.0193637
0.444785 0.606958 0.0199435
0.475486 0.607111 0.0209049
0.505531 0.607507 0.0221561
0.535409 0.608164 0.0236057
0.566247 0.609125 0.0251926
0.598611 0.610391 0.0268559
0.629694 0.611948 0.0285954
0.659876 0.613687 0.0305333
0.689204 0.615625 0.0326848
0.717678 0.617731 0.03505
0.745312 0.62002 0.0375982
0.772137 0.622477 0.0403449
0.798276 0.625055 0.0432288
0.823865 0.627756 0.0462501
0.849012 0.630503 0.0493172
0.873838 0.633326 0.0524453
0.898466 0.636149 0.0556039
0.922988 0.638956 0.0587015
0.94609 0.641962 0.0620127
0 0.652888 0.123323
0 0.650034 0.104005
0.0365454 0.647944 0.0877241
0.0719921 0.646952 0.0744182
0.105913 0.646235 0.0630961
0.139132 0.645563 0.0532998
0.172305 0.644816 0.0448768
0.205234 0.643992 0.0378119
0.239445 0.643 0.031754
0.27393 0.641962 0.0269474
0.308431 0.64094 0.0233616
0.342885 0.640024 0.0209354
0.377188 0.639292 0.0195621
0.410117 0.638849 0.0191348
0.441199 0.638666 0.0193942
0.472374 0.638666 0.0200961
0.502892 0.638895 0.0211643
0.533211 0.639384 0.0225071
0.564569 0.640131 0.0240482
0.597391 0.641215 0.0257267
0.628641 0.642634 0.0274662
0.658778 0.644327 0.0293431
0.688029 0.646189 0.0314183
0.716411 0.648234 0.0336919
0.743969 0.650462 0.0361639
0.770672 0.652827 0.0388037
0.796735 0.655329 0.0415961
0.822217 0.657938 0.0444953
0.847242 0.660609 0.0474708
0.871977 0.663325 0.0504768
0.896483 0.666072 0.0535134
0.920913 0.668788 0.0565194
0.943893 0.671702 0.0597086
0 0.684215 0.130694
0 0.681453 0.11107
0.0313573 0.679469 0.0944076
0.0666972 0.678569 0.0806592
0.100511 0.677943 0.0688182
0.133669 0.677348 0.0584726
0.166812 0.676661 0.0494545
0.199786 0.675883 0.0417487
0.234134 0.674907 0.0350195
0.268788 0.673869 0.0295262
0.303487 0.672816 0.0252995
0.338231 0.671839 0.0222629
0.372885 0.671031 0.0203403
0.406165 0.670466 0.0194553
0.437598 0.670161 0.0193179
0.469215 0.670008 0.0196994
0.50013 0.670085 0.0205234
0.530922 0.67039 0.0216831
0.562737 0.670954 0.0231174
0.596002 0.671809 0.0247501
0.627619 0.67303 0.0264897
0.657832 0.674601 0.0283207
0.686976 0.676371 0.0303044
0.715251 0.678355 0.0324559
0.742702 0.680476 0.0348211
0.769299 0.682765 0.0373541
0.795254 0.685176 0.0400397
0.820615 0.687694 0.0428168
0.845548 0.690272 0.0456855
0.870161 0.692912 0.0485847
0.89456 0.695567 0.0514992
0.918883 0.698207 0.0543984
0.941756 0.70103 0.0574807
0 0.715419 0.138521
0 0.712749 0.118578
0.026627 0.710826 0.101549
0.0618448 0.710018 0.0873732
0.0955673 0.709453 0.0750439
0.128634 0.708904 0.0641642
0.161685 0.708278 0.0545815
0.19469 0.70753 0.0462501
0.229145 0.706584 0.0388495
0.263905 0.705516 0.0326848
0.298787 0.704448 0.0278019
0.333745 0.70341 0.0241398
0.368688 0.702495 0.0216373
0.402243 0.701839 0.0202335
0.433951 0.701396 0.0196841
0.465995 0.701091 0.0196841
0.497276 0.700999 0.0202029
0.528481 0.701122 0.0211185
0.560784 0.701488 0.0223697
0.59443 0.702129 0.0238804
0.626368 0.703136 0.0255589
0.65687 0.704479 0.0273747
0.686015 0.706142 0.0292668
0.714183 0.708019 0.0313268
0.741512 0.710063 0.0335699
0.768032 0.712261 0.035996
0.793835 0.714595 0.0385443
0.819104 0.717021 0.0412299
0.843915 0.719524 0.0439765
0.868437 0.722057 0.0467842
0.892744 0.724636 0.0495918
0.916945 0.727184 0.052369
0.939712 0.729915 0.0553292
0 0.746456 0.146746
0 0.743832 0.126467
0.0223239 0.741985 0.109087
0.0574044 0.741222 0.0944839
0.0909895 0.740719 0.0816968
0.123964 0.740215 0.0702983
0.156909 0.73962 0.0601358
0.189929 0.738888 0.0512093
0.22443 0.737942 0.043122
0.259251 0.736873 0.0363012
0.294255 0.735744 0.0307622
0.329412 0.734646 0.0264744
0.364569 0.733654 0.0233768
0.398352 0.732876 0.0214389
0.43032 0.732296 0.0204013
0.462699 0.731838 0.0199893
0.494316 0.731579 0.0201572
0.525902 0.731502 0.0207675
0.558694 0.73167 0.0217746
0.59266 0.732097 0.0231022
0.624949 0.732876 0.0246891
0.655711 0.73402 0.0264439
0.685069 0.7355 0.0283055
0.713191 0.73727 0.0302739
0.740414 0.739223 0.0324102
0.766812 0.741329 0.0347143
0.792523 0.743572 0.037171
0.81767 0.745922 0.0397345
0.842405 0.748318 0.0423743
0.866804 0.750774 0.0450599
0.890974 0.753262 0.0477455
0.915084 0.755734 0.0504158
0.937743 0.758373 0.0532845
0 0.777264 0.155245
0 0.774701 0.134676
0.0183871 0.772885 0.11693
0.0532998 0.772152 0.10193
