app/public/assets/luts/retro-matte.cube
TITLE "Generated by Resolve"
LUT_3D_SIZE 5
0.0658427 0.0484169 0.0458076
0.284596 0.022034 0.0194553
0.493019 0.011017 0.00787366
0.713573 0.0112306 0.00833143
0.905241 0.0248569 0.0235904
0.0485847 0.224277 0.056611
0.298375 0.206088 0.0352331
0.517754 0.20618 0.0357977
0.753979 0.216907 0.0477607
0.955688 0.239689 0.0732128
0 0.462806 0.0871595
0.274678 0.449195 0.0261692
0.515251 0.449332 0.0298314
0.752514 0.463127 0.0453346
0.95555 0.487007 0.0720989
0 0.715419 0.138521
0.229145 0.706584 0.0388495
0.497276 0.700999 0.0202029
0.741512 0.710063 0.0335699
0.939712 0.729915 0.0553292
0 0.956603 0.202655
0.190646 0.947295 0.074464
0.465599 0.935958 0.0200656
0.726543 0.934432 0.0205539
0.92314 0.949615 0.0381781
0.123186 0.0339818 0.181415
0.288045 0.0265507 0.170779
0.496788 0.0166171 0.160739
0.719326 0.0177462 0.161563
0.912337 0.032578 0.178164
0.152834 0.190356 0.32604
0.304814 0.214267 0.192386
0.521523 0.216312 0.196902
0.763485 0.226841 0.204898
0.965423 0.249851 0.230732
0.0587472 0.439353 0.402609
0.264546 0.462135 0.211017
0.510506 0.462715 0.197375
0.759548 0.474311 0.204883
0.965515 0.497414 0.229862
0.00242618 0.694865 0.457328
0.22443 0.714992 0.255528
0.498833 0.712718 0.180453
0.750179 0.719371 0.189853
0.947662 0.738659 0.210971
0 0.934997 0.522454
0.189761 0.949996 0.311986
0.459556 0.946563 0.18883
0.732189 0.942672 0.175021
0.930007 0.957504 0.192645
0.288975 0 0.39028
0.316716 0.016022 0.381277
0.495018 0.0148775 0.388434
0.717601 0.017319 0.392126
0.911925 0.0333562 0.409094
0.377157 0.127153 0.517143
0.399481 0.188632 0.408637
0.521141 0.218433 0.431678
0.763897 0.229755 0.436118
0.967208 0.252613 0.45864
0.32845 0.352941 0.728359
0.415045 0.406912 0.577096
0.510582 0.465522 0.435859
0.742046 0.481315 0.452995
0.967468 0.500374 0.457603
0.231052 0.61236 0.868559
0.328023 0.668864 0.669963
0.466773 0.720317 0.454154
0.720195 0.727581 0.442481
0.943313 0.740795 0.441001
0.155749 0.860929 0.950652
0.269841 0.908583 0.720699
0.445106 0.945205 0.475257
0.725048 0.945205 0.404196
0.929 0.958572 0.419364
0.430335 0 0.598779
0.420829 0 0.57612
0.504189 0.00849927 0.600214
0.71426 0.0151369 0.615381
0.909895 0.0323644 0.632776
0.533974 0.0809033 0.710811
0.548196 0.145144 0.614313
0.550546 0.211795 0.634745
0.764904 0.230091 0.658274
0.966888 0.253178 0.681025
0.535576 0.295201 0.919066
0.618036 0.351781 0.755703
0.593347 0.442283 0.654795
0.73695 0.482429 0.688899
0.965438 0.501335 0.681666
0.471717 0.538613 1
0.565805 0.591989 0.958114
0.598154 0.667826 0.806561
0.710277 0.727611 0.681758
0.91429 0.744869 0.687251
0.393561 0.779522 1
0.480217 0.829816 1
0.531853 0.900557 0.85919
0.685389 0.950652 0.660655
0.88539 0.965484 0.674571
0.549828 0 0.7935
0.531731 0 0.762585
0.551949 0 0.78352
0.715312 0.0136416 0.818173
0.909529 0.0325475 0.839414
0.661234 0.0435645 0.902129
0.672251 0.109468 0.813214
0.632761 0.191119 0.817838
0.769146 0.230838 0.862882
0.96791 0.254627 0.888853
0.692515 0.253376 1
0.760021 0.314229 0.93341
0.736767 0.405356 0.826093
0.769314 0.478157 0.863783
0.967987 0.502144 0.887724
0.654047 0.488258 1
0.745174 0.542199 1
0.789227 0.616831 0.960616
0.742779 0.718334 0.880705
0.906142 0.744732 0.90721
0.593896 0.71812 1
0.682933 0.765835 1
0.732631 0.833051 1
0.744991 0.921096 0.967697
0.870817 0.965743 0.90132
