app/public/assets/luts/standard-500.cube
TITLE "Generated by Resolve"
LUT_3D_SIZE 5
0 0.0135958 0.0200351
0.0368505 0.00251774 0.00831617
0.694972 0 0
1 0 0.232517
1 0.177707 0.659083
0 0.0590982 0.00433356
0 0.0569924 0.000320439
0.648997 0.0156405 0
1 0.0161593 0.129702
1 0.258106 0.598169
0 0.347204 0
0 0.346624 0
0.479377 0.511238 0
1 0.557549 0
1 0.357122 0.46508
0 0.918273 0.484764
0 0.912779 0.468818
0 0.855299 0.198901
0.920745 0.896437 0.0638895
0.966705 0.790051 0.404685
0.00500496 0.985687 0.980652
0.0137331 0.983429 0.979522
0.0271458 0.980041 0.977279
0.570108 0.901076 0.801358
0.94284 0.906523 0.676173
0 0.007187 0.0949416
0.0394903 0 0.074815
0.628794 0 0
1 0 0.329091
1 0.235462 0.649653
0 0.0602274 0.0800336
0 0.0470436 0.0527504
0.592035 0.00747692 0.00611887
1 0.0308995 0.252583
1 0.28925 0.611124
0 0.353368 0
0 0.339406 0
0.43389 0.459297 0
1 0.591165 0.0466011
1 0.466026 0.44831
0 0.936248 0.652049
0 0.926146 0.626932
0 0.874632 0.40293
0.921324 0.891661 0.225986
0.962325 0.804593 0.430442
0.014374 0.983307 0.979461
0.0249943 0.980575 0.97763
0.0386664 0.977157 0.975738
0.594339 0.904646 0.814878
0.94258 0.906294 0.681773
0 0 0.606729
0.0203708 0 0.530159
0.627131 0 0.501671
1 0.0059968 0.737057
1 0.274342 0.708949
0 0.0972305 0.513069
0 0.0586557 0.447669
0.550973 0 0.435096
1 0.104372 0.721813
1 0.339406 0.711208
0 0.464652 0.694652
0 0.418326 0.642496
0.373648 0.422644 0.410452
1 0.528771 0.417365
1 0.479042 0.54847
0 0.949386 0.918776
0 0.934005 0.909819
0 0.902602 0.830396
0.893431 0.866087 0.403754
0.954452 0.836149 0.507958
0.0336004 0.978469 0.976455
0.0474861 0.97496 0.97496
0.0612955 0.971542 0.97351
0.644999 0.903853 0.821012
0.942016 0.905776 0.693889
0 0.672801 0.91548
0.0237278 0.631418 0.923919
0.626307 0.486152 0.91873
1 0.477363 0.950942
1 0.410422 0.894591
0 0.644068 0.902113
0 0.59234 0.906035
0.587915 0.458762 0.911437
1 0.485145 0.943587
1 0.492073 0.925826
0 0.726879 0.881834
0 0.699702 0.87422
0.332494 0.606165 0.883207
0.990188 0.569116 0.898207
1 0.569787 0.890394
0.0403143 0.864332 0.949081
0.0372931 0.861814 0.948745
0.221027 0.843 0.939666
0.857389 0.830076 0.814542
0.946899 0.842481 0.787533
0.152819 0.950057 0.96286
0.168612 0.946731 0.960769
0.345968 0.938262 0.943648
0.808789 0.907622 0.893477
0.937682 0.901152 0.78996
0.391363 0.827375 0.926452
0.43624 0.826596 0.924163
0.550958 0.81384 0.915282
0.921187 0.773754 0.903212
0.941588 0.851698 0.891295
0.412467 0.831586 0.925551
0.451301 0.830427 0.923018
0.617761 0.812039 0.91043
0.957412 0.776074 0.905074
0.941009 0.855161 0.890791
0.387686 0.84979 0.927291
0.414878 0.86128 0.926711
0.569314 0.84477 0.913436
0.930571 0.802533 0.898177
0.939635 0.864576 0.888609
0.470588 0.860029 0.922667
0.473091 0.874464 0.922896
0.589136 0.878553 0.912139
0.850187 0.882338 0.889128
0.937636 0.88629 0.880781
0.744732 0.91017 0.899275
0.75172 0.909239 0.898314
0.76968 0.907454 0.896635
0.874479 0.897795 0.888548
0.935973 0.896483 0.875639
