app/public/assets/luts/standard-500.cube
TITLE "Generated by Resolve"
LUT_3D_SIZE 33
0 0.0135958 0.0200351
0 0.0135958 0.0200656
0 0.013611 0.0200656
0 0.013611 0.0200656
0 0.013611 0.0200504
0 0.0132753 0.0196536
0 0.0103609 0.0171817
0 0.00572213 0.011841
0.0368505 0.00251774 0.00831617
0.090837 0 0.00201419
0.157839 0 0
0.233997 0 0
0.326955 0 0
0.420554 0 0
0.50013 0 0
0.586892 0 0
0.694972 0 0
0.820966 0 0
0.913298 0 0
0.969085 0.0206302 0
1 0.0382239 0
1 0.051606 0.0213626
1 0.0608072 0.0742199
1 0 0.085893
1 0 0.232517
1 0 0.332174
1 0 0.382788
1 0 0.423484
1 0.000701915 0.492851
1 0.0821241 0.594049
1 0.186496 0.637476
1 0.180331 0.657649
1 0.177707 0.659083
0 0.0136263 0.0200961
0 0.013611 0.0200809
0 0.013611 0.0200656
0 0.013611 0.0200656
0 0.013611 0.0200656
0 0.0134279 0.0198367
0 0.0105898 0.0172885
0 0.00572213 0.0118563
0.0375677 0.0024567 0.00823987
0.0911727 0 0.00198367
0.157809 0 0
0.233005 0 0
0.325063 0 0
0.41857 0 0
0.49807 0 0
0.586572 0 0
0.694026 0 0
0.822003 0 0
0.914504 0 0
0.96994 0.0209659 0
1 0.0383917 0
1 0.0516213 0.0210575
1 0.060853 0.074464
1 0 0.086183
1 0 0.235431
1 0 0.333364
1 0 0.383124
1 0 0.42739
1 0.0112764 0.50193
1 0.106538 0.597436
1 0.219165 0.632044
1 0.210315 0.63975
1 0.177737 0.659083
0 0.0136416 0.0200961
0 0.0136263 0.0200809
0 0.013611 0.0200656
0 0.013611 0.0200656
0 0.0136263 0.0200809
0 0.013611 0.0200656
0 0.0112001 0.0176394
0 0.00610361 0.0128328
0.029984 0.00318914 0.00901808
0.0817426 0 0.00321965
0.148379 0 0
0.223102 0 0
0.31632 0 0
0.411109 0 0
0.495399 0 0
0.583764 0 0
0.692958 0 0
0.823514 0 0
0.915358 0 0
0.97055 0.0212406 0
1 0.0385901 0
1 0.0516365 0.0205234
1 0.0607614 0.0746624
1 0 0.0869459
1 0 0.237919
1 0 0.33434
1 0 0.383368
1 0 0.431495
1 0.0233463 0.513558
1 0.129091 0.598871
1 0.23978 0.629374
1 0.224338 0.631846
1 0.196155 0.645335
0 0.0136416 0.0200961
0 0.0136263 0.0200809
0 0.0136263 0.0200809
0 0.0136263 0.0200809
0 0.0136263 0.0200809
0 0.013611 0.0200656
0 0.0112154 0.0177157
0 0.00630198 0.0133822
0.0261387 0.00357061 0.0093843
0.0741131 0 0.00425727
0.137407 0 0
0.205158 0 0
0.292515 0 0
0.386801 0 0
0.475624 0 0
0.563714 0 0
0.674342 0 0
0.812894 0 0
0.913512 0 0
0.971298 0.0215763 0
1 0.03888 0
1 0.0518044 0.0205997
1 0.0595865 0.0744793
1 0 0.0877852
1 0 0.240833
1 0 0.335454
1 0 0.384161
1 0 0.436637
1 0.0366217 0.523323
1 0.149859 0.600748
1 0.245594 0.625818
1 0.233707 0.627466
1 0.216159 0.628595
0 0.0136568 0.0201114
0 0.0136416 0.0200961
0 0.0136263 0.0200809
0 0.0136263 0.0200809
0 0.0136263 0.0200809
0 0.0135042 0.0199435
0 0.0109712 0.0175631
0 0.00624094 0.0132448
0.0237736 0.00509651 0.0093843
0.0657359 0.0030518 0.00433356
0.124422 0 0
0.190372 0 0
0.276509 0 0
0.374014 0 0
0.461601 0 0
0.544884 0 0
0.642252 0 0
0.779232 0 0
0.898054 0 0
0.963546 0.0182498 0
1 0.0365148 0
1 0.0501411 0.00984207
1 0.0599527 0.068574
1 0 0.0854505
1 0 0.237995
1 0 0.336812
1 0 0.385138
1 0 0.443153
1 0.0530404 0.534081
1 0.170977 0.601663
1 0.250355 0.622171
1 0.240848 0.624079
1 0.225223 0.620996
0 0.013962 0.019852
0 0.0138247 0.0199435
0 0.0136263 0.0200809
0 0.0136416 0.0200656
0 0.0140536 0.0197299
0 0.0143893 0.0186465
0 0.0137026 0.0157168
0 0.0121309 0.0113832
0.0175784 0.0122377 0.00851453
0.0562753 0.0111849 0.00433356
0.114504 0.00680552 0
0.181292 0.000411994 0
0.267628 0 0
0.365835 0 0
0.455848 0 0
0.534493 0 0
0.623407 0 0
0.752071 0 0
0.873915 0 0
0.953918 0.0140536 0
0.996948 0.0339208 0
1 0.0475776 0
1 0.0582589 0.0542916
1 0.00437934 0.0818494
1 0 0.21088
1 0 0.323522
1 0 0.377447
1 0 0.438682
1 0.063859 0.533669
1 0.186145 0.598733
1 0.255665 0.618402
1 0.246174 0.621164
1 0.232914 0.617029
0 0.0200198 0.015259
0 0.0198978 0.0152285
0 0.0192264 0.0155947
0 0.0196231 0.0151675
0 0.0205997 0.0142977
0 0.0215305 0.013077
0 0.0220493 0.0115053
0 0.0228885 0.00784314
0.0099794 0.0234226 0.00677501
0.0484321 0.022858 0.00463874
0.106477 0.0188754 0
0.175982 0.0130007 0
0.262547 0.00306706 0
0.363073 0 0
0.455497 0 0
0.535912 0 0
0.618982 0 0
0.736034 0 0
0.858564 0 0
0.941817 0.00924697 0
0.99025 0.030808 0
1 0.0454871 0
1 0.0560769 0.0419013
1 0.0226444 0.0792248
1 0 0.184329
1 0 0.309224
1 0 0.368002
1 0.00300603 0.428443
1 0.0704662 0.525414
1 0.190616 0.589715
1 0.261982 0.613092
1 0.253986 0.614771
1 0.243244 0.610758
0 0.0382696 0.00816358
0 0.0383154 0.00814832
0 0.0368963 0.00831617
0 0.0366827 0.00842298
0 0.0374914 0.00822461
0 0.0371099 0.00802625
0 0.0370336 0.00715648
0 0.0367895 0.00508125
0.00062562 0.038407 0.00401312
0.0394141 0.038468 0.0037232
0.0985122 0.0346838 0
0.17203 0.0290837 0
0.261662 0.021561 0
0.366323 0.0124056 0
0.462058 0.00242618 0
0.544976 0 0
0.630335 0 0
0.736736 0 0
0.853422 0 0
0.935561 0.00675975 0
0.984588 0.0279393 0
1 0.0437934 0
1 0.0550546 0.0359655
1 0.0381476 0.0772106
1 0 0.156039
1 0 0.296361
1 0 0.359365
1 0.00550851 0.417639
1 0.0787366 0.515328
1 0.19408 0.580041
1 0.267247 0.607431
1 0.2607 0.608957
1 0.250904 0.604608
0 0.0590982 0.00433356
0 0.0595407 0.00433356
0 0.0579385 0.00454719
0 0.0570382 0.00474556
0 0.0568246 0.00444038
0 0.0563211 0.00421149
0 0.0563363 0.00300603
0 0.0562905 0.00175479
0 0.0569924 0.000320439
0.0274662 0.0587778 0
0.0885481 0.0572976 0
0.16846 0.0517586 0
0.260945 0.046067 0
0.371313 0.0402991 0
0.473487 0.0337072 0
0.561349 0.026154 0
0.648997 0.0156405 0
0.757488 0.00450141 0
0.863691 0 0
0.939941 0.0146487 0
0.991333 0.0437476 0
1 0.0730755 0
1 0.0942702 0.0413825
1 0.0998856 0.0986191
1 0.0161593 0.129702
1 0.0212253 0.281025
1 0.00894179 0.351186
1 0.016495 0.407095
1 0.0894179 0.500175
1 0.197879 0.567697
1 0.273274 0.60145
1 0.266117 0.602594
1 0.258106 0.598169
0 0.0850385 0
0 0.0854658 0
0 0.0837262 0
0 0.0821698 0
0 0.0809033 0
0 0.0804608 0
0 0.0810101 0
0 0.0822156 0
0 0.0839551 0
0.00903334 0.0864576 0
0.0705577 0.0875257 0
0.156863 0.0834211 0
0.257877 0.0792554 0
0.37261 0.0758831 0
0.480934 0.0725872 0
0.573175 0.0679789 0
0.665919 0.0601205 0
0.777523 0.0494392 0
0.885908 0.0471809 0
0.962432 0.0605936 0
1 0.0839246 0
1 0.122133 0
1 0.154086 0.0334325
1 0.165576 0.0868238
1 0.153368 0.173312
1 0.0678111 0.240345
1 0.0482795 0.330205
1 0.0409247 0.392401
1 0.101823 0.479698
1 0.201221 0.551202
1 0.280705 0.593103
1 0.272267 0.595712
1 0.264012 0.591531
0 0.116121 0
0 0.11693 0
0 0.115038 0
0 0.112352 0
0 0.11017 0
0 0.109071 0
0 0.109911 0
0 0.112688 0
0 0.116442 0
0 0.12163 0
0.0433509 0.12546 0
0.13521 0.124285 0
0.244846 0.122148 0
0.365789 0.120287 0
0.478233 0.117479 0
0.57406 0.114137 0
0.669657 0.108858 0
0.783795 0.10251 0
0.894926 0.104936 0
0.970825 0.11902 0
1 0.145418 0
1 0.180621 0
1 0.215686 0.00698863
1 0.238834 0.0619669
1 0.243214 0.132448
1 0.206958 0.238437
1 0.0901198 0.291524
1 0.0702831 0.367834
1 0.116793 0.453117
1 0.207095 0.529458
1 0.289311 0.583261
1 0.280247 0.58616
1 0.270588 0.582452
0 0.150988 0
0 0.151217 0
0 0.150057 0
0 0.146609 0
0 0.144594 0
0 0.143206 0
0 0.143648 0
0 0.145724 0
0 0.150683 0
0 0.159915 0
0.0103914 0.170962 0
0.102922 0.174273 0
0.222156 0.172564 0
0.348821 0.169848 0
0.46833 0.168078 0
0.567285 0.167407 0
0.662333 0.163027 0
0.777615 0.15903 0
0.889891 0.160861 0
0.967102 0.176135 0
1 0.202152 0
1 0.232837 0
1 0.264729 0
1 0.290379 0.0416114
1 0.304585 0.0984665
1 0.291569 0.209277
1 0.19321 0.26685
1 0.104112 0.328466
1 0.136095 0.41973
1 0.216403 0.504463
1 0.30042 0.570001
1 0.289372 0.575433
1 0.278721 0.570489
0 0.187732 0
0 0.188602 0
0 0.188327 0
0 0.185168 0
0 0.183352 0
0 0.182315 0
0 0.181842 0
0 0.183124 0
0 0.187594 0
0 0.196139 0
0 0.213413 0
0.0551461 0.230518 0
0.182116 0.229038 0
0.319188 0.226551 0
0.448417 0.225391 0
0.551385 0.225483 0
0.648753 0.224384 0
0.762783 0.219471 0
0.87924 0.221546 0
0.958816 0.235584 0
1 0.259281 0
1 0.288121 0
1 0.317311 0
1 0.339956 0.0161746
1 0.356771 0.0764172
1 0.354025 0.164736
1 0.306264 0.254032
1 0.15996 0.283604
1 0.160204 0.380545
1 0.229023 0.47361
1 0.313146 0.552514
1 0.300984 0.56051
1 0.288762 0.556069
0 0.227115 0
0 0.227863 0
0 0.228931 0
0 0.226261 0
0 0.224414 0
0 0.223377 0
0 0.223148 0
0 0.223407 0
0 0.225406 0
0 0.233036 0
0 0.24741 0
0 0.272328 0
0.122438 0.293477 0
0.271275 0.290517 0
0.413489 0.289052 0
0.527245 0.289631 0
0.626825 0.289616 0
0.737743 0.285771 0
0.862303 0.286168 0
0.94609 0.299062 0
0.993729 0.321004 0
1 0.3467 0
1 0.371954 0
1 0.391043 0
1 0.403571 0.0566873
1 0.40911 0.125689
1 0.371084 0.21796
1 0.295583 0.280934
1 0.194949 0.334066
1 0.247089 0.437324
1 0.325429 0.530541
1 0.314244 0.539742
1 0.301335 0.540154
0 0.265217 0
0 0.266575 0
0 0.268299 0
0 0.266239 0
0 0.264317 0
0 0.263203 0
0 0.262837 0
0 0.263371 0
0 0.264118 0
0 0.266972 0
0 0.276753 0
0 0.299138 0
0.00177005 0.336065 0
0.18819 0.36054 0
0.358343 0.358419 0
0.491173 0.35877 0
0.596963 0.358648 0
0.707805 0.356405 0
0.835706 0.355123 0
0.928664 0.365652 0
0.980011 0.384466 0
1 0.40708 0
1 0.427665 0
1 0.443366 0
1 0.450477 0.0363928
1 0.45182 0.0979934
1 0.429099 0.186175
1 0.357427 0.248829
1 0.294484 0.314519
1 0.270314 0.395438
1 0.337438 0.499184
1 0.329244 0.514275
1 0.316548 0.520317
0 0.303502 0
0 0.305013 0
0 0.306218 0
0 0.304982 0
0 0.303258 0
0 0.30219 0
0 0.302037 0
0 0.302235 0
0 0.3028 0
0 0.303624 0
0 0.306264 0
0 0.31809 0
0 0.352346 0
0.0245975 0.404837 0
0.247074 0.428489 0
0.425925 0.432151 0
0.554253 0.433738 0
0.671061 0.431388 0
0.797772 0.429816 0
0.901701 0.435019 0
0.961944 0.448417 0
0.995987 0.466682 0
1 0.484779 0
1 0.498024 0
1 0.501244 0.0104524
1 0.496605 0.0747692
1 0.47483 0.151553
1 0.415396 0.212924
1 0.363821 0.293217
1 0.325017 0.363439
1 0.353491 0.460731
1 0.348241 0.480934
1 0.334447 0.496574
0 0.347204 0
0 0.34847 0
0 0.349706 0
0 0.349157 0
0 0.347402 0
0 0.346487 0
0 0.346136 0
0 0.346212 0
0 0.346624 0
0 0.347112 0
0 0.348272 0
0 0.349813 0
0 0.359487 0
0 0.406592 0
0.0431067 0.472129 0
0.283757 0.501488 0
0.479377 0.511238 0
0.617594 0.513863 0
0.746639 0.507866 0
0.862654 0.507683 0
0.936019 0.516304 0
0.978195 0.530221 0
1 0.546059 0
1 0.557168 0
1 0.557549 0
1 0.545495 0.055314
1 0.516381 0.116487
1 0.465675 0.182101
1 0.412299 0.257267
1 0.399481 0.348852
1 0.389822 0.423209
1 0.371771 0.445594
1 0.357122 0.46508
0 0.413367 0
0 0.416419 0
0 0.419028 0
0 0.419791 0
0 0.416159 0
0 0.413794 0
0 0.412695 0
0 0.411978 0
0 0.411734 0
0 0.412528 0
0 0.413184 0
0 0.41413 0
0 0.415076 0
0 0.417899 0
0 0.474205 0
0.053666 0.547799 0
0.315496 0.582589 0
0.525078 0.5935 0
0.678843 0.592813 0
0.808728 0.587594 0
0.899886 0.591241 0
0.954543 0.601694 0
0.987305 0.612665 0
1 0.619638 0
1 0.616098 0
1 0.59765 0.0374304
1 0.562219 0.0900435
1 0.50634 0.145968
1 0.458549 0.220768
1 0.439078 0.311421
1 0.45684 0.40679
1 0.430762 0.42916
1 0.394903 0.433082
0 0.500237 0
0 0.504051 0
0 0.507652 0
0 0.509285 0
0 0.504189 0
0 0.501015 0
0 0.498756 0
0 0.497215 0
0 0.497368 0
0 0.496529 0
0 0.49659 0
0 0.496468 0
0 0.496345 0
0 0.496757 0
0 0.503151 0
0 0.558694 0
0.0622416 0.633539 0
0.349844 0.664927 0
0.576196 0.673716 0
0.739269 0.672236 0
0.852796 0.669322 0
0.923644 0.671977 0
0.966491 0.676982 0
0.988586 0.6804 0
0.995315 0.674113 0
0.999954 0.653468 0.0200046
1 0.612543 0.0694591
1 0.550652 0.112779
1 0.500313 0.185428
1 0.481987 0.278325
1 0.49163 0.379553
1 0.485618 0.421057
1 0.467247 0.426932
0 0.588144 0
0 0.592157 0
0 0.594903 0
0 0.596902 0
0 0.592889 0
0 0.589014 0
0 0.587045 0
0 0.585428 0
0 0.582803 0
0 0.581552 0
0 0.579919 0
0 0.578698 0
0 0.577234 0
0 0.575296 0
0 0.571145 0
0 0.586572 0
0 0.646799 0
0.101503 0.714885 0
0.423804 0.738262 0
0.647959 0.744274 0
0.795209 0.739879 0
0.887358 0.735744 0
0.942412 0.734493 0
0.974624 0.734752 0
0.986755 0.729458 0
0.99086 0.708461 0.00796521
0.998962 0.665949 0.054963
1 0.600214 0.0884718
1 0.541711 0.147448
1 0.522057 0.244785
1 0.533593 0.357626
1 0.527886 0.402106
1 0.511513 0.409598
0 0.663752 0
0 0.666178 0
0 0.668528 0
0 0.670222 0
0 0.667323 0
0 0.664408 0
0 0.661631 0
0 0.659098 0
0 0.656718 0
0 0.654551 0
0 0.651881 0
0 0.649851 0
0 0.646906 0
0 0.64361 0
0 0.640681 0
0 0.637461 0
0 0.66717 0
0 0.729381 0
0.198367 0.781949 0
0.524422 0.795239 0
0.724575 0.797391 0
0.844938 0.790646 0
0.915984 0.785199 0
0.958846 0.782132 0
0.978408 0.775769 0
0.983154 0.758144 0.00515755
0.990051 0.718669 0.0462043
1 0.654337 0.0719158
1 0.589914 0.109071
1 0.562615 0.221317
1 0.57528 0.342458
1 0.578164 0.393057
1 0.566766 0.394278
0 0.723369 0
0 0.725353 0
0 0.72694 0
0 0.729015 0
0 0.726848 0
0 0.724178 0
0 0.721309 0
0 0.718242 0
0 0.715267 0
0 0.712261 0
0 0.709453 0
0 0.705928 0
0 0.702296 0
0 0.698299 0
0 0.694041 0
0 0.688334 0
0 0.697185 0
0 0.736355 0
0.00512703 0.79733 0
0.347692 0.827466 0
0.625818 0.836362 0
0.791669 0.835081 0
0.886717 0.827344 0
0.940871 0.821256 0
0.968612 0.815488 0
0.977752 0.800732 0.0126192
0.982437 0.768536 0.0487068
0.991577 0.710475 0.0570535
1 0.644358 0.0924849
1 0.610086 0.203952
1 0.618021 0.329198
1 0.626841 0.388128
1 0.621149 0.38912
0 0.782559 0
0 0.786068 0
0 0.789563 0
0 0.792233 0
0 0.790311 0
0 0.785855 0
0 0.78175 0
0 0.777401 0
0 0.772335 0
0 0.76875 0
0 0.763165 0
0 0.75816 0
0 0.752697 0
0 0.7476 0
0 0.742123 0
0 0.736187 0
0 0.72874 0
0 0.739971 0
0 0.778653 0
0.0782483 0.83534 0
0.459327 0.854276 0
0.703777 0.863218 0
0.846815 0.861463 0
0.919799 0.854429 0
0.959182 0.847929 0
0.97435 0.83711 0.0203098
0.976608 0.813184 0.0466773
0.983368 0.764691 0.0674907
0.993454 0.702571 0.0947433
0.998016 0.664973 0.19501
0.993957 0.669688 0.320302
0.989639 0.682734 0.383001
0.990967 0.675975 0.383139
0 0.85742 0.16492
0 0.861677 0.191211
0 0.864881 0.211643
0 0.868238 0.233173
0 0.866789 0.227024
0 0.862043 0.202197
0 0.857877 0.181582
0 0.853391 0.159915
0 0.848234 0.135775
0 0.842374 0.10663
0 0.835447 0.0775311
0 0.828046 0.0532235
0 0.82005 0.0316472
0 0.812879 0.0192874
0 0.804135 0.00669871
0 0.795102 0
0 0.783642 0
0 0.766491 0
0 0.760067 0
0 0.796628 0
0.139254 0.850141 0
0.538659 0.871046 0
0.766079 0.883238 0
0.888197 0.880674 0.00520333
0.944839 0.874052 0.0124056
0.96994 0.866804 0.0327153
0.973251 0.849699 0.0682994
0.976028 0.81181 0.0973373
0.983612 0.758648 0.11928
0.987106 0.723857 0.200824
0.981323 0.73196 0.327794
0.977264 0.740978 0.388128
0.978943 0.734142 0.387182
0 0.918273 0.484764
0 0.921157 0.505714
0 0.924163 0.52488
0 0.926802 0.54258
0 0.927443 0.548333
0 0.923858 0.528801
0 0.920653 0.51165
0 0.917388 0.492363
0 0.912779 0.468818
0 0.907988 0.443366
0 0.901625 0.411887
0 0.895354 0.380835
0 0.888823 0.35024
0 0.881727 0.317983
0 0.873198 0.280751
0 0.864424 0.24033
0 0.855299 0.198901
0 0.841764 0.138231
0 0.781537 0
0 0.769528 0
0 0.801053 0
0.200717 0.854109 0
0.600504 0.885405 0
0.824201 0.898802 0.0456245
0.920745 0.896437 0.0638895
0.960739 0.888853 0.085069
0.970565 0.876951 0.12105
0.97084 0.85095 0.140475
0.973983 0.810513 0.16112
0.974594 0.785458 0.236927
0.968933 0.790173 0.348959
0.965026 0.796078 0.407492
0.966705 0.790051 0.404685
0 0.958434 0.695766
0 0.960845 0.70724
0 0.96286 0.716762
0 0.964614 0.725124
0 0.966217 0.731838
0 0.964645 0.724804
0 0.962982 0.717021
0 0.960906 0.708064
0 0.958068 0.696437
0 0.954864 0.683177
0 0.951568 0.668101
0 0.946914 0.648219
0 0.942138 0.625132
0 0.936217 0.596948
0 0.929839 0.5635
0 0.92282 0.526574
0 0.914427 0.483101
0 0.905653 0.440131
0 0.878233 0.301747
0 0.819501 0.04065
0 0.784421 0
0 0.809293 0
0.25951 0.863645 0
0.660578 0.896483 0.0387732
0.862486 0.907652 0.141405
0.941268 0.903868 0.186725
0.966491 0.896757 0.200427
0.966018 0.881193 0.206088
0.9673 0.855619 0.206394
0.966094 0.839048 0.263493
0.95993 0.843366 0.373373
0.956405 0.847654 0.433875
0.957244 0.842481 0.429801
0 0.975082 0.774823
0 0.975738 0.778225
0 0.976165 0.780774
0 0.976608 0.783169
0 0.976883 0.785382
0 0.976471 0.782238
0 0.975891 0.77882
0 0.975265 0.775387
0 0.974456 0.770687
0 0.973312 0.76495
0 0.971801 0.756939
0 0.970199 0.747997
0 0.967681 0.735744
0 0.964477 0.720424
0 0.960952 0.701778
0 0.956832 0.681529
0 0.95201 0.655665
0 0.945708 0.623896
0 0.93846 0.588251
0 0.918471 0.46688
0 0.852308 0.117189
0 0.803418 0
0 0.812116 0
0.240482 0.862119 0
0.692348 0.901671 0.101717
0.889937 0.913787 0.254032
0.954696 0.911925 0.290929
0.962615 0.904814 0.276967
0.963394 0.89192 0.262669
0.960906 0.882841 0.307149
0.954345 0.883467 0.430838
0.950896 0.884886 0.501259
0.951614 0.881926 0.487785
0 0.966354 0.723552
0 0.96405 0.710506
0 0.961944 0.695964
0 0.96022 0.684565
0 0.958389 0.672999
0 0.957778 0.669078
0 0.957244 0.665934
0 0.956771 0.662379
0 0.956588 0.660365
