app/public/assets/luts/standard-500.cube
TITLE "Generated by Resolve"
LUT_3D_SIZE 9
0 0.0135958 0.0200351
0 0.013611 0.0200504
0.0368505 0.00251774 0.00831617
0.326955 0 0
0.694972 0 0
1 0.0382239 0
1 0 0.232517
1 0.000701915 0.492851
1 0.177707 0.659083
0 0.0136568 0.0201114
0 0.0136263 0.0200809
0.0237736 0.00509651 0.0093843
0.276509 0 0
0.642252 0 0
1 0.0365148 0
1 0 0.237995
1 0.0530404 0.534081
1 0.225223 0.620996
0 0.0590982 0.00433356
0 0.0568246 0.00444038
0 0.0569924 0.000320439
0.260945 0.046067 0
0.648997 0.0156405 0
0.991333 0.0437476 0
1 0.0161593 0.129702
1 0.0894179 0.500175
1 0.258106 0.598169
0 0.187732 0
0 0.183352 0
0 0.187594 0
0.182116 0.229038 0
0.648753 0.224384 0
1 0.259281 0
1 0.356771 0.0764172
1 0.160204 0.380545
1 0.288762 0.556069
0 0.347204 0
0 0.347402 0
0 0.346624 0
0 0.359487 0
0.479377 0.511238 0
0.936019 0.516304 0
1 0.557549 0
1 0.412299 0.257267
1 0.357122 0.46508
0 0.663752 0
0 0.667323 0
0 0.656718 0
0 0.646906 0
0 0.66717 0
0.724575 0.797391 0
0.978408 0.775769 0
1 0.589914 0.109071
1 0.566766 0.394278
0 0.918273 0.484764
0 0.927443 0.548333
0 0.912779 0.468818
0 0.888823 0.35024
0 0.855299 0.198901
0 0.801053 0
0.920745 0.896437 0.0638895
0.973983 0.810513 0.16112
0.966705 0.790051 0.404685
0 0.925032 0.408957
0 0.904067 0.257801
0 0.898848 0.217685
0 0.900023 0.222126
0 0.89865 0.209216
0 0.902739 0.253025
0 0.825452 0
0.959792 0.921904 0.350744
0.944457 0.907988 0.644129
0.00500496 0.985687 0.980652
0.00495918 0.985656 0.980621
0.0137331 0.983429 0.979522
0.0180362 0.982315 0.978988
0.0271458 0.980041 0.977279
0.168048 0.98085 0.970748
0.570108 0.901076 0.801358
0.938094 0.905776 0.693462
0.94284 0.906523 0.676173
0 0.0136263 0.0200809
0 0.013611 0.0200504
0.0344396 0.00277714 0.0103304
0.307744 0 0
0.667445 0 0
1 0.0397955 0.00173953
1 0 0.275166
1 0.0406348 0.540688
1 0.205524 0.65922
0 0.0136568 0.0200809
0 0.0136263 0.0200809
0.016434 0.00567636 0.0124514
0.261372 0 0
0.640742 0 0
1 0.0376898 0
1 0 0.279942
1 0.11342 0.567132
1 0.249989 0.627741
0 0.0619211 0.0071107
0 0.0568246 0.00671397
0 0.052842 0.00408942
0.230076 0.0402838 0
0.625544 0.0156405 0
0.991806 0.0492256 0
1 0.0715343 0.189609
1 0.148516 0.504982
1 0.274281 0.606287
0 0.18323 0
0 0.17612 0
0 0.175082 0
0.154238 0.212772 0
0.62678 0.215137 0
0.99678 0.264973 0
1 0.398184 0.0851911
1 0.241032 0.351659
1 0.316289 0.559075
0 0.342565 0
0 0.341573 0
0 0.338354 0
0 0.357702 0
0.476066 0.498726 0
0.927138 0.523537 0
1 0.602243 0.011902
1 0.471427 0.256336
1 0.39736 0.446784
0 0.661799 0
0 0.663996 0
0 0.650431 0
0 0.63975 0
0 0.66952 0
0.732647 0.800977 0
0.975647 0.799268 0.0213321
1 0.626078 0.183642
1 0.594919 0.402182
0 0.932113 0.588602
0 0.939651 0.634424
0 0.924025 0.559731
0 0.901503 0.447974
0 0.874586 0.338369
0 0.801007 0
0.923461 0.894408 0.18674
0.970413 0.819425 0.214206
0.965805 0.791897 0.405966
0 0.910918 0.315053
0 0.883604 0.120867
0 0.879103 0.0950637
0 0.884611 0.12253
0 0.888243 0.144198
0 0.897459 0.219409
0 0.827329 0
0.959304 0.921447 0.359075
0.944396 0.907942 0.645212
0.00500496 0.985687 0.980652
0.00495918 0.985656 0.980636
0.0145724 0.983215 0.979416
0.019089 0.982071 0.978866
0.0276493 0.979919 0.977203
0.180835 0.980209 0.96965
0.569406 0.899306 0.796857
0.938811 0.905821 0.692302
0.942824 0.906508 0.676555
0 0.007187 0.0949416
0 0.00709545 0.0816358
0.0394903 0 0.074815
0.280003 0 0.0479133
0.628794 0 0
0.993912 0.0338293 0.0558785
1 0 0.329091
1 0.0254063 0.546334
1 0.235462 0.649653
0 0.0150759 0.0756085
0 0.0118868 0.0671702
0.00888075 0.00450141 0.0641642
0.233661 0 0.0361028
0.59997 0 0
0.993149 0.0400549 0.0533913
1 0 0.341253
1 0.100771 0.578531
1 0.262867 0.630564
0 0.0602274 0.0800336
0 0.0518654 0.0694438
0 0.0470436 0.0527504
0.203967 0.0362707 0.0319219
0.592035 0.00747692 0.00611887
0.974075 0.0284428 0.0128328
1 0.0308995 0.252583
1 0.135271 0.505684
1 0.28925 0.611124
0 0.196307 0.0826581
0 0.183581 0.0738994
0 0.173434 0.0568551
0.12694 0.194186 0.0233158
0.586206 0.194736 0
0.975128 0.234211 0
1 0.384955 0.119615
1 0.258732 0.341131
1 0.341741 0.548043
0 0.353368 0
0 0.350835 0
0 0.339406 0
0 0.340291 0
0.43389 0.459297 0
0.904555 0.48716 0
1 0.591165 0.0466011
1 0.499443 0.252735
1 0.466026 0.44831
0 0.653513 0
0 0.65684 0
0 0.631464 0
0 0.613397 0
0 0.623285 0
0.698009 0.779263 0
0.974273 0.793988 0.0510109
0.999649 0.656596 0.204318
0.998734 0.634562 0.413397
0 0.936248 0.652049
0 0.943069 0.694423
0 0.926146 0.626932
0 0.90222 0.517021
0 0.874632 0.40293
0 0.792401 0
0.921324 0.891661 0.225986
0.967559 0.83061 0.253132
0.962325 0.804593 0.430442
0 0.912184 0.329091
0 0.885679 0.144396
0 0.888624 0.163394
0 0.896544 0.213931
0 0.89807 0.223682
0 0.904311 0.275486
0 0.817639 0
0.958068 0.920333 0.380056
0.943969 0.90753 0.65449
0.014374 0.983307 0.979461
0.0169375 0.982635 0.979141
0.0249943 0.980575 0.97763
0.0293584 0.979492 0.976959
0.0386664 0.977157 0.975738
0.237385 0.975036 0.963119
0.594339 0.904646 0.814878
0.938796 0.905531 0.697978
0.94258 0.906294 0.681773
0 0 0.297276
0 0 0.275563
0.0410925 0 0.252461
0.273442 0 0.220951
0.613336 0 0.206058
0.962539 0 0.239811
1 0 0.481422
1 0.0225681 0.596124
1 0.251637 0.662013
0 0.022446 0.263676
0 0.016144 0.24036
0.00556954 0.00537118 0.221592
0.219059 0 0.195773
0.579126 0 0.182681
0.957443 0 0.227359
1 0 0.50573
1 0.0933547 0.632166
1 0.278309 0.657908
0 0.078233 0.226947
0 0.0647288 0.207385
0 0.0505989 0.19704
0.185657 0.0256962 0.190707
0.566934 0 0.165133
0.937667 0 0.146349
1 0.0360113 0.435447
1 0.134691 0.578225
1 0.308431 0.639735
0 0.198367 0.302602
0 0.179187 0.28748
0 0.162325 0.257435
0.104585 0.184054 0.186267
0.572625 0.181949 0.141115
0.96936 0.208225 0.124926
1 0.334356 0.285801
1 0.251713 0.413306
1 0.365576 0.575143
0 0.463508 0.355062
0 0.454032 0.351308
0 0.433082 0.333577
0 0.421698 0.28954
0.397894 0.434043 0.0777447
0.884199 0.454749 0.0454261
1 0.563867 0.16582
1 0.509987 0.301244
1 0.496803 0.469795
0 0.748043 0.294347
0 0.752178 0.326436
0 0.718227 0.26978
0 0.689357 0.2215
0 0.558679 0
0.648066 0.743374 0.0235142
0.973068 0.773419 0.150881
0.994827 0.674586 0.256138
0.992081 0.66511 0.435294
0 0.951247 0.791516
0 0.954376 0.821118
0 0.939376 0.778607
0 0.91841 0.713024
0 0.892866 0.62948
0 0.748501 0
0.909789 0.88246 0.282307
0.965133 0.83621 0.288334
0.958663 0.824704 0.453956
0 0.924941 0.431006
0 0.904799 0.286839
0 0.91548 0.36141
0 0.926482 0.442191
0 0.92903 0.457099
0 0.929366 0.457908
0 0.811933 0
0.956695 0.919097 0.404273
0.943709 0.907271 0.659419
0.0198215 0.981918 0.97879
0.0251926 0.980545 0.977615
0.0317388 0.978882 0.976654
0.0362249 0.977768 0.976089
0.0451209 0.975525 0.975189
0.348775 0.963668 0.949615
0.607782 0.904891 0.815702
0.938476 0.905379 0.70135
0.942443 0.906157 0.684947
0 0 0.606729
0 0 0.576928
0.0203708 0 0.530159
0.298604 0 0.489952
0.627131 0 0.501671
0.962036 0 0.594903
1 0.0059968 0.737057
1 0.0603494 0.712963
1 0.274342 0.708949
0 0.0150912 0.572854
0 0.00729381 0.537942
0 0 0.493156
0.252659 0 0.454612
0.589319 0 0.467765
0.954742 0 0.581613
1 0.0271916 0.770138
1 0.140551 0.735851
1 0.307973 0.720623
0 0.0972305 0.513069
0 0.0816815 0.486305
0 0.0586557 0.447669
0.207477 0.0247807 0.43949
0.550973 0 0.435096
0.926421 0 0.495125
1 0.104372 0.721813
1 0.179019 0.706462
1 0.339406 0.711208
0 0.275227 0.480339
0 0.260822 0.462181
0 0.224506 0.423606
0.0859693 0.206165 0.440665
0.546731 0.1579 0.449973
0.950439 0.150546 0.450431
1 0.273503 0.57435
1 0.284672 0.610193
1 0.391821 0.658701
0 0.464652 0.694652
0 0.452842 0.681651
0 0.418326 0.642496
0 0.395239 0.619242
0.373648 0.422644 0.410452
0.860273 0.430503 0.337911
1 0.528771 0.417365
1 0.487572 0.432776
1 0.479042 0.54847
0 0.788235 0.769665
0 0.785275 0.775845
0 0.754879 0.733806
0 0.728481 0.699489
0 0.708675 0.531289
0.571572 0.687526 0.247578
0.962875 0.738308 0.356863
0.990188 0.679423 0.3841
0.98645 0.684916 0.497292
0 0.949386 0.918776
0 0.947127 0.931701
0 0.934005 0.909819
0 0.917647 0.87512
0 0.902602 0.830396
0 0.707652 0.100786
0.893431 0.866087 0.403754
0.961715 0.832395 0.36524
0.954452 0.836149 0.507958
0 0.949767 0.632822
0 0.938216 0.535042
0 0.949538 0.628229
0 0.963149 0.717006
0 0.968383 0.742641
0 0.96759 0.733562
0 0.807431 0.0295109
0.954437 0.917037 0.443259
0.942809 0.906447 0.676631
0.0336004 0.978469 0.976455
0.0407416 0.976638 0.975616
0.0474861 0.97496 0.97496
0.0531319 0.973526 0.974441
0.0612955 0.971542 0.97351
0.443671 0.951537 0.936584
0.644999 0.903853 0.821012
0.938277 0.904891 0.710765
0.942016 0.905776 0.693889
0 0.324269 0.883299
0 0.300435 0.878706
0 0.216983 0.873732
0.378485 0.114473 0.867582
0.718776 0.0266728 0.852949
0.98085 0.0304112 0.883177
1 0.213092 0.92668
1 0.200305 0.840192
1 0.322728 0.791836
0 0.318929 0.8766
0 0.294179 0.871321
0 0.212177 0.858885
0.347097 0.123873 0.857053
0.70898 0.0495003 0.851255
0.989837 0.0588235 0.889845
1 0.275669 0.924849
1 0.264088 0.84445
1 0.365759 0.817716
0 0.309514 0.851041
0 0.290318 0.843748
0 0.216449 0.811627
0.231128 0.153674 0.81384
0.633005 0.0914473 0.81915
0.96466 0.0820325 0.85539
1 0.281788 0.901884
1 0.290303 0.834516
1 0.393988 0.821607
0 0.406271 0.826108
0 0.399863 0.819089
0 0.340185 0.786053
0.040116 0.302312 0.777737
0.527092 0.241886 0.776928
0.916426 0.209445 0.804227
1 0.353155 0.851453
1 0.358114 0.792782
1 0.434272 0.788708
0 0.604944 0.794476
0 0.602441 0.789837
0 0.550484 0.762341
0 0.507759 0.736217
0.327733 0.469368 0.740154
0.814038 0.420081 0.736645
1 0.505318 0.755566
1 0.47361 0.698543
1 0.510582 0.724636
0 0.749767 0.928481
0 0.74902 0.928267
0 0.719417 0.915084
0 0.68571 0.894377
0.156024 0.687739 0.851087
0.609125 0.686778 0.683406
0.955367 0.710552 0.630335
0.989013 0.662669 0.59382
0.984115 0.680659 0.622812
0 0.910704 0.957275
0 0.909712 0.957031
0 0.89691 0.953841
0 0.881102 0.949538
0 0.873472 0.935271
0.416846 0.86128 0.775616
0.86949 0.843259 0.6065
0.956054 0.818051 0.54313
0.949401 0.839826 0.623133
0 0.982025 0.845914
0 0.979232 0.815076
0 0.984237 0.854383
0 0.989761 0.895994
0 0.993027 0.912612
0 0.994141 0.914199
0 0.814176 0.253574
0.949065 0.912169 0.550591
0.940673 0.904555 0.723201
0.0679332 0.969924 0.972946
0.0753338 0.968002 0.972229
0.0855879 0.965377 0.971206
0.0928664 0.963516 0.970275
0.0984207 0.962142 0.96965
0.532464 0.939605 0.924269
0.736446 0.908278 0.869139
0.937911 0.903578 0.742443
0.94078 0.904662 0.721279
0 0.672801 0.91548
0 0.67335 0.919402
0.0237278 0.631418 0.923919
0.290242 0.56054 0.923629
0.626307 0.486152 0.91873
0.93489 0.447135 0.927916
1 0.477363 0.950942
1 0.37145 0.925399
1 0.410422 0.894591
0 0.67747 0.914458
0 0.676738 0.917922
0.025803 0.63209 0.922957
0.30782 0.561212 0.922393
0.640681 0.492866 0.917586
0.940749 0.466911 0.928176
1 0.505547 0.950103
1 0.411246 0.936309
1 0.466117 0.920501
0 0.644068 0.902113
0 0.645579 0.902602
0 0.59234 0.906035
0.201907 0.526192 0.917601
0.587915 0.458762 0.911437
0.914656 0.430289 0.917845
1 0.485145 0.943587
1 0.420127 0.928832
1 0.492073 0.925826
0 0.651637 0.893095
0 0.657755 0.891783
0 0.603189 0.890257
0.0416724 0.555337 0.906874
0.494514 0.48452 0.900069
0.860456 0.445258 0.900328
1 0.493217 0.92639
1 0.452338 0.912871
1 0.514488 0.913787
0 0.726879 0.881834
0 0.736736 0.880919
0 0.699702 0.87422
0 0.659907 0.874601
0.332494 0.606165 0.883207
0.754604 0.551873 0.877333
0.990188 0.569116 0.898207
1 0.534478 0.888609
1 0.569787 0.890394
0 0.76556 0.929702
0 0.759808 0.934005
0 0.752682 0.929107
0 0.747768 0.917311
0.0928054 0.787884 0.870848
0.601709 0.72549 0.85069
0.940169 0.700587 0.855161
0.988602 0.650721 0.848981
0.98114 0.681468 0.846143
0.0403143 0.864332 0.949081
0.0508888 0.871336 0.950561
0.0372931 0.861814 0.948745
0.0162814 0.844434 0.945159
0.221027 0.843 0.939666
0.59707 0.837934 0.909483
0.857389 0.830076 0.814542
0.956085 0.802335 0.759915
0.946899 0.842481 0.787533
0 0.987579 0.973068
0 0.988983 0.976059
0.00334173 0.985702 0.976196
0.0146639 0.982986 0.976211
0.0215763 0.981399 0.977417
0.0294652 0.979416 0.976898
0.564813 0.933455 0.894514
0.939818 0.903792 0.742443
0.937499 0.900725 0.794949
0.152819 0.950057 0.96286
0.158251 0.948867 0.962112
0.168612 0.946731 0.960769
0.174441 0.945571 0.960037
0.345968 0.938262 0.943648
0.623194 0.924895 0.912612
0.808789 0.907622 0.893477
0.935134 0.899733 0.808026
0.937682 0.901152 0.78996
0.352712 0.799649 0.927581
0.413748 0.820813 0.925322
0.399359 0.79411 0.925658
0.427298 0.749981 0.925429
0.550134 0.705989 0.922408
0.792294 0.658564 0.920119
0.988479 0.638224 0.937087
1 0.484138 0.97052
1 0.556069 0.955871
0.405707 0.821622 0.925856
0.436759 0.829694 0.924208
0.43035 0.804807 0.923858
0.462852 0.756374 0.923293
0.592477 0.713176 0.919631
0.844327 0.673228 0.918685
0.989197 0.662531 0.932708
1 0.557855 0.95555
0.992889 0.649836 0.935958
0.318441 0.791226 0.928527
0.362066 0.804013 0.92723
0.337575 0.765026 0.928466
0.407294 0.718151 0.928206
0.568154 0.682719 0.923888
0.829908 0.646006 0.922286
0.994629 0.643442 0.937438
1 0.518105 0.96379
0.981979 0.68983 0.926436
0.199008 0.774685 0.931762
0.241062 0.786114 0.930648
0.220478 0.753216 0.931579
0.323827 0.719387 0.930785
0.526635 0.684977 0.925277
0.788739 0.647166 0.921752
0.984527 0.63566 0.936614
1 0.514809 0.96466
0.983536 0.683146 0.92781
0.0832837 0.78912 0.933455
0.120195 0.807446 0.933913
0.10042 0.790036 0.933486
0.212772 0.76466 0.930861
0.462165 0.729702 0.924407
0.725765 0.690364 0.917449
0.965255 0.670375 0.927352
1 0.5552 0.956054
0.978149 0.70219 0.92311
0 0.836851 0.928588
0.00276188 0.860609 0.934844
0 0.85391 0.933089
0.0769818 0.841947 0.936233
0.355749 0.810101 0.924483
0.632609 0.771191 0.912245
0.922606 0.735256 0.910887
0.992004 0.653101 0.935149
0.958602 0.770321 0.906096
0.0346075 0.816205 0.94313
0.096437 0.834104 0.945022
0.105379 0.837507 0.945129
0.14023 0.847868 0.944732
0.258869 0.89099 0.942931
0.514092 0.876585 0.917418
0.837369 0.830274 0.89366
0.95227 0.795956 0.900587
0.939864 0.862852 0.888731
0.237049 0.93521 0.952728
0.241321 0.934432 0.952209
0.242771 0.934142 0.952026
0.241932 0.934279 0.952117
0.240421 0.934569 0.9523
0.268528 0.933303 0.949493
0.744259 0.910277 0.89926
0.93547 0.893645 0.873274
0.936187 0.894347 0.870253
0.516991 0.922164 0.922789
0.531029 0.921248 0.920913
0.578027 0.919615 0.916014
0.603845 0.919036 0.913542
0.640726 0.917372 0.909651
0.721233 0.912139 0.901534
0.844572 0.900343 0.890547
0.930556 0.896803 0.875837
0.935851 0.896788 0.868925
0.391363 0.827375 0.926452
0.419333 0.827329 0.925017
0.43624 0.826596 0.924163
0.473457 0.822766 0.921004
0.550958 0.81384 0.915282
0.713451 0.794278 0.905272
0.921187 0.773754 0.903212
0.971176 0.726604 0.917037
0.941588 0.851698 0.891295
0.408576 0.829862 0.925597
0.424979 0.829175 0.924681
0.446586 0.827497 0.923186
0.500816 0.821988 0.919158
0.599878 0.810376 0.911894
0.804379 0.785931 0.90161
0.957794 0.774533 0.905394
0.966293 0.743664 0.91281
0.941253 0.853544 0.891005
0.412467 0.831586 0.925551
0.426566 0.831998 0.924941
0.451301 0.830427 0.923018
0.51165 0.824048 0.918105
0.617761 0.812039 0.91043
0.821576 0.787839 0.900923
0.957412 0.776074 0.905074
0.961791 0.759258 0.908858
0.941009 0.855161 0.890791
0.409277 0.837018 0.925917
0.418189 0.839887 0.925292
0.441367 0.840375 0.924193
0.501045 0.834821 0.919036
0.598016 0.823575 0.911742
0.791348 0.799725 0.900694
0.952544 0.78645 0.902525
0.961776 0.75935 0.908858
0.94081 0.857954 0.890623
0.387686 0.84979 0.927291
0.395956 0.857786 0.927413
0.414878 0.86128 0.926711
0.473594 0.85626 0.922118
0.569314 0.84477 0.913436
0.746349 0.820859 0.900938
0.930571 0.802533 0.898177
0.956985 0.778012 0.904692
0.939635 0.864576 0.888609
0.334798 0.879744 0.933257
0.344045 0.893111 0.934707
0.356542 0.89987 0.935225
0.422141 0.89369 0.929381
0.524117 0.88043 0.918395
0.687892 0.857328 0.903456
0.901961 0.832593 0.893721
0.94728 0.819577 0.896254
0.938933 0.874891 0.885069
0.470588 0.860029 0.922667
0.503365 0.863554 0.919783
0.473091 0.874464 0.922896
0.506035 0.87808 0.919875
0.589136 0.878553 0.912139
0.691585 0.884291 0.902998
0.850187 0.882338 0.889128
0.938933 0.871839 0.88603
0.937636 0.88629 0.880781
0.24477 0.933928 0.951858
0.24477 0.933928 0.951858
0.319783 0.930343 0.944198
0.463676 0.924361 0.929122
0.564782 0.919738 0.917433
0.681254 0.915099 0.905806
0.847807 0.900023 0.890272
0.936751 0.894514 0.877211
0.93695 0.894011 0.876997
0.744732 0.91017 0.899275
0.744839 0.91014 0.899245
0.75172 0.909239 0.898314
0.756161 0.908843 0.897887
0.76968 0.907454 0.896635
0.807599 0.903853 0.893416
0.874479 0.897795 0.888548
0.935668 0.895964 0.880171
0.935973 0.896483 0.875639
