app/public/assets/luts/videowien.cube
TITLE "Generated by Resolve"
LUT_3D_SIZE 9
0.0285954 0.0408942 0.0388952
0.0285954 0.0408942 0.0388952
0.0363928 0.0408026 0.0395972
0.191592 0.0422675 0.0407263
0.387182 0.0439612 0.0398871
0.564462 0.0699474 0.0987869
0.719203 0.124865 0.21474
0.754131 0.130541 0.361028
0.744198 0.111696 0.554803
0.028687 0.0408331 0.0386206
0.0285801 0.0409247 0.0390326
0.0303349 0.0409247 0.0392157
0.120775 0.048188 0.0426795
0.347875 0.0465095 0.0372473
0.546883 0.0518807 0.0616617
0.698009 0.112215 0.180621
0.752575 0.129396 0.356878
0.740948 0.109789 0.560815
0.0287938 0.0409552 0.038407
0.0287785 0.0411841 0.0386053
0.0295567 0.0415808 0.038941
0.0943618 0.0582742 0.0472572
0.319493 0.0536507 0.0385901
0.554864 0.0502174 0.0753185
0.672374 0.0910964 0.150286
0.750622 0.129152 0.345525
0.745037 0.111788 0.553567
0.0274357 0.134493 0.0710155
0.0284276 0.130724 0.0607919
0.0447242 0.12163 0.0571756
0.137652 0.141894 0.0521248
0.358801 0.139483 0.0568093
0.56408 0.0874342 0.0754406
0.640894 0.0713512 0.104891
0.743053 0.125963 0.313085
0.748775 0.117708 0.546456
0.0232853 0.304768 0.110338
0.022385 0.325002 0.0586404
0.0225223 0.327199 0.0554208
0.0271153 0.322621 0.0545357
0.342855 0.350881 0.0359503
0.668299 0.356085 0.133272
0.777554 0.269047 0.197314
0.679057 0.0962234 0.160128
0.758114 0.125856 0.437995
0.0397192 0.552209 0.264271
0.0459907 0.577203 0.253544
0.0533608 0.599176 0.244968
0.0704356 0.626307 0.189319
0.104326 0.63357 0.139483
0.605753 0.64242 0.136034
0.887495 0.655222 0.278981
0.884215 0.586053 0.274205
0.868711 0.510826 0.263172
0.188663 0.817121 0.575662
0.19353 0.824704 0.574746
0.198627 0.831571 0.574746
0.206836 0.842191 0.565988
0.222812 0.85977 0.508263
0.326955 0.851209 0.284596
0.863706 0.885115 0.345113
0.962509 0.891768 0.399817
0.967056 0.904021 0.42031
0.259068 0.867155 0.772442
0.258564 0.867445 0.772671
0.256214 0.867979 0.772564
0.255634 0.867842 0.770077
0.254246 0.868879 0.757839
0.242313 0.872099 0.663951
0.637278 0.920424 0.460212
0.982879 0.952178 0.552331
0.986618 0.955154 0.581842
0.27187 0.867796 0.837415
0.271595 0.867903 0.836545
0.27129 0.867842 0.834607
0.269627 0.867704 0.829831
0.266697 0.867292 0.813352
0.259831 0.874052 0.72372
0.784054 0.944564 0.617227
0.990662 0.962692 0.654307
0.989807 0.962798 0.666438
0.0285954 0.0408942 0.0388037
0.0285954 0.0408942 0.0388037
0.0560159 0.0414893 0.0483406
0.244877 0.0436866 0.135973
0.448631 0.0491035 0.166049
0.615442 0.0749676 0.190448
0.727779 0.115236 0.264073
0.757595 0.127611 0.411933
0.736278 0.106996 0.568658
0.0285954 0.0408942 0.0388037
0.0285954 0.0408942 0.0389258
0.0526284 0.0410773 0.0406043
0.232212 0.0428016 0.0486152
0.436637 0.0491188 0.0713817
0.616129 0.082887 0.144671
0.727672 0.120531 0.248646
0.757916 0.12668 0.428229
0.735439 0.106477 0.569726
0.0289006 0.0504311 0.0465705
0.0290532 0.0518654 0.0437324
0.0371405 0.0496834 0.0428779
0.151186 0.0559701 0.0463874
0.405127 0.0445869 0.0449531
0.578592 0.0548409 0.0869306
0.717464 0.120073 0.218341
0.756573 0.12726 0.414496
0.740169 0.108995 0.562402
0.0247196 0.158145 0.133181
0.0266423 0.171328 0.082826
0.0290227 0.166674 0.0605173
0.152789 0.16199 0.05066
0.403998 0.133089 0.0608682
0.577676 0.0747692 0.0831159
0.669123 0.0880903 0.147051
0.75288 0.12755 0.37731
0.745418 0.114977 0.55462
0.0232853 0.308751 0.175296
0.0229191 0.336629 0.126726
0.0223697 0.356619 0.0741436
0.0226444 0.357488 0.0554818
0.350088 0.367514 0.0370947
0.690883 0.351965 0.147143
0.758297 0.23505 0.184863
0.71284 0.112123 0.229389
0.758419 0.124392 0.46836
0.0404669 0.552819 0.307759
0.0513771 0.59443 0.309346
0.0583047 0.614435 0.299214
0.0727703 0.643824 0.269978
0.117128 0.661082 0.160861
0.61416 0.654566 0.14522
0.890196 0.656306 0.282048
0.878447 0.558343 0.269764
0.853376 0.470909 0.25214
0.193484 0.820905 0.595087
0.216541 0.847272 0.626444
0.219821 0.851652 0.624002
0.221546 0.855802 0.610071
0.224994 0.863539 0.546609
0.311391 0.850904 0.29926
0.87303 0.891188 0.352117
0.963638 0.894484 0.402335
0.967285 0.904326 0.421668
0.259922 0.866941 0.776394
0.262821 0.866835 0.790265
0.260319 0.867628 0.789181
0.259358 0.867567 0.786221
0.257694 0.867918 0.773831
0.247379 0.871443 0.697047
0.632685 0.922057 0.478706
0.984009 0.953292 0.56083
0.987045 0.955566 0.585397
0.272786 0.867597 0.838132
0.272572 0.867628 0.837339
0.271656 0.867903 0.83563
0.270146 0.867887 0.830991
0.266911 0.867384 0.815183
0.25655 0.873213 0.724941
0.78793 0.945037 0.618906
0.990677 0.962753 0.655863
0.990005 0.963012 0.668223
0.0286412 0.0408942 0.0387427
0.0288396 0.0408942 0.0388342
0.0767376 0.0417945 0.0779431
0.251652 0.0407874 0.183337
0.454032 0.0460975 0.228748
0.631357 0.0784466 0.228428
0.735271 0.118776 0.291585
0.758755 0.12604 0.436362
0.731868 0.103639 0.57496
0.0285954 0.0408942 0.038819
0.0282292 0.0410468 0.0457008
0.0750286 0.0416571 0.0747692
0.271687 0.0439612 0.135271
0.477867 0.0532998 0.14548
0.647715 0.0902571 0.19588
0.733761 0.118212 0.285023
0.758572 0.124987 0.456916
0.729778 0.10219 0.577447
0.0281834 0.0677348 0.0699931
0.0281376 0.0666209 0.0679942
0.045304 0.0591592 0.0628519
0.205447 0.054139 0.0676585
0.452354 0.0552224 0.093019
0.634058 0.089189 0.162478
0.728679 0.119188 0.256703
0.758038 0.125795 0.444892
0.732631 0.103853 0.572763
0.0234379 0.170413 0.154284
0.0246586 0.176532 0.13991
0.0263523 0.181796 0.0948806
0.14609 0.16585 0.0611887
0.416419 0.125246 0.0672313
0.58793 0.0745861 0.0958114
0.713497 0.117922 0.211765
0.756466 0.127077 0.412421
0.739483 0.110491 0.56611
0.022858 0.310628 0.209766
0.023209 0.333471 0.174151
0.0230869 0.34789 0.136782
0.0222629 0.366415 0.0645151
0.342657 0.371496 0.0377813
0.696117 0.349401 0.150256
0.755642 0.230152 0.18349
0.732067 0.122042 0.275532
0.757534 0.123415 0.489998
0.0415503 0.555428 0.333547
0.052079 0.593851 0.341512
0.0565042 0.608179 0.327504
0.0654002 0.631525 0.305226
0.109361 0.662593 0.173312
0.611322 0.655406 0.145434
0.890028 0.655299 0.282155
0.878141 0.557153 0.26978
0.853834 0.469368 0.255451
0.198047 0.824445 0.610071
0.220508 0.849058 0.643046
0.222965 0.852689 0.63949
0.222843 0.855085 0.624369
0.223697 0.862074 0.5664
0.299336 0.853498 0.328954
0.870161 0.889876 0.356863
0.966155 0.893202 0.414252
0.969512 0.904677 0.434913
0.260914 0.866728 0.779721
0.263676 0.866773 0.79321
0.261357 0.867536 0.792355
0.260121 0.867491 0.789181
0.258579 0.867689 0.776989
0.248997 0.871229 0.705715
0.628244 0.922515 0.495216
0.984497 0.954208 0.571191
0.987427 0.956039 0.590585
0.273594 0.867597 0.840116
0.273991 0.867399 0.838788
0.273365 0.867643 0.837034
0.271443 0.867658 0.832563
0.267399 0.867292 0.817884
0.255772 0.871809 0.732662
0.775601 0.944747 0.627848
0.990936 0.963317 0.662821
0.990478 0.963699 0.675151
0.0261082 0.0402075 0.114351
0.101457 0.0396582 0.141268
0.168521 0.0392309 0.167315
0.268467 0.0377661 0.218921
0.452369 0.0399786 0.27892
0.647028 0.0834669 0.278035
0.74641 0.127001 0.329458
0.758968 0.124376 0.470649
0.726635 0.100404 0.586236
0.0272984 0.0426795 0.0684062
0.0246433 0.0401007 0.153567
0.139483 0.0383459 0.208637
0.280934 0.0377508 0.230808
0.487877 0.0473793 0.241779
0.666362 0.0903639 0.24506
0.745327 0.125841 0.327321
0.757626 0.123339 0.488853
0.726574 0.100694 0.587243
0.0237125 0.103548 0.123049
0.0231785 0.090486 0.142184
0.0369116 0.0620127 0.174609
0.225147 0.047425 0.196231
0.487541 0.051133 0.204028
0.663233 0.0915541 0.21973
0.737301 0.120195 0.298619
0.7579 0.123919 0.479164
0.727245 0.100359 0.58381
0.0215763 0.179187 0.180255
0.0213626 0.183795 0.183322
0.0214084 0.182986 0.182193
0.140398 0.168627 0.176684
0.43801 0.147463 0.166003
0.649134 0.110948 0.190661
0.729412 0.119432 0.25977
0.758434 0.125322 0.454139
0.729824 0.102708 0.577585
0.0220035 0.312718 0.242802
0.0224765 0.331777 0.234775
0.0230869 0.340108 0.21413
0.0233005 0.348882 0.165331
0.328298 0.372885 0.131518
0.720272 0.358862 0.222004
0.794797 0.259174 0.252049
0.744976 0.126238 0.327184
0.754665 0.121401 0.518853
0.0439155 0.559869 0.372686
0.0547951 0.596338 0.383673
0.0577707 0.607034 0.372763
0.061387 0.619791 0.347173
0.0823224 0.646876 0.235523
0.603082 0.650568 0.162585
0.905501 0.652506 0.318227
0.903563 0.561257 0.322103
0.893553 0.486091 0.333989
0.205188 0.827817 0.634104
0.225528 0.850187 0.662928
0.226642 0.852995 0.657832
0.224811 0.853651 0.642817
0.22295 0.85948 0.593301
0.279118 0.859083 0.391379
0.868269 0.894362 0.380133
0.971252 0.893828 0.442786
0.975006 0.904219 0.463905
0.262898 0.866407 0.786114
0.265599 0.866621 0.798795
0.263111 0.867338 0.797589
0.262104 0.867353 0.794278
0.260716 0.86717 0.782254
0.251209 0.870619 0.718059
0.622873 0.923064 0.519402
0.985092 0.955367 0.587259
0.987625 0.957366 0.609796
0.276219 0.867369 0.844541
0.275914 0.867399 0.843275
0.275792 0.867384 0.84155
0.273716 0.86743 0.837339
0.26978 0.867094 0.824018
0.257389 0.869688 0.749172
0.76202 0.945006 0.660945
0.990967 0.965255 0.690089
0.991287 0.965835 0.705791
0.017258 0.0439612 0.287373
0.176303 0.0394293 0.337331
0.273198 0.0385443 0.34609
0.357366 0.0384833 0.35639
0.471336 0.0401617 0.367544
0.652369 0.0749371 0.391348
0.758068 0.126116 0.433875
0.750927 0.118364 0.53666
0.724926 0.103578 0.612161
0.0170748 0.0575113 0.231632
0.0134432 0.0460822 0.342489
0.0954452 0.0425727 0.390555
0.299458 0.0396277 0.405203
0.491341 0.0416419 0.391821
0.684016 0.0893568 0.38999
0.758022 0.125795 0.440223
0.745357 0.114366 0.549691
0.724926 0.103578 0.611902
0.0154269 0.131044 0.237736
0.0123598 0.0889296 0.295354
0.0144656 0.0589761 0.330343
0.182284 0.0419165 0.370825
0.482383 0.0413519 0.389151
0.688762 0.0927138 0.38323
0.757137 0.126513 0.428244
0.745281 0.114549 0.549264
0.725444 0.103716 0.611917
0.0169528 0.202564 0.24979
0.0144808 0.189593 0.282597
0.0128328 0.171405 0.306874
0.0770733 0.152087 0.336126
0.431342 0.105684 0.363012
0.681773 0.105211 0.351064
0.756146 0.127764 0.403876
0.750042 0.117311 0.535439
0.724971 0.103044 0.608072
0.0193942 0.317281 0.305348
0.019501 0.330953 0.317357
0.0197147 0.333379 0.319478
0.0196994 0.332311 0.317876
0.335103 0.378576 0.370184
0.770459 0.3906 0.393362
0.847944 0.291737 0.386297
0.757946 0.124895 0.464668
0.732738 0.105608 0.57583
0.0475471 0.55938 0.439033
0.0597086 0.592309 0.462074
0.062562 0.60145 0.462058
0.0644388 0.609491 0.453452
0.0647898 0.611505 0.389685
0.578836 0.658122 0.34342
0.95877 0.673808 0.455955
0.961975 0.596796 0.462272
0.948516 0.523415 0.482307
0.213779 0.82707 0.675914
0.2309 0.845014 0.696956
0.231144 0.846418 0.693523
0.231907 0.849424 0.687816
0.229267 0.855055 0.655802
0.27776 0.871855 0.517723
0.852308 0.901518 0.449409
0.986023 0.892958 0.51693
0.985931 0.903319 0.544045
0.269078 0.865705 0.800931
0.271763 0.86595 0.811841
0.26894 0.866728 0.810666
0.266804 0.866972 0.807614
0.265522 0.866758 0.796689
0.257755 0.868132 0.744762
0.631266 0.925566 0.598321
0.986175 0.959274 0.645884
0.988067 0.961669 0.67274
0.282002 0.867658 0.85275
0.281819 0.867582 0.852262
0.281376 0.867552 0.850996
0.279744 0.867399 0.848188
0.27689 0.866789 0.838712
0.263081 0.866194 0.776577
0.765499 0.948653 0.735744
0.99266 0.970184 0.746456
0.993713 0.970871 0.763302
0.0131838 0.0527352 0.462501
0.069398 0.0507973 0.513039
0.200046 0.0478676 0.551308
0.313771 0.0480354 0.566918
0.490318 0.0535744 0.56434
0.648386 0.0744945 0.545998
0.73022 0.104555 0.586831
0.723445 0.105516 0.626337
0.715389 0.113207 0.682826
0.0099794 0.0803845 0.424842
0.0115053 0.0559091 0.476921
0.0243992 0.0557565 0.507073
0.173068 0.0519875 0.575723
0.458015 0.0561074 0.596109
0.664942 0.0819409 0.568765
0.726925 0.103609 0.598581
0.722225 0.107073 0.637522
0.71519 0.11339 0.68368
0.0102846 0.138979 0.433158
0.0110628 0.103136 0.483284
0.0115053 0.0882887 0.494591
0.0555886 0.062501 0.514015
0.37435 0.0513313 0.567803
0.658808 0.0811017 0.571847
0.726406 0.103792 0.600427
0.720623 0.107851 0.644419
0.714733 0.114183 0.688518
0.0113832 0.21387 0.440848
0.012192 0.197162 0.489906
0.0131075 0.18407 0.510063
0.0209201 0.158206 0.512734
0.324544 0.115114 0.595819
0.638773 0.0901198 0.557961
0.727108 0.103929 0.598596
0.721691 0.10753 0.641245
0.71426 0.114015 0.687785
0.0192264 0.363928 0.449821
0.0220035 0.376501 0.485893
0.0229191 0.374517 0.500175
0.0235599 0.367147 0.517281
0.210208 0.365332 0.577188
0.702724 0.299168 0.639368
0.852613 0.258396 0.625895
0.723552 0.10547 0.622126
0.717556 0.11133 0.669444
0.0671702 0.576364 0.563241
0.0810407 0.603082 0.590723
0.0835584 0.607904 0.59556
0.0839094 0.608316 0.596338
0.0800793 0.597025 0.582925
0.592981 0.650706 0.652262
0.988937 0.678569 0.700969
0.988037 0.563363 0.699641
0.955779 0.460746 0.717617
0.22327 0.81973 0.732891
0.236469 0.833265 0.748241
0.238117 0.835492 0.74934
0.239322 0.838285 0.749203
0.238422 0.840925 0.739528
0.261738 0.840223 0.676143
0.845426 0.901091 0.670375
0.991073 0.891478 0.715206
0.989364 0.901762 0.745617
0.278706 0.866056 0.832349
0.280781 0.86659 0.839933
0.278691 0.867048 0.839429
0.276875 0.867109 0.837781
0.276249 0.866575 0.831159
0.268772 0.865568 0.793805
0.674907 0.938674 0.753658
0.991608 0.971038 0.772671
0.992554 0.973541 0.795193
0.294606 0.875792 0.877485
0.295308 0.876219 0.878645
0.29424 0.875486 0.876982
0.290517 0.872984 0.871565
0.287221 0.869535 0.862928
0.276051 0.864637 0.82562
0.783703 0.959014 0.853697
0.991241 0.980758 0.844892
0.991379 0.982025 0.857282
0.0151217 0.100099 0.555673
0.0157015 0.0918898 0.564095
0.0233768 0.0922408 0.574029
0.0833295 0.10219 0.621027
0.284413 0.112535 0.691096
0.577569 0.116396 0.70106
0.728481 0.135119 0.705455
0.707576 0.119387 0.721187
0.705669 0.118761 0.722805
0.0246586 0.224277 0.609598
0.0299077 0.241566 0.637705
0.0313573 0.246983 0.643977
0.0463417 0.235752 0.653117
0.259464 0.230442 0.751522
0.605493 0.195651 0.767376
0.754131 0.168627 0.726452
0.707652 0.12018 0.722438
0.705623 0.118807 0.722896
0.0304875 0.277775 0.625605
0.0373541 0.30045 0.655543
0.0392157 0.305699 0.662455
0.0432593 0.295033 0.660945
0.248768 0.300633 0.772702
0.616007 0.247166 0.802487
0.78732 0.2112 0.749142
0.71191 0.125963 0.72607
0.705333 0.118807 0.722896
0.0387579 0.340719 0.643336
0.0474556 0.365667 0.673518
0.0497139 0.368414 0.680568
0.0471962 0.355688 0.672923
0.230884 0.362966 0.778546
0.618708 0.302464 0.833631
0.825803 0.261906 0.776165
0.725887 0.141787 0.733028
0.706508 0.120592 0.724422
0.0607156 0.464469 0.667094
0.0728771 0.48986 0.696086
0.0749218 0.48867 0.704051
0.0748455 0.484489 0.706752
0.174807 0.474845 0.753216
0.602716 0.437049 0.881346
0.884031 0.362036 0.824475
0.812741 0.243961 0.777188
0.746563 0.170397 0.75201
0.123583 0.641489 0.711299
0.139391 0.662715 0.733486
0.14052 0.662974 0.736522
0.14229 0.663645 0.741665
0.133013 0.645136 0.731441
0.524315 0.674205 0.851789
0.926452 0.600031 0.88426
0.945418 0.512734 0.874311
0.934005 0.492302 0.884062
0.249516 0.825238 0.818433
0.260716 0.837247 0.831144
0.262638 0.838422 0.832578
0.262501 0.83949 0.833692
0.261295 0.838453 0.832364
0.283879 0.814206 0.80444
0.863447 0.896056 0.901579
0.986068 0.893751 0.916594
0.984161 0.89662 0.933211
0.299367 0.875181 0.876173
0.302144 0.87715 0.880873
0.300999 0.877485 0.881468
0.298695 0.877653 0.881987
0.297917 0.876936 0.880079
0.289876 0.869978 0.861402
0.705974 0.936324 0.898939
0.989944 0.988388 0.932006
0.992172 0.989349 0.94052
0.301244 0.879561 0.885557
0.301335 0.879561 0.885527
0.301472 0.879377 0.885542
0.301244 0.879393 0.885634
0.302373 0.879255 0.885222
0.296925 0.8701 0.870115
0.799786 0.952712 0.945037
0.99234 0.990265 0.958938
0.99295 0.990936 0.963027
0.0862287 0.494285 0.74165
0.0823529 0.487358 0.736767
0.0853895 0.492592 0.736171
0.139147 0.518975 0.770428
0.289174 0.556222 0.847868
0.573495 0.564248 0.941924
0.885267 0.509926 0.919188
0.926497 0.475639 0.896513
0.925841 0.489494 0.900649
0.102083 0.546517 0.75169
0.11281 0.581033 0.752834
0.117189 0.587716 0.752682
0.181552 0.610513 0.78764
0.321904 0.634684 0.853101
0.605615 0.631128 0.942626
0.905211 0.567208 0.928191
0.936446 0.514839 0.907927
0.934142 0.520195 0.910079
0.110658 0.571191 0.755978
0.123064 0.607401 0.757687
0.128283 0.612406 0.757687
0.189624 0.634806 0.789303
0.329702 0.653391 0.852903
0.617761 0.659983 0.940841
0.912306 0.600534 0.933791
0.941772 0.555383 0.918898
0.939925 0.551614 0.917861
0.122362 0.601755 0.76112
0.135241 0.634165 0.763302
0.140185 0.63653 0.763088
0.184466 0.648585 0.784909
0.332021 0.673121 0.851514
0.622232 0.683742 0.937713
0.917464 0.626062 0.937728
0.947799 0.58175 0.923033
0.943206 0.577783 0.923674
0.146746 0.653681 0.773617
0.155566 0.673442 0.773724
0.153567 0.669444 0.771023
0.168276 0.673426 0.775753
0.319249 0.706554 0.843305
0.618494 0.723476 0.926482
0.916991 0.676966 0.945769
0.952499 0.631785 0.932311
0.951171 0.63006 0.933898
0.198154 0.740795 0.8038
0.204593 0.750637 0.806943
0.202564 0.747448 0.804028
0.196521 0.739696 0.797604
0.245472 0.747951 0.814511
0.581735 0.784222 0.908675
0.904845 0.780438 0.962127
0.96611 0.742351 0.951339
0.965835 0.751263 0.955413
0.28127 0.853452 0.864775
0.289036 0.862379 0.871412
0.289952 0.863172 0.872251
0.289921 0.862455 0.871824
0.274403 0.846281 0.856718
0.403494 0.852934 0.8757
0.867308 0.917021 0.963607
0.983368 0.913863 0.976852
0.983444 0.923949 0.980407
0.305318 0.878447 0.884459
0.305623 0.87837 0.884352
0.305303 0.878553 0.884352
0.303883 0.878706 0.884871
0.303059 0.878996 0.885008
0.295018 0.866224 0.866041
0.757412 0.944595 0.952911
0.993317 0.991943 0.994858
0.995117 0.992401 0.995666
0.303838 0.878935 0.884733
0.303944 0.878935 0.884703
0.303822 0.87892 0.884749
0.303319 0.87892 0.884993
0.303761 0.878798 0.884886
0.33846 0.868376 0.865492
0.824048 0.957885 0.966186
0.992996 0.991913 0.994766
0.994995 0.992493 0.995697
0.187488 0.704417 0.783627
0.254307 0.726604 0.815869
0.285206 0.734356 0.82948
0.331914 0.744717 0.847608
0.448249 0.758831 0.879561
0.666743 0.773999 0.925505
0.906264 0.763287 0.961242
0.967773 0.735531 0.950103
0.959625 0.70988 0.944884
0.215442 0.72459 0.797269
0.279896 0.750469 0.827832
0.316808 0.75845 0.842573
0.358267 0.765637 0.857603
0.472801 0.774777 0.885191
0.688441 0.790036 0.928542
0.919585 0.776242 0.961639
0.968322 0.742901 0.951583
0.959564 0.711055 0.945037
0.230213 0.734661 0.805142
0.289372 0.759533 0.833036
0.323812 0.766705 0.846342
0.366018 0.772885 0.8607
0.485603 0.782437 0.887114
0.70045 0.800259 0.930037
0.92488 0.79353 0.962264
0.966674 0.752316 0.953597
0.960342 0.715831 0.946365
0.243885 0.746212 0.812757
0.294469 0.766781 0.835996
0.325795 0.772976 0.847654
0.368688 0.780133 0.861677
0.486351 0.788937 0.88777
0.703471 0.80763 0.932067
0.928634 0.801022 0.963516
0.968307 0.76083 0.953597
0.960052 0.728634 0.947906
0.241779 0.75938 0.814969
0.285634 0.776867 0.834974
0.316152 0.783871 0.846479
0.357549 0.790494 0.859327
0.473823 0.801892 0.886091
0.702495 0.820996 0.93051
0.924163 0.824292 0.964096
0.969497 0.785962 0.957336
0.966476 0.761273 0.955917
0.230488 0.78497 0.818036
0.247837 0.792935 0.82443
0.273533 0.800397 0.834318
0.312078 0.809735 0.848676
0.411765 0.82533 0.876387
0.672007 0.848325 0.926802
0.912535 0.873426 0.968551
0.972869 0.84741 0.963836
0.969207 0.840818 0.965682
0.282383 0.854994 0.859739
0.285588 0.858259 0.86157
0.281529 0.852491 0.85452
0.277668 0.847791 0.848234
0.298131 0.850278 0.851148
0.528008 0.888701 0.902281
0.890547 0.945434 0.970642
0.986938 0.948257 0.983047
0.986358 0.952758 0.986526
0.307469 0.878111 0.88368
0.308659 0.877913 0.883223
0.307942 0.877928 0.88368
0.306096 0.878126 0.884398
0.303395 0.878889 0.884443
0.32549 0.865156 0.861295
0.810285 0.952682 0.960876
0.99324 0.992096 0.995377
0.993423 0.992874 0.997223
0.307576 0.878157 0.883604
0.307942 0.878065 0.883589
0.307958 0.877821 0.88368
0.307607 0.878035 0.88368
0.308507 0.878019 0.883192
0.371008 0.87364 0.871122
0.839536 0.960082 0.968353
0.991089 0.992081 0.995483
0.993393 0.992874 0.997238
