app/public/assets/luts/videowien.cube
TITLE "Generated by Resolve"
LUT_3D_SIZE 5
0.0285954 0.0408942 0.0388952
0.0363928 0.0408026 0.0395972
0.387182 0.0439612 0.0398871
0.719203 0.124865 0.21474
0.744198 0.111696 0.554803
0.0287938 0.0409552 0.038407
0.0295567 0.0415808 0.038941
0.319493 0.0536507 0.0385901
0.672374 0.0910964 0.150286
0.745037 0.111788 0.553567
0.0232853 0.304768 0.110338
0.0225223 0.327199 0.0554208
0.342855 0.350881 0.0359503
0.777554 0.269047 0.197314
0.758114 0.125856 0.437995
0.188663 0.817121 0.575662
0.198627 0.831571 0.574746
0.222812 0.85977 0.508263
0.863706 0.885115 0.345113
0.967056 0.904021 0.42031
0.27187 0.867796 0.837415
0.27129 0.867842 0.834607
0.266697 0.867292 0.813352
0.784054 0.944564 0.617227
0.989807 0.962798 0.666438
0.0286412 0.0408942 0.0387427
0.0767376 0.0417945 0.0779431
0.454032 0.0460975 0.228748
0.735271 0.118776 0.291585
0.731868 0.103639 0.57496
0.0281834 0.0677348 0.0699931
0.045304 0.0591592 0.0628519
0.452354 0.0552224 0.093019
0.728679 0.119188 0.256703
0.732631 0.103853 0.572763
0.022858 0.310628 0.209766
0.0230869 0.34789 0.136782
0.342657 0.371496 0.0377813
0.755642 0.230152 0.18349
0.757534 0.123415 0.489998
0.198047 0.824445 0.610071
0.222965 0.852689 0.63949
0.223697 0.862074 0.5664
0.870161 0.889876 0.356863
0.969512 0.904677 0.434913
0.273594 0.867597 0.840116
0.273365 0.867643 0.837034
0.267399 0.867292 0.817884
0.775601 0.944747 0.627848
0.990478 0.963699 0.675151
0.017258 0.0439612 0.287373
0.273198 0.0385443 0.34609
0.471336 0.0401617 0.367544
0.758068 0.126116 0.433875
0.724926 0.103578 0.612161
0.0154269 0.131044 0.237736
0.0144656 0.0589761 0.330343
0.482383 0.0413519 0.389151
0.757137 0.126513 0.428244
0.725444 0.103716 0.611917
0.0193942 0.317281 0.305348
0.0197147 0.333379 0.319478
0.335103 0.378576 0.370184
0.847944 0.291737 0.386297
0.732738 0.105608 0.57583
0.213779 0.82707 0.675914
0.231144 0.846418 0.693523
0.229267 0.855055 0.655802
0.852308 0.901518 0.449409
0.985931 0.903319 0.544045
0.282002 0.867658 0.85275
0.281376 0.867552 0.850996
0.27689 0.866789 0.838712
0.765499 0.948653 0.735744
0.993713 0.970871 0.763302
0.0151217 0.100099 0.555673
0.0233768 0.0922408 0.574029
0.284413 0.112535 0.691096
0.728481 0.135119 0.705455
0.705669 0.118761 0.722805
0.0304875 0.277775 0.625605
0.0392157 0.305699 0.662455
0.248768 0.300633 0.772702
0.78732 0.2112 0.749142
0.705333 0.118807 0.722896
0.0607156 0.464469 0.667094
0.0749218 0.48867 0.704051
0.174807 0.474845 0.753216
0.884031 0.362036 0.824475
0.746563 0.170397 0.75201
0.249516 0.825238 0.818433
0.262638 0.838422 0.832578
0.261295 0.838453 0.832364
0.863447 0.896056 0.901579
0.984161 0.89662 0.933211
0.301244 0.879561 0.885557
0.301472 0.879377 0.885542
0.302373 0.879255 0.885222
0.799786 0.952712 0.945037
0.99295 0.990936 0.963027
0.187488 0.704417 0.783627
0.285206 0.734356 0.82948
0.448249 0.758831 0.879561
0.906264 0.763287 0.961242
0.959625 0.70988 0.944884
0.230213 0.734661 0.805142
0.323812 0.766705 0.846342
0.485603 0.782437 0.887114
0.92488 0.79353 0.962264
0.960342 0.715831 0.946365
0.241779 0.75938 0.814969
0.316152 0.783871 0.846479
0.473823 0.801892 0.886091
0.924163 0.824292 0.964096
0.966476 0.761273 0.955917
0.282383 0.854994 0.859739
0.281529 0.852491 0.85452
0.298131 0.850278 0.851148
0.890547 0.945434 0.970642
0.986358 0.952758 0.986526
0.307576 0.878157 0.883604
0.307958 0.877821 0.88368
0.308507 0.878019 0.883192
0.839536 0.960082 0.968353
0.993393 0.992874 0.997238
