app/public/assets/luts/videowien.cube
TITLE "Generated by Resolve"
LUT_3D_SIZE 33
0.0285954 0.0408942 0.0388952
0.0285954 0.0408942 0.0388952
0.0285954 0.0408942 0.0388952
0.0285954 0.0408942 0.0388952
0.0285954 0.0408942 0.0388952
0.0285954 0.0408942 0.0388647
0.0285954 0.0408942 0.0388037
0.029572 0.0408484 0.038941
0.0363928 0.0408026 0.0395972
0.0586099 0.0410468 0.0401923
0.0950179 0.0418708 0.0407111
0.141405 0.0424201 0.0411231
0.191592 0.0422675 0.0407263
0.241169 0.0420233 0.0399939
0.290669 0.0422827 0.0395361
0.339849 0.0428931 0.0393988
0.387182 0.0439612 0.0398871
0.432227 0.0451667 0.0419471
0.472953 0.0475624 0.0476539
0.516518 0.0557412 0.0685588
0.564462 0.0699474 0.0987869
0.611765 0.0850385 0.12845
0.657374 0.101091 0.158328
0.696788 0.116838 0.188678
0.719203 0.124865 0.21474
0.725795 0.122225 0.237339
0.730953 0.120043 0.266224
0.742885 0.127047 0.306416
0.754131 0.130541 0.361028
0.759884 0.127184 0.421698
0.760876 0.12401 0.479149
0.754543 0.118837 0.526253
0.744198 0.111696 0.554803
0.0286107 0.0408026 0.0387884
0.0286107 0.0408026 0.0388037
0.0285954 0.0408179 0.0388037
0.0285954 0.0408942 0.038819
0.0285954 0.0408942 0.0388952
0.0285954 0.0408942 0.0388952
0.0285954 0.0408942 0.0388647
0.0291447 0.0408942 0.0388952
0.033875 0.0408484 0.0393378
0.0513619 0.0409247 0.0399176
0.083299 0.0416114 0.0404364
0.126543 0.0425116 0.0409094
0.176944 0.0425879 0.0403601
0.22858 0.0422065 0.0391546
0.282445 0.0421454 0.0385901
0.335332 0.0426184 0.0383612
0.386175 0.0432593 0.0384527
0.434165 0.0443427 0.0401923
0.474769 0.0460059 0.0438087
0.511162 0.0493782 0.0522927
0.547295 0.055436 0.0669871
0.592126 0.068574 0.0962539
0.645182 0.090898 0.137865
0.690623 0.112551 0.177066
0.71667 0.12491 0.207843
0.725551 0.124147 0.233249
0.730327 0.120241 0.26273
0.742336 0.126558 0.305226
0.754116 0.130022 0.363058
0.75993 0.126818 0.42652
0.760296 0.123659 0.485817
0.752804 0.117739 0.531853
0.741848 0.109987 0.558785
0.0287022 0.0408026 0.0386053
0.0286717 0.0408179 0.0386969
0.0285954 0.0408331 0.0387274
0.0285954 0.0408942 0.0388342
0.0285954 0.0408942 0.0389105
0.0285954 0.0408942 0.0389105
0.0285954 0.0408942 0.0389105
0.0289464 0.0408942 0.0389105
0.0321965 0.0408484 0.0391852
0.0453956 0.0408026 0.039826
0.0723735 0.0415045 0.0403754
0.111025 0.0429999 0.041062
0.15729 0.0438239 0.0406195
0.20708 0.0437171 0.0393683
0.261707 0.0433661 0.0381018
0.318669 0.043183 0.0374762
0.37644 0.0433356 0.0374609
0.431022 0.0440223 0.0394446
0.475746 0.0457923 0.0435645
0.511376 0.0482338 0.0498512
0.544121 0.0517281 0.0591592
0.581231 0.0596323 0.0782788
0.630961 0.079057 0.116777
0.680583 0.104448 0.162631
0.711681 0.122133 0.199588
0.723705 0.123964 0.227649
0.729183 0.120058 0.258061
0.741405 0.126131 0.301656
0.753689 0.129854 0.361624
0.759838 0.126772 0.42797
0.759915 0.123369 0.48867
0.751827 0.117281 0.534813
0.740566 0.109499 0.561074
0.028687 0.0408026 0.0386053
0.0285954 0.0408942 0.0387121
0.0285954 0.0408942 0.038819
0.0285954 0.0408942 0.0389258
0.0285954 0.0409094 0.0390021
0.0285954 0.0409247 0.0390173
0.0285954 0.0409094 0.0390021
0.0288396 0.0408942 0.0390021
0.0311742 0.0408484 0.0391852
0.0410315 0.0408179 0.039826
0.0634165 0.0416724 0.0404822
0.0972152 0.0439307 0.0414435
0.137087 0.0458381 0.041474
0.183963 0.0464942 0.0404669
0.237354 0.0461128 0.0386358
0.297139 0.0451972 0.0374304
0.362875 0.0445106 0.0370336
0.424018 0.044358 0.0388495
0.47422 0.0457465 0.0437324
0.512581 0.0484321 0.0510262
0.545617 0.0517433 0.0598917
0.578744 0.0570382 0.0726024
0.621775 0.0712139 0.10222
0.669871 0.0956893 0.148074
0.705287 0.117662 0.190448
0.72134 0.123171 0.221729
0.728267 0.120241 0.253452
0.740383 0.125734 0.297551
0.753277 0.129671 0.359426
0.759762 0.126772 0.426764
0.759838 0.123384 0.48867
0.751614 0.117388 0.535622
0.740276 0.109529 0.5617
0.028687 0.0408331 0.0386206
0.0285954 0.0408942 0.0387121
0.0285954 0.0408942 0.038819
0.0285954 0.0408942 0.0389258
0.0285801 0.0409247 0.0390326
0.0285801 0.041001 0.0390936
0.0285801 0.0409705 0.0390631
0.0287175 0.0409247 0.0390173
0.0303349 0.0409247 0.0392157
0.0377813 0.0409552 0.0399176
0.0562753 0.0419623 0.0406958
0.0858167 0.0451057 0.0419776
0.120775 0.048188 0.0426795
0.164324 0.049836 0.0419623
0.216159 0.0497902 0.0399786
0.277913 0.0484016 0.0382544
0.347875 0.0465095 0.0372473
0.414572 0.0450446 0.038407
0.470115 0.0456092 0.0432593
0.512474 0.0482185 0.0518959
0.546883 0.0518807 0.0616617
0.580118 0.0570993 0.0735332
0.617197 0.0672923 0.0949111
0.659968 0.0878157 0.134905
0.698009 0.112215 0.180621
0.718791 0.122347 0.216098
0.727581 0.12079 0.249592
0.739315 0.125154 0.294087
0.752575 0.129396 0.356878
0.759579 0.126787 0.425406
0.759854 0.123445 0.487785
0.752041 0.117571 0.534737
0.740948 0.109789 0.560815
0.028687 0.0408789 0.0386969
0.0285954 0.0408942 0.0387427
0.0285954 0.0408942 0.0388495
0.0285801 0.0408942 0.038941
0.0285039 0.0409247 0.0390326
0.0285039 0.0409857 0.0390936
0.0285191 0.041001 0.0390936
0.0286107 0.041001 0.0390326
0.0297856 0.041001 0.0391546
0.0354925 0.0411841 0.0397955
0.0508431 0.0424811 0.0409552
0.0773022 0.0462959 0.0426032
0.109606 0.0502937 0.0437934
0.151141 0.0528725 0.0434119
0.20209 0.0530861 0.0409552
0.26424 0.0512703 0.0388342
0.335134 0.0486 0.0376593
0.406775 0.0458839 0.0387579
0.466606 0.0453651 0.0441291
0.513222 0.0475624 0.0550393
0.549706 0.0512398 0.0666514
0.58291 0.0565347 0.0788586
0.616831 0.065095 0.095491
0.653315 0.0814984 0.127108
0.69073 0.106065 0.171969
0.716335 0.121599 0.211231
0.726955 0.121675 0.245518
0.738064 0.124514 0.289906
0.751858 0.129091 0.353613
0.75938 0.126848 0.42356
0.759945 0.123629 0.486183
0.752544 0.11783 0.533364
0.742031 0.110185 0.55903
0.0287022 0.0408026 0.0386358
0.0286412 0.0408942 0.0387427
0.0286412 0.0408942 0.0388037
0.0286107 0.0408942 0.0388952
0.0285344 0.0408942 0.0389258
0.0285344 0.0409247 0.0389868
0.0285649 0.0409705 0.0389563
0.0286564 0.0409705 0.0388952
0.0294499 0.0409857 0.0390021
0.033875 0.0413519 0.0396735
0.0469825 0.043183 0.0412909
0.0709544 0.0476997 0.0433204
0.102342 0.052369 0.0449836
0.143069 0.0552071 0.0445563
0.194293 0.0552834 0.0413214
0.256474 0.0531624 0.0389715
0.32726 0.0502174 0.0381018
0.401968 0.0466011 0.0397803
0.465721 0.0449378 0.0465095
0.514488 0.0466468 0.0592355
0.552789 0.0503395 0.0729992
0.586542 0.0556954 0.0858625
0.618601 0.0637675 0.0996262
0.649393 0.0768139 0.123568
0.684398 0.100435 0.164996
0.713741 0.120516 0.206683
0.726238 0.122103 0.241718
0.736965 0.123903 0.285893
0.751263 0.128954 0.350378
0.759152 0.126833 0.422934
0.759899 0.123674 0.486152
0.752758 0.118074 0.533028
0.742885 0.110536 0.557412
0.028748 0.0408026 0.0384222
0.028748 0.0408637 0.038468
0.028748 0.0408637 0.0384985
0.0287327 0.0408637 0.0385748
0.0286717 0.0408637 0.0386053
0.0286412 0.0408637 0.0386816
0.0286412 0.0408637 0.0386511
0.0286717 0.0408637 0.0386206
0.0292363 0.0409552 0.0387579
0.0328374 0.0416114 0.0395514
0.0442512 0.0441444 0.0416419
0.0662394 0.0495613 0.0440375
0.0969863 0.0546731 0.0459602
0.137819 0.0569772 0.0455024
0.189548 0.0567788 0.0419013
0.251835 0.0546578 0.0394293
0.32253 0.0516518 0.0384833
0.398459 0.0474556 0.0405737
0.464469 0.0450752 0.0469368
0.514138 0.04654 0.0593118
0.553826 0.0503395 0.0741588
0.588006 0.0556802 0.0876783
0.619867 0.0635843 0.100832
0.646067 0.0736858 0.119234
0.678172 0.095613 0.157305
0.710964 0.118822 0.202365
0.72517 0.121721 0.238514
0.73608 0.123308 0.283101
0.751003 0.128969 0.348745
0.758877 0.126818 0.422644
0.759609 0.123705 0.486732
0.752651 0.118364 0.533852
0.743984 0.111055 0.555383
0.0287938 0.0409552 0.038407
0.0287938 0.0410468 0.0384527
0.0287938 0.0410925 0.0384985
0.0287938 0.0411536 0.0385595
0.0287785 0.0411841 0.0386053
0.028748 0.0411688 0.0386511
0.028748 0.0411536 0.0386511
0.0288243 0.0412299 0.0386664
0.0295567 0.0415808 0.038941
0.0332036 0.0428931 0.0400397
0.0440375 0.0466163 0.0424811
0.0645762 0.0529335 0.045304
0.0943618 0.0582742 0.0472572
0.135088 0.0598611 0.0466621
0.187366 0.059144 0.0432441
0.249668 0.0568856 0.0401923
0.319493 0.0536507 0.0385901
0.394156 0.0488136 0.0411078
0.463066 0.0453651 0.0474708
0.51426 0.0464637 0.0599527
0.554864 0.0502174 0.0753185
0.589776 0.0557259 0.0895857
0.621317 0.0635386 0.102556
0.643503 0.0712596 0.115984
0.672374 0.0910964 0.150286
0.707729 0.116655 0.197559
0.723812 0.121187 0.234836
0.735134 0.122759 0.279927
0.750622 0.129152 0.345525
0.758648 0.126909 0.420844
0.759487 0.123827 0.486091
0.752605 0.118791 0.534539
0.745037 0.111788 0.553567
0.0289158 0.0431525 0.0395972
0.0289616 0.0438392 0.0398108
0.0289616 0.0441749 0.0399481
0.0289616 0.0442664 0.0400092
0.0289616 0.0442206 0.0400092
0.0290074 0.0441444 0.0399786
0.0291905 0.0440681 0.0399176
0.0297856 0.0443732 0.0400092
0.0317082 0.0455329 0.0406043
0.0372168 0.0483711 0.0421149
0.0491798 0.0537881 0.0447852
0.0696117 0.061265 0.0478981
0.0986954 0.0672465 0.0499428
0.138399 0.0687572 0.0493782
0.190677 0.0671855 0.0461738
0.251972 0.0635538 0.0420233
0.31928 0.0590982 0.0395209
0.389792 0.0531624 0.0413062
0.458778 0.0474556 0.0475013
0.512871 0.0467079 0.0597696
0.555108 0.0500801 0.075639
0.591165 0.0557717 0.0907912
0.622705 0.0636301 0.104005
0.641428 0.0694438 0.113191
0.664988 0.0851759 0.141329
0.701961 0.112123 0.189914
0.721935 0.120317 0.230106
0.7337 0.122057 0.274815
0.749905 0.12932 0.340612
0.758343 0.127153 0.4177
0.759472 0.12398 0.484276
0.752575 0.119188 0.535195
0.744808 0.112749 0.555032
0.0295415 0.0577554 0.0466773
0.0295262 0.059144 0.0464332
0.0294652 0.0590677 0.0461738
0.0294652 0.0580301 0.0457008
0.0295262 0.0567941 0.045182
0.0299229 0.0561227 0.0449531
0.0309453 0.0555428 0.0446021
0.0330205 0.0561074 0.0446326
0.0375219 0.0584878 0.0453651
0.0464179 0.0629129 0.0467689
0.0610056 0.0697185 0.0487984
0.0822461 0.0781262 0.0512856
0.111376 0.0853285 0.0533303
0.150607 0.0877089 0.0533303
0.20116 0.0853285 0.050782
0.261051 0.0793622 0.0464332
0.326574 0.0725109 0.0433509
0.392325 0.0648203 0.0431373
0.454948 0.056733 0.0470283
0.50753 0.0512398 0.0563973
0.550881 0.0512551 0.0708324
0.589563 0.0564431 0.0866102
0.62208 0.0644846 0.100313
0.639292 0.0695506 0.107485
0.653849 0.0781415 0.125078
0.690761 0.104814 0.173526
0.718547 0.119524 0.221607
0.731868 0.121309 0.268391
0.748608 0.129091 0.333501
0.757977 0.127443 0.412757
0.759579 0.124117 0.481209
0.753414 0.119738 0.532479
0.745235 0.114107 0.554818
0.0287022 0.0931716 0.0597238
0.0287327 0.0958572 0.0574807
0.028809 0.0950484 0.0563516
0.0291447 0.0921645 0.0555734
0.0298009 0.0883955 0.0547494
0.0312352 0.0850385 0.0540322
0.033814 0.0829633 0.0532845
0.037705 0.0824598 0.0525521
0.0446174 0.0849165 0.0524453
0.0564889 0.0893111 0.052491
0.0740215 0.09514 0.0524147
0.09691 0.102876 0.0530709
0.127184 0.111269 0.05449
0.166827 0.115419 0.0552682
0.21706 0.113481 0.054551
0.275959 0.107347 0.0520943
0.341299 0.0987259 0.0500954
0.407172 0.0891737 0.0501411
0.465339 0.0787823 0.0520638
0.51075 0.067628 0.0569009
0.547738 0.059266 0.0667887
0.584695 0.0584573 0.0807355
0.620325 0.0651865 0.0959793
0.638285 0.0701915 0.103731
0.644343 0.0729992 0.110201
0.676631 0.0959029 0.153307
0.71397 0.118944 0.210636
0.72987 0.120928 0.260838
0.746654 0.128176 0.325567
0.757443 0.127642 0.406943
0.75964 0.124178 0.475822
0.754437 0.120577 0.527657
0.746868 0.115831 0.551446
0.0274357 0.134493 0.0710155
0.0273289 0.138903 0.0641947
0.0273899 0.139147 0.0617838
0.0277256 0.135927 0.0612802
0.0284276 0.130724 0.0607919
0.0302434 0.125734 0.0601663
0.0333104 0.121614 0.0593271
0.0375219 0.120058 0.0582284
0.0447242 0.12163 0.0571756
0.0580606 0.125093 0.0559548
0.079057 0.129503 0.0540932
0.105516 0.134829 0.05243
0.137652 0.141894 0.0521248
0.179248 0.148638 0.052903
0.2318 0.149966 0.0542458
0.292226 0.146288 0.0553445
0.358801 0.139483 0.0568093
0.426474 0.130037 0.0601511
0.487694 0.118532 0.0646372
0.533639 0.103441 0.0694896
0.56408 0.0874342 0.0754406
0.588739 0.072755 0.0827192
0.616831 0.0673228 0.0934615
0.637324 0.0702068 0.102617
0.640894 0.0713512 0.104891
0.658091 0.082826 0.128252
0.702373 0.112627 0.190463
0.725826 0.11931 0.24802
0.743053 0.125963 0.313085
0.75639 0.128161 0.395499
0.759304 0.124407 0.467994
0.755154 0.121492 0.521233
0.748775 0.117708 0.546456
0.0263218 0.174182 0.0787671
0.0261234 0.18027 0.0664378
0.0260777 0.182147 0.0618601
0.0262303 0.180438 0.0609445
0.0265202 0.17586 0.0607767
0.0273289 0.170397 0.0607156
0.029221 0.16585 0.0604562
0.0320134 0.162875 0.0596628
0.0366979 0.16318 0.0581979
0.0471199 0.166262 0.0564126
0.0671702 0.170336 0.0541695
0.0971084 0.17467 0.0512398
0.135836 0.179522 0.0486305
0.182849 0.18584 0.0476539
0.238987 0.191867 0.0488899
0.30454 0.192874 0.052491
0.373526 0.189349 0.0584878
0.443122 0.183154 0.0666972
0.508659 0.17322 0.0764019
0.562432 0.158602 0.0866255
0.599008 0.140887 0.0958114
0.619287 0.118914 0.100679
0.632486 0.0950179 0.102937
0.639933 0.0773022 0.103655
0.640192 0.0713054 0.103197
0.644663 0.0738079 0.109621
0.682048 0.0993057 0.160922
0.719905 0.118822 0.22887
0.738262 0.123507 0.294148
0.754574 0.129 0.37464
0.75906 0.125139 0.453147
0.756802 0.122576 0.508446
0.752071 0.119951 0.535485
0.0251316 0.215091 0.0862593
0.0247654 0.221912 0.0692912
0.0245975 0.225742 0.0612345
0.0246433 0.226566 0.0580301
0.0248112 0.224506 0.057084
0.0251469 0.219791 0.0574502
0.0255894 0.215015 0.0577707
0.0263676 0.211139 0.0577249
0.0278325 0.209216 0.0569619
0.0316167 0.210346 0.0558633
0.0428321 0.21416 0.0544594
0.0679484 0.219501 0.0518044
0.109819 0.22501 0.0476387
0.167178 0.229892 0.0437629
0.233021 0.235599 0.0424353
0.30396 0.241276 0.044892
0.379767 0.242313 0.0526589
0.454002 0.239796 0.0653849
0.523064 0.233967 0.0814069
0.584833 0.223804 0.0992599
0.632105 0.208896 0.116564
0.662257 0.188922 0.128161
0.676585 0.161074 0.131273
0.674495 0.125322 0.125048
0.655314 0.0888685 0.111406
0.64242 0.0729534 0.104906
0.655421 0.0806897 0.125063
0.70312 0.111681 0.195697
0.730617 0.12108 0.265797
0.750423 0.129503 0.344945
0.758495 0.12665 0.428641
0.758572 0.123568 0.486702
0.755795 0.122118 0.515984
0.0239719 0.258183 0.0963302
0.0235599 0.265354 0.0772717
0.0233616 0.270283 0.0641489
0.0233005 0.272892 0.0572213
0.0233463 0.273472 0.0547799
0.0234684 0.272633 0.0542611
0.023621 0.269917 0.0547951
0.0238499 0.266545 0.0552834
0.0241245 0.263569 0.0556039
0.024567 0.260731 0.0556649
0.0265812 0.261082 0.0554818
0.0356451 0.26566 0.0542458
0.0628214 0.273075 0.0508888
0.118975 0.280034 0.0452583
0.199817 0.284932 0.039704
0.286336 0.289921 0.0381018
0.370718 0.296056 0.0428473
0.454231 0.298573 0.0559091
0.530846 0.297551 0.0773175
0.598718 0.291524 0.10367
0.655512 0.281453 0.129931
0.697963 0.266178 0.151827
0.724987 0.244511 0.164981
0.732906 0.212085 0.165347
0.711299 0.164889 0.148165
0.670924 0.108858 0.121965
0.648524 0.078645 0.110994
0.66746 0.0891432 0.141711
0.715084 0.115755 0.223239
0.74052 0.124559 0.30515
0.755871 0.128511 0.390341
0.759075 0.125078 0.455161
0.758495 0.123857 0.485954
0.0232853 0.304768 0.110338
0.0229648 0.311818 0.0934157
0.0226749 0.317388 0.0768597
0.0224918 0.321935 0.0653086
0.022385 0.325002 0.0586404
0.0223087 0.32697 0.0551156
0.0223545 0.328283 0.0548257
0.0224765 0.328405 0.0551461
0.0225223 0.327199 0.0554208
0.0225376 0.325093 0.0555581
0.0226291 0.321004 0.0555276
0.0228428 0.318471 0.0554055
0.0271153 0.322621 0.0545357
0.0544137 0.331914 0.0505684
0.127779 0.340551 0.0428168
0.235676 0.345464 0.0360418
0.342855 0.350881 0.0359503
0.439612 0.35819 0.0447395
0.526802 0.362753 0.0655528
0.603174 0.362112 0.0978256
0.668299 0.356085 0.133272
0.721462 0.3458 0.16492
0.761578 0.330068 0.18996
0.784161 0.306905 0.203464
0.777554 0.269047 0.197314
0.743786 0.212894 0.17232
0.692393 0.136019 0.136675
0.656428 0.0866865 0.117693
0.679057 0.0962234 0.160128
0.72369 0.117174 0.249012
0.746777 0.12697 0.333715
0.756848 0.127749 0.405142
0.758114 0.125856 0.437995
0.0228122 0.35668 0.129046
0.0226902 0.364538 0.116381
0.0225071 0.371221 0.102663
0.0223239 0.376699 0.0877394
0.0222629 0.38175 0.0747539
0.0222934 0.386236 0.0656596
0.0222629 0.389746 0.0596475
0.0222782 0.393194 0.0579385
0.0223392 0.396017 0.0578317
0.022385 0.398367 0.0580148
0.0223697 0.398901 0.0581674
0.0225071 0.394537 0.0580758
0.0226902 0.389181 0.0578927
0.0258793 0.390921 0.0569619
0.0553597 0.399161 0.0520027
0.14345 0.409445 0.0423743
0.27602 0.414939 0.0358282
0.403006 0.418341 0.0391394
0.507073 0.425666 0.0557717
0.595071 0.432105 0.0876631
0.669963 0.4327 0.128511
0.732509 0.427146 0.167971
0.783001 0.415335 0.201785
0.817929 0.397757 0.226688
0.826749 0.372534 0.233097
0.810864 0.333349 0.221439
0.777966 0.271687 0.197711
0.726818 0.189654 0.160418
0.670832 0.105303 0.128069
0.678981 0.0951553 0.161746
0.724437 0.117891 0.252003
0.743145 0.125673 0.318669
0.750301 0.129366 0.349523
0.0234073 0.416236 0.158694
0.0235142 0.424704 0.149706
0.0237736 0.432166 0.141054
0.0240177 0.439246 0.131899
0.0243229 0.445106 0.121035
0.0247196 0.450217 0.108446
0.0252537 0.455131 0.0962081
0.0259251 0.459709 0.0862287
0.0267796 0.465293 0.0801556
0.0276036 0.470802 0.076524
0.0283818 0.476036 0.0746777
0.0291905 0.479774 0.0743267
0.0295872 0.478538 0.0739452
0.0292973 0.472755 0.0724041
0.034226 0.471168 0.0694285
0.0713359 0.477577 0.0615549
0.178241 0.485985 0.0489662
0.328832 0.489601 0.0428168
0.466773 0.491386 0.0540475
0.575006 0.496971 0.0838178
0.662959 0.504189 0.124819
0.734554 0.506172 0.16733
0.793896 0.500511 0.206806
0.838865 0.48867 0.238834
0.858518 0.470497 0.253437
0.854871 0.444419 0.251484
0.840421 0.40528 0.241596
0.81384 0.347387 0.222721
0.769039 0.262745 0.19086
0.709056 0.163943 0.151202
0.680598 0.109056 0.149584
0.714534 0.126497 0.20763
0.728618 0.135988 0.233173
0.0276036 0.482231 0.203616
0.0286564 0.491447 0.198825
0.0296025 0.498909 0.193851
0.0305028 0.505318 0.188983
0.0314946 0.511543 0.183932
0.0325475 0.517479 0.178256
0.0336461 0.522805 0.171481
0.0351568 0.528511 0.164279
0.0367742 0.533455 0.154604
0.0387121 0.538537 0.141955
0.041413 0.544915 0.128313
0.0448463 0.552483 0.11783
0.048127 0.55938 0.113237
0.0506142 0.562036 0.110887
0.0505684 0.557336 0.106981
0.0573129 0.55317 0.0999008
0.109316 0.558312 0.085359
0.233158 0.565209 0.0686503
0.393362 0.567391 0.0669413
0.535668 0.566842 0.0885023
0.644572 0.57023 0.126635
0.730098 0.576974 0.170031
0.798459 0.580804 0.211719
0.850584 0.577279 0.247272
0.877394 0.567926 0.26659
0.880079 0.550988 0.268589
0.874739 0.52578 0.26479
0.865705 0.490196 0.258885
0.849653 0.43975 0.248219
0.823804 0.374868 0.230701
0.78732 0.299031 0.205295
0.754726 0.242878 0.182696
0.753429 0.24329 0.183062
0.0397192 0.552209 0.264271
0.0414282 0.559518 0.261357
0.0429847 0.565972 0.258396
0.0444038 0.571633 0.255756
0.0459907 0.577203 0.253544
0.0476539 0.582712 0.251408
0.049546 0.588602 0.250095
0.0513161 0.593668 0.247959
0.0533608 0.599176 0.244968
0.0558175 0.604883 0.238788
0.059144 0.611399 0.228077
0.0639506 0.618814 0.211002
0.0704356 0.626307 0.189319
0.0796368 0.635203 0.171603
0.0880903 0.640513 0.159335
0.0908217 0.637354 0.150942
0.104326 0.63357 0.139483
0.169848 0.638621 0.121889
0.302876 0.645335 0.106493
0.464637 0.645594 0.109392
0.605753 0.64242 0.136034
0.712932 0.643702 0.176913
0.794965 0.650553 0.220218
0.855161 0.656382 0.257176
0.887495 0.655222 0.278981
0.894087 0.646433 0.283543
0.891981 0.631937 0.281483
0.888823 0.612421 0.278401
0.884215 0.586053 0.274205
0.877882 0.553155 0.269001
0.871351 0.521126 0.264317
0.867887 0.50399 0.262242
0.868711 0.510826 0.263172
0.0619669 0.622126 0.334783
0.0641184 0.627909 0.333089
0.065919 0.632715 0.330877
0.0677195 0.6374 0.329381
0.0698253 0.642435 0.328771
0.0716259 0.646662 0.327535
0.07364 0.651164 0.327108
0.0756695 0.655497 0.32665
0.0779583 0.660456 0.326268
0.0809033 0.666285 0.325139
0.0847944 0.673472 0.322805
0.0898451 0.681605 0.316701
0.096437 0.689815 0.302419
0.106859 0.698054 0.275761
0.123278 0.707332 0.242039
0.140917 0.715068 0.216266
0.150256 0.714046 0.199954
0.171313 0.711299 0.18439
0.244144 0.71635 0.166903
0.380758 0.722011 0.154696
0.540322 0.720073 0.161761
0.677012 0.714794 0.190784
0.778866 0.715572 0.231876
0.851926 0.722225 0.271107
0.894789 0.72639 0.296529
0.907118 0.723659 0.30338
0.906401 0.716487 0.30161
0.904173 0.707225 0.298924
0.901366 0.694697 0.295598
0.898604 0.681163 0.292103
0.896696 0.670466 0.28925
0.897108 0.669352 0.289158
0.899184 0.677531 0.291554
0.0958724 0.690959 0.412589
0.098085 0.695399 0.411612
0.100038 0.699153 0.410208
0.102007 0.702907 0.409339
0.103792 0.706203 0.408377
0.105638 0.709514 0.407645
0.107469 0.712688 0.407065
0.109499 0.716182 0.407095
0.111589 0.719783 0.406668
0.114717 0.724849 0.406683
0.118166 0.730419 0.405417
0.12282 0.737362 0.403174
0.129274 0.745846 0.398764
0.139498 0.755947 0.389349
0.150576 0.765225 0.364569
0.170718 0.775525 0.323171
0.19678 0.784848 0.2822
0.213794 0.784634 0.252354
0.241733 0.782452 0.231296
0.321828 0.787305 0.214389
0.460868 0.791714 0.206668
0.617182 0.787732 0.21738
0.746746 0.782559 0.248234
0.8383 0.782879 0.286854
0.896437 0.786923 0.317693
0.921645 0.787839 0.331044
0.925597 0.784604 0.33193
0.924071 0.779507 0.329519
0.921996 0.773754 0.326726
0.919631 0.767941 0.323522
0.918685 0.76614 0.321477
0.92015 0.770382 0.322728
0.922744 0.778073 0.326741
0.140337 0.757153 0.494621
0.142489 0.760723 0.494621
0.144198 0.7635 0.493843
0.145739 0.765957 0.492988
0.147158 0.768215 0.492073
0.148516 0.770291 0.491142
0.150164 0.772717 0.490944
0.152026 0.775418 0.491203
0.153948 0.77821 0.49099
0.156146 0.781369 0.490028
0.158495 0.784894 0.48809
0.16199 0.789425 0.485603
0.166415 0.795285 0.481834
0.172961 0.803418 0.476768
0.183474 0.813626 0.467231
0.194324 0.823743 0.445426
0.214725 0.833539 0.399283
0.237736 0.83592 0.339895
0.256336 0.830793 0.292515
0.295399 0.83122 0.266148
0.389838 0.838636 0.251453
0.53727 0.843107 0.249042
0.692256 0.842023 0.267338
0.810437 0.841184 0.301686
0.888869 0.843244 0.337331
0.931319 0.84506 0.359747
0.943847 0.843778 0.36553
0.944442 0.841154 0.364492
0.943465 0.838605 0.363012
0.942138 0.836469 0.361791
0.942611 0.837736 0.362112
0.944747 0.842802 0.365866
0.947051 0.849348 0.371176
0.188663 0.817121 0.575662
0.190402 0.819684 0.576303
0.191608 0.821622 0.575998
0.192477 0.823133 0.57525
0.19353 0.824704 0.574746
0.19469 0.826337 0.574533
0.196109 0.828199 0.574899
0.197391 0.829908 0.574945
0.198627 0.831571 0.574746
0.200153 0.833585 0.573877
0.201862 0.83592 0.572457
0.204074 0.838529 0.569696
0.206836 0.842191 0.565988
0.209751 0.846464 0.559716
0.21326 0.851453 0.550057
0.218296 0.856855 0.535515
0.222812 0.85977 0.508263
0.230686 0.856382 0.450126
0.245121 0.849668 0.374075
0.270558 0.846311 0.314794
0.326955 0.851209 0.284596
0.448386 0.862104 0.270314
0.614084 0.871931 0.276875
0.760311 0.879393 0.306538
0.863706 0.885115 0.345113
0.927855 0.889601 0.378332
0.955901 0.892317 0.395377
0.961837 0.892485 0.399084
0.962509 0.891768 0.399817
0.962875 0.892164 0.401556
0.963867 0.894804 0.405585
0.965301 0.899321 0.413108
0.967056 0.904021 0.42031
0.227222 0.858473 0.647822
0.228 0.859403 0.647745
0.228626 0.860319 0.647654
0.229114 0.861189 0.647379
0.229587 0.861952 0.647135
0.230152 0.862821 0.647242
0.230655 0.863645 0.647181
0.231128 0.864439 0.646906
0.231724 0.865293 0.646967
0.232395 0.866224 0.646281
0.233295 0.867292 0.645182
0.234073 0.868437 0.64303
0.234745 0.869657 0.639445
0.235157 0.870909 0.633509
0.23476 0.87155 0.624018
0.233402 0.871611 0.609659
0.230808 0.870253 0.5879
0.228992 0.86717 0.552071
0.229725 0.860487 0.487938
0.239673 0.852796 0.407309
0.269001 0.850874 0.34696
0.363607 0.861204 0.307469
0.523613 0.876982 0.292134
0.689403 0.890303 0.307591
0.820096 0.901015 0.344182
0.909117 0.911147 0.388617
0.956573 0.918837 0.421103
0.970855 0.921569 0.43299
0.973159 0.92224 0.437003
0.974075 0.923583 0.441276
0.975235 0.926558 0.448035
0.976501 0.930358 0.457588
0.977249 0.93283 0.464439
0.246113 0.871321 0.701946
0.246448 0.871366 0.701854
